; generated by PrusaSlicer 2.2.0+ on 2020-11-08 at 16:09:11 UTC

; 

; external perimeters extrusion width = 0.60mm
; perimeters extrusion width = 0.50mm
; infill extrusion width = 0.50mm
; solid infill extrusion width = 0.50mm
; top infill extrusion width = 0.45mm
; first layer extrusion width = 0.42mm

M73 P0 R74
M73 Q0 S75
M201 X1000 Y1000 Z200 E5000 ; sets maximum accelerations, mm/sec^2
M203 X200 Y200 Z12 E120 ; sets maximum feedrates, mm/sec
M204 P1250 R1250 T1250 ; sets acceleration (P, T) and retract acceleration (R), mm/sec^2
M205 X8.00 Y8.00 Z0.40 E4.50 ; sets the jerk limits, mm/sec
M205 S0 T0 ; sets the minimum extruding and travel feed rate, mm/sec
M107
M862.3 P "MK3S" ; printer model check
M862.1 P0.4 ; nozzle diameter check
M115 U3.9.0 ; tell printer latest fw version
G90 ; use absolute coordinates
M83 ; extruder relative mode
M104 S230 ; set extruder temp
M140 S60 ; set bed temp
M190 S60 ; wait for bed temp
M109 S230 ; wait for extruder temp
G28 W ; home all without mesh bed level
G80 ; mesh bed leveling
G1 Y-3.0 F1000.0 ; go outside print area
G92 E0.0
G1 X60.0 E9.0 F1000.0 ; intro line
M73 Q0 S75
M73 P0 R74
G1 X100.0 E12.5 F1000.0 ; intro line
G92 E0.0
M221 S95
G21 ; set units to millimeters
G90 ; use absolute coordinates
M83 ; use relative distances for extrusion
M900 K0.06 ; Filament gcode LA 1.5
M900 K30 ; Filament gcode LA 1.0
;BEFORE_LAYER_CHANGE
G92 E0.0
;0.2


G1 E-0.80000 F2100.00000
G1 Z0.600 F10800.000
;AFTER_LAYER_CHANGE
;0.2
G1 X76.125 Y34.181
G1 Z0.200
G1 E0.80000 F2100.00000
M204 S500
G1 F1200.000
G1 X76.411 Y33.565 E0.02130
G1 X76.786 Y33.121 E0.01823
G1 X77.258 Y32.781 E0.01823
G1 X77.798 Y32.565 E0.01823
G1 X78.374 Y32.488 E0.01823
G1 X171.598 Y32.487 E2.92299
G1 X172.500 Y32.667 E0.02884
G1 X173.264 Y33.173 E0.02872
G1 X173.781 Y33.933 E0.02884
G1 X173.971 Y34.833 E0.02884
G1 X173.975 Y175.142 E4.39929
G1 X173.875 Y175.818 E0.02142
G1 X173.589 Y176.434 E0.02130
G1 X173.211 Y176.881 E0.01835
G1 X172.739 Y177.220 E0.01823
G1 X172.195 Y177.436 E0.01835
G1 X171.615 Y177.511 E0.01835
G1 X78.394 Y177.512 E2.92287
G1 X77.722 Y177.411 E0.02130
G1 X77.106 Y177.125 E0.02130
G1 X76.659 Y176.747 E0.01835
G1 X76.318 Y176.272 E0.01835
G1 X76.104 Y175.727 E0.01835
G1 X76.029 Y175.147 E0.01835
G1 X76.025 Y34.857 E4.39870
G1 X76.116 Y34.240 E0.01954
M204 S1000
G1 F8640.000
G1 X76.411 Y33.565 E-0.17022
G1 X76.786 Y33.121 E-0.13423
G1 X77.258 Y32.781 E-0.13423
G1 X77.798 Y32.565 E-0.13423
G1 X78.374 Y32.488 E-0.13423
G1 X78.603 Y32.488 E-0.05286
G1 E-0.04000 F2100.00000
G1 Z0.800 F10800.000
G1 X80.099 Y107.534
G1 Z0.200
G1 E0.80000 F2100.00000
M204 S500
G1 F1200.000
G1 X92.972 Y107.534 E0.40361
G1 X93.112 Y108.455 E0.02919
G1 X93.609 Y110.384 E0.06248
G1 X94.297 Y112.257 E0.06254
G1 X95.170 Y114.053 E0.06264
G1 X96.220 Y115.758 E0.06278
G1 X97.438 Y117.355 E0.06296
G1 X98.808 Y118.827 E0.06306
G1 X100.320 Y120.160 E0.06320
G1 X101.959 Y121.343 E0.06338
G1 X103.708 Y122.363 E0.06349
G1 X105.552 Y123.212 E0.06365
G1 X107.472 Y123.880 E0.06373
G1 X109.449 Y124.362 E0.06381
G1 X111.466 Y124.652 E0.06388
G1 X113.482 Y124.749 E0.06329
G1 X136.522 Y124.749 E0.72239
G1 X138.538 Y124.652 E0.06329
G1 X140.555 Y124.362 E0.06388
G1 X142.532 Y123.880 E0.06381
G1 X144.452 Y123.212 E0.06373
G1 X146.296 Y122.363 E0.06365
G1 X148.045 Y121.343 E0.06349
G1 X149.684 Y120.160 E0.06338
G1 X151.196 Y118.827 E0.06320
G1 X152.566 Y117.355 E0.06306
G1 X153.784 Y115.758 E0.06296
G1 X154.834 Y114.053 E0.06278
G1 X155.707 Y112.257 E0.06264
G1 X156.395 Y110.384 E0.06254
G1 X156.892 Y108.455 E0.06248
G1 X157.032 Y107.534 E0.02919
G1 X169.905 Y107.534 E0.40361
G1 X169.905 Y120.356 E0.40203
G1 X167.950 Y120.638 E0.06192
G1 X165.973 Y121.120 E0.06381
G1 X164.052 Y121.788 E0.06376
G1 X162.209 Y122.637 E0.06362
G1 X160.459 Y123.657 E0.06352
G1 X158.821 Y124.840 E0.06335
G1 X157.309 Y126.173 E0.06322
G1 X155.937 Y127.645 E0.06307
G1 X154.721 Y129.242 E0.06293
G1 X153.670 Y130.946 E0.06279
G1 X152.797 Y132.743 E0.06265
G1 X152.109 Y134.616 E0.06254
G1 X151.612 Y136.545 E0.06248
G1 X151.312 Y138.513 E0.06240
G1 X151.211 Y140.500 E0.06240
G1 X151.312 Y142.487 E0.06240
G1 X151.612 Y144.455 E0.06240
G1 X152.109 Y146.384 E0.06248
G1 X152.797 Y148.257 E0.06254
G1 X153.670 Y150.054 E0.06265
G1 X154.721 Y151.758 E0.06279
G1 X155.937 Y153.355 E0.06293
G1 X157.309 Y154.827 E0.06307
G1 X158.821 Y156.160 E0.06322
G1 X160.459 Y157.343 E0.06335
G1 X162.209 Y158.363 E0.06352
G1 X164.052 Y159.212 E0.06362
G1 X165.973 Y159.880 E0.06376
G1 X167.950 Y160.362 E0.06381
G1 X169.905 Y160.644 E0.06192
G1 X169.905 Y173.466 E0.40203
G1 X157.181 Y173.466 E0.39896
G1 X156.892 Y171.572 E0.06006
G1 X156.395 Y169.644 E0.06244
G1 X155.707 Y167.770 E0.06257
G1 X154.834 Y165.974 E0.06264
G1 X153.784 Y164.269 E0.06278
G1 X152.566 Y162.672 E0.06296
G1 X151.196 Y161.200 E0.06306
G1 X149.684 Y159.867 E0.06320
G1 X148.045 Y158.684 E0.06338
G1 X146.296 Y157.664 E0.06349
G1 X144.452 Y156.816 E0.06363
G1 X142.532 Y156.147 E0.06373
G1 X140.555 Y155.665 E0.06382
G1 X138.538 Y155.375 E0.06388
G1 X136.522 Y155.278 E0.06329
G1 X113.482 Y155.278 E0.72239
G1 X111.466 Y155.375 E0.06329
G1 X109.449 Y155.665 E0.06388
G1 X107.472 Y156.147 E0.06382
G1 X105.552 Y156.816 E0.06373
G1 X103.708 Y157.664 E0.06363
G1 X101.959 Y158.684 E0.06349
G1 X100.320 Y159.867 E0.06338
G1 X98.808 Y161.200 E0.06320
G1 X97.438 Y162.672 E0.06306
G1 X96.220 Y164.269 E0.06296
G1 X95.170 Y165.974 E0.06278
G1 X94.297 Y167.770 E0.06264
G1 X93.609 Y169.644 E0.06257
G1 X93.112 Y171.572 E0.06244
G1 X92.823 Y173.466 E0.06006
G1 X80.099 Y173.466 E0.39896
G1 X80.099 Y160.644 E0.40203
G1 X82.054 Y160.362 E0.06192
G1 X84.031 Y159.880 E0.06381
G1 X85.952 Y159.212 E0.06376
G1 X87.795 Y158.363 E0.06362
G1 X89.545 Y157.343 E0.06352
G1 X91.183 Y156.160 E0.06335
G1 X92.695 Y154.827 E0.06322
G1 X94.067 Y153.355 E0.06307
G1 X95.283 Y151.758 E0.06293
G1 X96.334 Y150.054 E0.06279
G1 X97.207 Y148.257 E0.06265
G1 X97.895 Y146.384 E0.06254
G1 X98.392 Y144.455 E0.06248
G1 X98.692 Y142.487 E0.06240
G1 X98.792 Y140.500 E0.06239
G1 X98.692 Y138.513 E0.06239
G1 X98.392 Y136.545 E0.06240
G1 X97.895 Y134.616 E0.06248
G1 X97.207 Y132.743 E0.06254
G1 X96.334 Y130.946 E0.06265
G1 X95.283 Y129.242 E0.06279
G1 X94.067 Y127.645 E0.06293
G1 X92.695 Y126.173 E0.06307
G1 X91.183 Y124.840 E0.06322
G1 X89.545 Y123.657 E0.06335
G1 X87.795 Y122.637 E0.06352
G1 X85.952 Y121.788 E0.06362
G1 X84.031 Y121.120 E0.06376
G1 X82.054 Y120.638 E0.06381
G1 X80.099 Y120.356 E0.06192
G1 X80.099 Y107.594 E0.40014
M204 S1000
G1 X79.722 Y107.157 F10800.000
M204 S500
G1 F1200.000
G1 X93.295 Y107.157 E0.42559
G1 X93.482 Y108.379 E0.03876
G1 X93.969 Y110.272 E0.06129
G1 X94.644 Y112.109 E0.06135
G1 X95.501 Y113.872 E0.06146
G1 X96.532 Y115.544 E0.06160
G1 X97.726 Y117.112 E0.06179
G1 X99.072 Y118.556 E0.06190
G1 X100.556 Y119.865 E0.06204
G1 X102.165 Y121.026 E0.06223
G1 X103.883 Y122.028 E0.06234
G1 X105.694 Y122.862 E0.06251
G1 X107.579 Y123.518 E0.06259
G1 X109.521 Y123.991 E0.06268
G1 X111.502 Y124.277 E0.06275
G1 X113.491 Y124.372 E0.06245
G1 X136.513 Y124.372 E0.72183
G1 X138.502 Y124.277 E0.06245
G1 X140.483 Y123.991 E0.06275
G1 X142.425 Y123.518 E0.06268
G1 X144.310 Y122.862 E0.06259
G1 X146.121 Y122.028 E0.06251
G1 X147.839 Y121.026 E0.06234
G1 X149.448 Y119.865 E0.06223
G1 X150.932 Y118.556 E0.06204
G1 X152.278 Y117.112 E0.06190
G1 X153.472 Y115.544 E0.06179
G1 X154.503 Y113.872 E0.06160
G1 X155.360 Y112.109 E0.06146
G1 X156.035 Y110.272 E0.06135
G1 X156.522 Y108.379 E0.06129
G1 X156.708 Y107.157 E0.03876
G1 X170.282 Y107.157 E0.42559
G1 X170.282 Y120.710 E0.42494
G1 X170.002 Y120.723 E0.00880
G1 X168.022 Y121.009 E0.06272
G1 X166.080 Y121.482 E0.06268
G1 X164.194 Y122.138 E0.06262
G1 X162.384 Y122.972 E0.06248
G1 X160.665 Y123.974 E0.06237
G1 X159.057 Y125.135 E0.06220
G1 X157.572 Y126.444 E0.06206
G1 X156.226 Y127.888 E0.06190
G1 X155.033 Y129.456 E0.06177
G1 X154.001 Y131.128 E0.06161
G1 X153.144 Y132.891 E0.06146
G1 X152.469 Y134.728 E0.06135
G1 X151.982 Y136.621 E0.06129
G1 X151.688 Y138.551 E0.06121
G1 X151.588 Y140.500 E0.06120
G1 X151.688 Y142.449 E0.06120
G1 X151.982 Y144.379 E0.06121
G1 X152.469 Y146.272 E0.06129
G1 X153.144 Y148.109 E0.06135
G1 X154.001 Y149.872 E0.06146
G1 X155.033 Y151.544 E0.06161
G1 X156.226 Y153.112 E0.06177
G1 X157.572 Y154.556 E0.06190
G1 X159.057 Y155.865 E0.06206
G1 X160.665 Y157.026 E0.06220
G1 X162.384 Y158.028 E0.06237
G1 X164.194 Y158.862 E0.06248
G1 X166.080 Y159.518 E0.06262
G1 X168.022 Y159.991 E0.06268
G1 X170.002 Y160.277 E0.06272
G1 X170.282 Y160.290 E0.00880
G1 X170.282 Y173.843 E0.42494
G1 X156.830 Y173.843 E0.42179
G1 X156.816 Y173.578 E0.00832
G1 X156.522 Y171.648 E0.06121
G1 X156.035 Y169.756 E0.06126
G1 X155.360 Y167.918 E0.06138
G1 X154.503 Y166.155 E0.06146
G1 X153.472 Y164.483 E0.06160
G1 X152.278 Y162.915 E0.06179
G1 X150.932 Y161.471 E0.06190
G1 X149.448 Y160.162 E0.06204
G1 X147.839 Y159.001 E0.06223
G1 X146.121 Y157.999 E0.06234
G1 X144.310 Y157.166 E0.06249
G1 X142.425 Y156.509 E0.06259
G1 X140.483 Y156.036 E0.06268
G1 X138.502 Y155.750 E0.06275
G1 X136.513 Y155.655 E0.06245
M73 Q1 S74
G1 X113.491 Y155.655 E0.72183
M73 P1 R73
G1 X111.502 Y155.750 E0.06245
G1 X109.521 Y156.036 E0.06275
G1 X107.579 Y156.509 E0.06268
G1 X105.694 Y157.166 E0.06259
G1 X103.883 Y157.999 E0.06249
G1 X102.165 Y159.001 E0.06234
G1 X100.556 Y160.162 E0.06223
G1 X99.072 Y161.471 E0.06204
G1 X97.726 Y162.915 E0.06190
G1 X96.532 Y164.483 E0.06179
G1 X95.501 Y166.155 E0.06160
G1 X94.644 Y167.918 E0.06146
G1 X93.969 Y169.756 E0.06138
G1 X93.482 Y171.648 E0.06126
G1 X93.188 Y173.578 E0.06121
G1 X93.174 Y173.843 E0.00832
G1 X79.722 Y173.843 E0.42179
G1 X79.722 Y160.290 E0.42494
G1 X80.002 Y160.277 E0.00880
G1 X81.982 Y159.991 E0.06272
G1 X83.924 Y159.518 E0.06268
G1 X85.810 Y158.862 E0.06262
G1 X87.620 Y158.028 E0.06248
G1 X89.339 Y157.026 E0.06237
G1 X90.947 Y155.865 E0.06220
G1 X92.432 Y154.556 E0.06206
G1 X93.778 Y153.112 E0.06190
G1 X94.971 Y151.544 E0.06177
G1 X96.003 Y149.872 E0.06161
G1 X96.860 Y148.109 E0.06146
G1 X97.535 Y146.272 E0.06135
G1 X98.022 Y144.379 E0.06129
G1 X98.316 Y142.449 E0.06121
G1 X98.415 Y140.500 E0.06120
G1 X98.316 Y138.551 E0.06120
G1 X98.022 Y136.621 E0.06121
G1 X97.535 Y134.728 E0.06129
G1 X96.860 Y132.891 E0.06135
G1 X96.003 Y131.128 E0.06146
G1 X94.971 Y129.456 E0.06161
G1 X93.778 Y127.888 E0.06177
G1 X92.432 Y126.444 E0.06190
G1 X90.947 Y125.135 E0.06206
G1 X89.339 Y123.974 E0.06220
G1 X87.620 Y122.972 E0.06237
G1 X85.810 Y122.138 E0.06248
G1 X83.924 Y121.482 E0.06262
G1 X81.982 Y121.009 E0.06268
G1 X80.002 Y120.723 E0.06272
G1 X79.722 Y120.710 E0.00880
G1 X79.722 Y107.217 E0.42305
M204 S1000
G1 X80.070 Y107.355 F10800.000
G1 F8640.000
G1 X83.013 Y107.203 E-0.76000
G1 E-0.04000 F2100.00000
G1 Z0.800 F10800.000
G1 X80.824 Y120.347
G1 Z0.200
G1 E0.80000 F2100.00000
M204 S500
G1 F1200.000
G1 X80.382 Y119.905 E0.01963
G1 X80.382 Y119.371 E0.01676
G1 X81.247 Y120.236 E0.03843
G1 X81.871 Y120.326 E0.01979
G1 X80.382 Y118.837 E0.06613
G1 X80.382 Y118.303 E0.01676
G1 X82.546 Y120.467 E0.09609
G1 X83.252 Y120.639 E0.02281
G1 X80.382 Y117.769 E0.12742
G1 X80.382 Y117.235 E0.01676
G1 X83.958 Y120.811 E0.15876
G1 X84.752 Y121.072 E0.02623
G1 X80.382 Y116.701 E0.19401
G1 X80.382 Y116.167 E0.01676
G1 X85.571 Y121.356 E0.23035
G1 X86.057 Y121.526 E0.01618
G1 X86.459 Y121.710 E0.01386
G1 X80.382 Y115.633 E0.26977
G1 X80.382 Y115.100 E0.01676
G1 X87.448 Y122.166 E0.31370
G1 X87.925 Y122.386 E0.01649
G1 X88.589 Y122.773 E0.02410
G1 X80.382 Y114.566 E0.36433
G1 X80.382 Y114.032 E0.01676
G1 X90.708 Y124.358 E0.45839
M204 S1000
G1 F8640.000
G1 X88.380 Y122.030 E-0.76000
G1 E-0.04000 F2100.00000
G1 Z0.800 F10800.000
G1 X101.074 Y120.843
G1 Z0.200
G1 E0.80000 F2100.00000
M204 S500
G1 F1200.000
G1 X135.226 Y154.995 E1.51609
G1 X135.760 Y154.995 E0.01676
G1 X103.101 Y122.336 E1.44983
G1 X103.578 Y122.614 E0.01733
G1 X104.199 Y122.900 E0.02147
G1 X136.294 Y154.995 E1.42478
G1 X136.843 Y155.010 E0.01724
G1 X105.188 Y123.355 E1.40524
G1 X105.447 Y123.474 E0.00894
G1 X106.051 Y123.685 E0.02010
G1 X137.404 Y155.037 E1.39181
G1 X137.964 Y155.064 E0.01762
G1 X106.870 Y123.970 E1.38035
G1 X107.392 Y124.151 E0.01734
G1 X107.648 Y124.214 E0.00827
G1 X138.525 Y155.091 E1.37072
G1 X139.144 Y155.176 E0.01962
G1 X108.354 Y124.386 E1.36688
G1 X109.060 Y124.558 E0.02281
G1 X139.768 Y155.266 E1.36323
G1 X140.392 Y155.356 E0.01978
G1 X109.723 Y124.687 E1.36150
G1 X110.346 Y124.777 E0.01978
G1 X141.070 Y155.500 E1.36388
G1 X141.775 Y155.672 E0.02281
G1 X110.970 Y124.867 E1.36752
G1 X111.578 Y124.941 E0.01923
G1 X142.481 Y155.844 E1.37186
G1 X143.280 Y156.108 E0.02640
G1 X112.139 Y124.968 E1.38241
G1 X112.700 Y124.995 E0.01762
G1 X144.099 Y156.394 E1.39389
G1 X144.557 Y156.554 E0.01523
G1 X144.993 Y156.754 E0.01505
G1 X113.261 Y125.022 E1.40868
G1 X113.805 Y125.032 E0.01708
G1 X145.981 Y157.208 E1.42839
G1 X146.426 Y157.413 E0.01538
G1 X147.131 Y157.824 E0.02560
G1 X114.339 Y125.032 E1.45572
G1 X114.873 Y125.032 E0.01676
G1 X149.270 Y159.429 E1.52699
M204 S1000
G1 F8640.000
G1 X146.943 Y157.102 E-0.76000
G1 E-0.04000 F2100.00000
G1 Z0.800 F10800.000
G1 X157.174 Y172.672
G1 Z0.200
G1 E0.80000 F2100.00000
M204 S500
G1 F1200.000
G1 X157.685 Y173.183 E0.02267
G1 X158.219 Y173.183 E0.01676
G1 X157.281 Y172.245 E0.04164
G1 X157.185 Y171.615 E0.02000
G1 X158.753 Y173.183 E0.06960
G1 X159.286 Y173.183 E0.01676
G1 X157.014 Y170.910 E0.10090
G1 X156.828 Y170.191 E0.02331
G1 X159.820 Y173.183 E0.13282
G1 X160.354 Y173.183 E0.01676
G1 X156.628 Y169.457 E0.16542
G1 X156.318 Y168.613 E0.02822
G1 X160.888 Y173.183 E0.20289
G1 X161.422 Y173.183 E0.01676
G1 X156.008 Y167.769 E0.24036
G1 X155.528 Y166.755 E0.03521
G1 X161.956 Y173.183 E0.28536
G1 X162.490 Y173.183 E0.01676
G1 X154.982 Y165.675 E0.33330
M73 Q2 S73
G1 X154.125 Y164.285 E0.05126
G1 X163.024 Y173.183 E0.39502
G1 X163.558 Y173.183 E0.01676
G1 X115.407 Y125.032 E2.13755
M73 P2 R72
G1 X115.940 Y125.032 E0.01676
G1 X164.091 Y173.183 E2.13755
G1 X164.625 Y173.183 E0.01676
G1 X116.474 Y125.032 E2.13755
G1 X117.008 Y125.032 E0.01676
G1 X165.159 Y173.183 E2.13755
G1 X165.693 Y173.183 E0.01676
G1 X117.542 Y125.032 E2.13755
G1 X118.076 Y125.032 E0.01676
G1 X166.227 Y173.183 E2.13755
G1 X166.761 Y173.183 E0.01676
G1 X118.610 Y125.032 E2.13755
G1 X119.144 Y125.032 E0.01676
G1 X167.295 Y173.183 E2.13755
G1 X167.829 Y173.183 E0.01676
G1 X119.678 Y125.032 E2.13755
G1 X120.212 Y125.032 E0.01676
G1 X168.363 Y173.183 E2.13755
G1 X168.896 Y173.183 E0.01676
G1 X120.745 Y125.032 E2.13755
G1 X121.279 Y125.032 E0.01676
G1 X169.430 Y173.183 E2.13755
G1 X169.622 Y173.183 E0.00603
G1 X169.622 Y172.841 E0.01073
G1 X121.813 Y125.032 E2.12237
G1 X122.347 Y125.032 E0.01676
G1 X169.622 Y172.307 E2.09867
G1 X169.622 Y171.773 E0.01676
G1 X122.881 Y125.032 E2.07497
G1 X123.415 Y125.032 E0.01676
G1 X169.622 Y171.239 E2.05127
G1 X169.622 Y170.705 E0.01676
G1 X123.949 Y125.032 E2.02757
G1 X124.483 Y125.032 E0.01676
G1 X169.622 Y170.172 E2.00387
M73 Q4 S72
G1 X169.622 Y169.638 E0.01676
G1 X125.017 Y125.032 E1.98017
M73 P4 R71
G1 X125.550 Y125.032 E0.01676
G1 X169.622 Y169.104 E1.95647
G1 X169.622 Y168.570 E0.01676
G1 X126.084 Y125.032 E1.93277
G1 X126.618 Y125.032 E0.01676
G1 X169.792 Y168.206 E1.91660
M204 S1000
G1 F8640.000
G1 X167.465 Y165.878 E-0.76000
G1 E-0.04000 F2100.00000
G1 Z0.800 F10800.000
G1 X169.792 Y161.265
G1 Z0.200
G1 E0.80000 F2100.00000
M204 S500
G1 F1200.000
G1 X169.380 Y160.854 E0.01827
G1 X168.757 Y160.764 E0.01979
G1 X169.622 Y161.629 E0.03843
G1 X169.622 Y162.163 E0.01676
G1 X168.133 Y160.674 E0.06613
G1 X167.897 Y160.640 E0.00749
G1 X167.458 Y160.533 E0.01417
G1 X169.622 Y162.697 E0.09609
G1 X169.622 Y163.231 E0.01676
G1 X166.752 Y160.361 E0.12742
G1 X166.046 Y160.189 E0.02281
G1 X169.622 Y163.765 E0.15876
G1 X169.622 Y164.299 E0.01676
G1 X165.252 Y159.928 E0.19401
G1 X164.433 Y159.644 E0.02720
G1 X169.622 Y164.833 E0.23035
G1 X169.622 Y165.367 E0.01676
G1 X163.545 Y159.290 E0.26977
G1 X162.556 Y158.834 E0.03420
G1 X169.622 Y165.900 E0.31370
G1 X169.622 Y166.434 E0.01676
