; generated by PrusaSlicer 2.2.0+ on 2020-11-08 at 16:09:13 UTC

; 

; external perimeters extrusion width = 0.60mm
; perimeters extrusion width = 0.50mm
; infill extrusion width = 0.50mm
; solid infill extrusion width = 0.50mm
; top infill extrusion width = 0.45mm
; first layer extrusion width = 0.42mm

M73 P0 R99
M73 Q0 S101
M201 X1000 Y1000 Z200 E5000 ; sets maximum accelerations, mm/sec^2
M203 X200 Y200 Z12 E120 ; sets maximum feedrates, mm/sec
M204 P1250 R1250 T1250 ; sets acceleration (P, T) and retract acceleration (R), mm/sec^2
M205 X8.00 Y8.00 Z0.40 E4.50 ; sets the jerk limits, mm/sec
M205 S0 T0 ; sets the minimum extruding and travel feed rate, mm/sec
M107
M862.3 P "MK3S" ; printer model check
M862.1 P0.4 ; nozzle diameter check
M115 U3.9.0 ; tell printer latest fw version
G90 ; use absolute coordinates
M83 ; extruder relative mode
M104 S230 ; set extruder temp
M140 S60 ; set bed temp
M190 S60 ; wait for bed temp
M109 S230 ; wait for extruder temp
G28 W ; home all without mesh bed level
G80 ; mesh bed leveling
G1 Y-3.0 F1000.0 ; go outside print area
G92 E0.0
G1 X60.0 E9.0 F1000.0 ; intro line
M73 Q0 S101
M73 P0 R98
G1 X100.0 E12.5 F1000.0 ; intro line
G92 E0.0
M221 S95
G21 ; set units to millimeters
G90 ; use absolute coordinates
M83 ; use relative distances for extrusion
M900 K0.06 ; Filament gcode LA 1.5
M900 K30 ; Filament gcode LA 1.0
;BEFORE_LAYER_CHANGE
G92 E0.0
;0.2


G1 E-0.80000 F2100.00000
G1 Z0.600 F10800.000
;AFTER_LAYER_CHANGE
;0.2
G1 X30.057 Y68.144
G1 Z0.200
G1 E0.80000 F2100.00000
M204 S500
G1 F1200.000
G1 X30.904 Y67.988 E0.02699
G1 X219.096 Y67.988 E5.90065
G1 X219.999 Y68.166 E0.02884
G1 X220.766 Y68.673 E0.02884
G1 X221.283 Y69.434 E0.02884
G1 X221.473 Y70.337 E0.02896
G1 X221.473 Y139.683 E2.17430
G1 X221.355 Y140.376 E0.02201
G1 X221.040 Y141.003 E0.02201
G1 X220.555 Y141.511 E0.02201
G1 X219.943 Y141.855 E0.02201
G1 X219.096 Y142.011 E0.02699
G1 X30.885 Y142.011 E5.90125
G1 X30.184 Y141.899 E0.02225
G1 X29.547 Y141.586 E0.02225
G1 X29.031 Y141.099 E0.02225
G1 X28.682 Y140.481 E0.02225
G1 X28.527 Y139.639 E0.02684
G1 X28.527 Y70.319 E2.17347
G1 X28.644 Y69.627 E0.02201
G1 X28.960 Y68.996 E0.02213
G1 X29.445 Y68.488 E0.02201
G1 X30.005 Y68.173 E0.02013
M204 S1000
G1 F8640.000
G1 X30.904 Y67.988 E-0.21195
G1 X33.277 Y67.988 E-0.54805
G1 E-0.04000 F2100.00000
G1 Z0.800 F10800.000
G1 X32.597 Y72.034
G1 Z0.200
G1 E0.80000 F2100.00000
M204 S500
G1 F1200.000
G1 X45.470 Y72.034 E0.40361
G1 X45.610 Y72.954 E0.02919
G1 X46.107 Y74.884 E0.06248
G1 X46.795 Y76.756 E0.06254
G1 X47.668 Y78.553 E0.06264
G1 X48.718 Y80.258 E0.06278
G1 X49.936 Y81.855 E0.06296
G1 X51.306 Y83.326 E0.06306
G1 X52.818 Y84.659 E0.06320
G1 X54.457 Y85.842 E0.06338
G1 X56.206 Y86.863 E0.06349
G1 X58.050 Y87.711 E0.06365
G1 X59.970 Y88.379 E0.06373
G1 X61.947 Y88.861 E0.06381
G1 X63.964 Y89.152 E0.06388
G1 X65.980 Y89.249 E0.06329
G1 X89.020 Y89.249 E0.72239
G1 X91.036 Y89.152 E0.06329
G1 X93.053 Y88.861 E0.06388
G1 X95.030 Y88.379 E0.06381
G1 X96.950 Y87.711 E0.06372
G1 X98.794 Y86.863 E0.06365
G1 X100.543 Y85.842 E0.06349
G1 X102.182 Y84.659 E0.06338
G1 X103.694 Y83.326 E0.06320
G1 X105.064 Y81.855 E0.06306
G1 X106.282 Y80.258 E0.06296
G1 X107.332 Y78.553 E0.06278
G1 X108.205 Y76.756 E0.06264
G1 X108.893 Y74.884 E0.06254
G1 X109.390 Y72.954 E0.06248
G1 X109.530 Y72.034 E0.02919
G1 X122.403 Y72.034 E0.40361
G1 X122.403 Y84.856 E0.40203
G1 X120.448 Y85.138 E0.06192
G1 X118.471 Y85.620 E0.06381
G1 X116.550 Y86.288 E0.06376
G1 X114.707 Y87.136 E0.06362
G1 X112.957 Y88.157 E0.06352
G1 X111.319 Y89.340 E0.06335
G1 X109.807 Y90.673 E0.06322
G1 X108.435 Y92.145 E0.06307
G1 X107.219 Y93.741 E0.06293
G1 X106.168 Y95.446 E0.06279
G1 X105.295 Y97.243 E0.06265
G1 X104.607 Y99.115 E0.06254
G1 X104.110 Y101.045 E0.06248
G1 X103.810 Y103.012 E0.06240
G1 X103.709 Y104.999 E0.06240
G1 X103.810 Y106.987 E0.06240
G1 X104.110 Y108.954 E0.06240
G1 X104.607 Y110.884 E0.06248
G1 X105.295 Y112.756 E0.06254
G1 X106.168 Y114.553 E0.06265
G1 X107.219 Y116.258 E0.06279
G1 X108.435 Y117.854 E0.06293
G1 X109.807 Y119.326 E0.06307
G1 X111.319 Y120.659 E0.06322
G1 X112.957 Y121.842 E0.06335
G1 X114.707 Y122.863 E0.06352
G1 X116.550 Y123.711 E0.06362
G1 X118.471 Y124.379 E0.06376
G1 X120.448 Y124.861 E0.06381
G1 X122.403 Y125.143 E0.06192
G1 X122.403 Y137.965 E0.40203
G1 X109.679 Y137.965 E0.39896
G1 X109.390 Y136.072 E0.06006
G1 X108.893 Y134.143 E0.06244
G1 X108.205 Y132.270 E0.06257
G1 X107.332 Y130.473 E0.06264
G1 X106.282 Y128.768 E0.06278
G1 X105.064 Y127.171 E0.06296
G1 X103.694 Y125.700 E0.06306
G1 X102.182 Y124.367 E0.06320
G1 X100.543 Y123.184 E0.06338
G1 X98.794 Y122.163 E0.06349
G1 X96.950 Y121.316 E0.06363
G1 X95.030 Y120.647 E0.06373
G1 X93.053 Y120.165 E0.06382
G1 X91.036 Y119.874 E0.06388
G1 X89.020 Y119.777 E0.06329
G1 X65.980 Y119.777 E0.72239
G1 X63.964 Y119.874 E0.06329
G1 X61.947 Y120.165 E0.06388
G1 X59.970 Y120.647 E0.06382
G1 X58.050 Y121.316 E0.06373
G1 X56.206 Y122.163 E0.06363
G1 X54.457 Y123.184 E0.06349
G1 X52.818 Y124.367 E0.06338
G1 X51.306 Y125.700 E0.06320
G1 X49.936 Y127.171 E0.06306
G1 X48.718 Y128.768 E0.06296
G1 X47.668 Y130.473 E0.06278
G1 X46.795 Y132.270 E0.06264
G1 X46.107 Y134.143 E0.06257
G1 X45.610 Y136.072 E0.06244
G1 X45.321 Y137.965 E0.06006
G1 X32.597 Y137.965 E0.39896
G1 X32.597 Y125.143 E0.40203
G1 X34.552 Y124.861 E0.06192
G1 X36.529 Y124.379 E0.06381
G1 X38.450 Y123.711 E0.06376
G1 X40.293 Y122.863 E0.06362
G1 X42.043 Y121.842 E0.06352
G1 X43.681 Y120.659 E0.06335
G1 X45.193 Y119.326 E0.06322
G1 X46.565 Y117.854 E0.06307
G1 X47.781 Y116.258 E0.06293
G1 X48.832 Y114.553 E0.06279
G1 X49.705 Y112.756 E0.06265
G1 X50.393 Y110.884 E0.06254
G1 X50.890 Y108.954 E0.06248
G1 X51.190 Y106.987 E0.06240
G1 X51.290 Y104.999 E0.06239
G1 X51.190 Y103.012 E0.06239
G1 X50.890 Y101.045 E0.06240
G1 X50.393 Y99.115 E0.06248
G1 X49.705 Y97.243 E0.06254
G1 X48.832 Y95.446 E0.06265
G1 X47.781 Y93.741 E0.06279
G1 X46.565 Y92.145 E0.06293
G1 X45.193 Y90.673 E0.06307
G1 X43.681 Y89.340 E0.06322
G1 X42.043 Y88.157 E0.06335
G1 X40.293 Y87.136 E0.06352
G1 X38.450 Y86.288 E0.06362
G1 X36.529 Y85.620 E0.06376
G1 X34.552 Y85.138 E0.06381
G1 X32.597 Y84.856 E0.06192
G1 X32.597 Y72.094 E0.40014
M204 S1000
G1 X32.220 Y71.657 F10800.000
M204 S500
G1 F1200.000
G1 X45.794 Y71.657 E0.42559
G1 X45.980 Y72.879 E0.03876
G1 X46.467 Y74.772 E0.06129
G1 X47.142 Y76.608 E0.06135
G1 X47.999 Y78.371 E0.06146
G1 X49.030 Y80.044 E0.06160
G1 X50.224 Y81.611 E0.06179
G1 X51.570 Y83.056 E0.06190
G1 X53.054 Y84.364 E0.06204
G1 X54.663 Y85.526 E0.06223
G1 X56.381 Y86.528 E0.06234
G1 X58.192 Y87.361 E0.06251
G1 X60.077 Y88.017 E0.06259
G1 X62.019 Y88.490 E0.06268
G1 X64.000 Y88.776 E0.06275
G1 X65.989 Y88.871 E0.06245
G1 X89.011 Y88.871 E0.72183
G1 X91.000 Y88.776 E0.06245
G1 X92.981 Y88.490 E0.06275
G1 X94.923 Y88.017 E0.06268
G1 X96.808 Y87.361 E0.06259
G1 X98.619 Y86.528 E0.06251
G1 X100.337 Y85.526 E0.06234
G1 X101.946 Y84.364 E0.06223
G1 X103.430 Y83.056 E0.06204
G1 X104.776 Y81.611 E0.06190
G1 X105.970 Y80.044 E0.06179
G1 X107.001 Y78.371 E0.06160
G1 X107.858 Y76.608 E0.06146
G1 X108.533 Y74.772 E0.06135
G1 X109.020 Y72.879 E0.06129
G1 X109.207 Y71.657 E0.03876
G1 X122.780 Y71.657 E0.42559
G1 X122.780 Y85.209 E0.42493
G1 X122.500 Y85.223 E0.00880
G1 X120.520 Y85.509 E0.06272
G1 X118.578 Y85.982 E0.06268
G1 X116.692 Y86.638 E0.06262
G1 X114.882 Y87.471 E0.06248
G1 X113.163 Y88.473 E0.06237
G1 X111.555 Y89.635 E0.06220
G1 X110.070 Y90.943 E0.06206
G1 X108.724 Y92.388 E0.06190
G1 X107.531 Y93.955 E0.06177
G1 X106.499 Y95.628 E0.06161
G1 X105.642 Y97.391 E0.06146
G1 X104.967 Y99.227 E0.06135
G1 X104.480 Y101.120 E0.06129
G1 X104.186 Y103.050 E0.06121
G1 X104.086 Y104.999 E0.06120
G1 X104.186 Y106.949 E0.06120
G1 X104.480 Y108.879 E0.06121
G1 X104.967 Y110.772 E0.06129
G1 X105.642 Y112.608 E0.06135
G1 X106.499 Y114.371 E0.06146
G1 X107.531 Y116.044 E0.06161
G1 X108.724 Y117.611 E0.06177
G1 X110.070 Y119.056 E0.06190
G1 X111.555 Y120.364 E0.06206
G1 X113.163 Y121.526 E0.06220
G1 X114.882 Y122.528 E0.06237
G1 X116.692 Y123.361 E0.06248
G1 X118.578 Y124.017 E0.06262
G1 X120.520 Y124.490 E0.06268
G1 X122.500 Y124.776 E0.06272
G1 X122.780 Y124.790 E0.00880
G1 X122.780 Y138.342 E0.42493
G1 X109.328 Y138.342 E0.42179
M73 Q1 S100
M73 P1 R97
G1 X109.314 Y138.077 E0.00832
G1 X109.020 Y136.147 E0.06121
G1 X108.533 Y134.255 E0.06126
G1 X107.858 Y132.418 E0.06138
G1 X107.001 Y130.655 E0.06146
G1 X105.970 Y128.982 E0.06160
G1 X104.776 Y127.415 E0.06179
G1 X103.430 Y125.970 E0.06190
G1 X101.946 Y124.662 E0.06204
G1 X100.337 Y123.500 E0.06223
G1 X98.619 Y122.498 E0.06234
G1 X96.808 Y121.666 E0.06249
G1 X94.923 Y121.009 E0.06259
G1 X92.981 Y120.536 E0.06268
G1 X91.000 Y120.250 E0.06275
G1 X89.011 Y120.154 E0.06245
G1 X65.989 Y120.154 E0.72183
G1 X64.000 Y120.250 E0.06245
G1 X62.019 Y120.536 E0.06275
G1 X60.077 Y121.009 E0.06268
G1 X58.192 Y121.666 E0.06259
G1 X56.381 Y122.498 E0.06249
G1 X54.663 Y123.500 E0.06234
G1 X53.054 Y124.662 E0.06223
G1 X51.570 Y125.970 E0.06204
G1 X50.224 Y127.415 E0.06190
G1 X49.030 Y128.982 E0.06179
G1 X47.999 Y130.655 E0.06160
G1 X47.142 Y132.418 E0.06146
G1 X46.467 Y134.255 E0.06138
G1 X45.980 Y136.147 E0.06126
G1 X45.686 Y138.077 E0.06121
G1 X45.672 Y138.342 E0.00832
G1 X32.220 Y138.342 E0.42179
G1 X32.220 Y124.790 E0.42493
G1 X32.500 Y124.776 E0.00880
G1 X34.480 Y124.490 E0.06272
G1 X36.422 Y124.017 E0.06268
G1 X38.308 Y123.361 E0.06262
G1 X40.118 Y122.528 E0.06248
G1 X41.837 Y121.526 E0.06237
G1 X43.445 Y120.364 E0.06220
G1 X44.930 Y119.056 E0.06206
G1 X46.276 Y117.611 E0.06190
G1 X47.469 Y116.044 E0.06177
G1 X48.501 Y114.371 E0.06161
G1 X49.358 Y112.608 E0.06146
G1 X50.033 Y110.772 E0.06135
G1 X50.520 Y108.879 E0.06129
G1 X50.814 Y106.949 E0.06121
G1 X50.913 Y104.999 E0.06120
G1 X50.814 Y103.050 E0.06120
G1 X50.520 Y101.120 E0.06121
G1 X50.033 Y99.227 E0.06129
G1 X49.358 Y97.391 E0.06135
G1 X48.501 Y95.628 E0.06146
G1 X47.469 Y93.955 E0.06161
G1 X46.276 Y92.388 E0.06177
G1 X44.930 Y90.943 E0.06190
G1 X43.445 Y89.635 E0.06206
G1 X41.837 Y88.473 E0.06220
G1 X40.118 Y87.471 E0.06237
G1 X38.308 Y86.638 E0.06248
G1 X36.422 Y85.982 E0.06262
G1 X34.480 Y85.509 E0.06268
G1 X32.500 Y85.223 E0.06272
G1 X32.220 Y85.209 E0.00880
G1 X32.220 Y71.717 E0.42305
M204 S1000
G1 X32.568 Y71.854 F10800.000
G1 F8640.000
G1 X35.511 Y71.702 E-0.76000
G1 E-0.04000 F2100.00000
G1 Z0.800 F10800.000
G1 X33.322 Y84.846
G1 Z0.200
G1 E0.80000 F2100.00000
M204 S500
G1 F1200.000
G1 X32.880 Y84.404 E0.01963
G1 X32.880 Y83.870 E0.01676
G1 X33.745 Y84.736 E0.03843
G1 X34.369 Y84.826 E0.01979
G1 X32.880 Y83.336 E0.06613
G1 X32.880 Y82.802 E0.01676
G1 X35.044 Y84.967 E0.09609
G1 X35.750 Y85.139 E0.02281
G1 X32.880 Y82.268 E0.12742
G1 X32.880 Y81.735 E0.01676
G1 X36.456 Y85.311 E0.15876
G1 X37.250 Y85.571 E0.02623
G1 X32.880 Y81.201 E0.19401
G1 X32.880 Y80.667 E0.01676
G1 X38.069 Y85.856 E0.23035
G1 X38.555 Y86.025 E0.01618
G1 X38.957 Y86.210 E0.01386
G1 X32.880 Y80.133 E0.26977
G1 X32.880 Y79.599 E0.01676
G1 X39.946 Y86.666 E0.31370
G1 X40.423 Y86.885 E0.01649
G1 X41.087 Y87.272 E0.02410
G1 X32.880 Y79.065 E0.36433
G1 X32.880 Y78.531 E0.01676
G1 X43.206 Y88.857 E0.45839
M204 S1000
G1 F8640.000
G1 X40.878 Y86.530 E-0.76000
G1 E-0.04000 F2100.00000
G1 Z0.800 F10800.000
G1 X53.572 Y85.343
G1 Z0.200
G1 E0.80000 F2100.00000
M204 S500
G1 F1200.000
G1 X87.724 Y119.495 E1.51609
G1 X88.258 Y119.495 E0.01676
G1 X55.599 Y86.835 E1.44983
G1 X56.076 Y87.114 E0.01733
G1 X56.697 Y87.400 E0.02147
G1 X88.792 Y119.495 E1.42478
G1 X89.341 Y119.510 E0.01724
G1 X57.686 Y87.855 E1.40524
G1 X57.945 Y87.974 E0.00894
G1 X58.549 Y88.184 E0.02010
G1 X89.902 Y119.537 E1.39181
G1 X90.462 Y119.563 E0.01762
G1 X59.368 Y88.469 E1.38035
G1 X59.890 Y88.651 E0.01734
G1 X60.146 Y88.713 E0.00827
G1 X91.023 Y119.590 E1.37072
G1 X91.642 Y119.676 E0.01962
G1 X60.852 Y88.885 E1.36688
G1 X61.558 Y89.057 E0.02281
G1 X92.266 Y119.766 E1.36323
G1 X92.890 Y119.856 E0.01978
G1 X62.221 Y89.186 E1.36150
G1 X62.844 Y89.276 E0.01978
G1 X93.568 Y119.999 E1.36388
G1 X94.273 Y120.171 E0.02281
G1 X63.468 Y89.366 E1.36752
G1 X64.076 Y89.440 E0.01923
G1 X94.979 Y120.343 E1.37186
G1 X95.778 Y120.608 E0.02640
G1 X64.637 Y89.467 E1.38241
G1 X65.198 Y89.494 E0.01762
G1 X96.597 Y120.893 E1.39389
G1 X97.055 Y121.053 E0.01523
G1 X97.491 Y121.253 E0.01505
G1 X65.759 Y89.521 E1.40868
G1 X66.303 Y89.531 E0.01708
G1 X98.479 Y121.708 E1.42839
G1 X98.924 Y121.912 E0.01538
G1 X99.629 Y122.323 E0.02560
G1 X66.837 Y89.531 E1.45572
G1 X67.371 Y89.531 E0.01676
G1 X101.768 Y123.929 E1.52699
M204 S1000
G1 F8640.000
G1 X99.441 Y121.601 E-0.76000
G1 E-0.04000 F2100.00000
G1 Z0.800 F10800.000
G1 X122.290 Y125.765
G1 Z0.200
G1 E0.80000 F2100.00000
M204 S500
G1 F1200.000
G1 X121.878 Y125.353 E0.01827
G1 X121.255 Y125.263 E0.01979
G1 X122.120 Y126.129 E0.03843
G1 X122.120 Y126.663 E0.01676
G1 X120.631 Y125.173 E0.06613
G1 X120.395 Y125.139 E0.00749
G1 X119.956 Y125.032 E0.01417
G1 X122.120 Y127.197 E0.09609
G1 X122.120 Y127.731 E0.01676
G1 X119.250 Y124.860 E0.12742
G1 X118.544 Y124.688 E0.02281
G1 X122.120 Y128.264 E0.15876
G1 X122.120 Y128.798 E0.01676
M73 Q2 S99
G1 X117.750 Y124.428 E0.19401
M73 P2 R96
G1 X116.931 Y124.143 E0.02720
G1 X122.120 Y129.332 E0.23035
G1 X122.120 Y129.866 E0.01676
G1 X116.043 Y123.789 E0.26977
G1 X115.054 Y123.333 E0.03420
G1 X122.120 Y130.400 E0.31370
G1 X122.120 Y130.934 E0.01676
G1 X113.913 Y122.727 E0.36433
G1 X112.803 Y122.079 E0.04035
G1 X112.547 Y121.895 E0.00989
G1 X122.290 Y131.637 E0.43249
M204 S1000
G1 F8640.000
G1 X119.963 Y129.310 E-0.76000
G1 E-0.04000 F2100.00000
G1 Z0.800 F10800.000
G1 X109.672 Y137.172
G1 Z0.200
G1 E0.80000 F2100.00000
M204 S500
G1 F1200.000
G1 X110.183 Y137.682 E0.02267
G1 X110.717 Y137.682 E0.01676
G1 X109.779 Y136.744 E0.04164
G1 X109.683 Y136.114 E0.02000
G1 X111.251 Y137.682 E0.06960
G1 X111.784 Y137.682 E0.01676
G1 X109.512 Y135.409 E0.10090
G1 X109.326 Y134.690 E0.02331
G1 X112.318 Y137.682 E0.13282
G1 X112.852 Y137.682 E0.01676
G1 X109.126 Y133.956 E0.16542
G1 X108.816 Y133.112 E0.02822
G1 X113.386 Y137.682 E0.20289
G1 X113.920 Y137.682 E0.01676
G1 X108.506 Y132.268 E0.24036
G1 X108.026 Y131.254 E0.03521
G1 X114.454 Y137.682 E0.28536
G1 X114.988 Y137.682 E0.01676
G1 X107.480 Y130.174 E0.33330
G1 X106.623 Y128.784 E0.05126
G1 X115.522 Y137.682 E0.39502
G1 X116.056 Y137.682 E0.01676
G1 X67.905 Y89.531 E2.13755
G1 X68.438 Y89.531 E0.01676
G1 X116.589 Y137.682 E2.13755
G1 X117.123 Y137.682 E0.01676
G1 X68.972 Y89.531 E2.13755
G1 X69.506 Y89.531 E0.01676
G1 X117.657 Y137.682 E2.13755
G1 X118.191 Y137.682 E0.01676
G1 X70.040 Y89.531 E2.13755
G1 X70.574 Y89.531 E0.01676
G1 X118.725 Y137.682 E2.13755
G1 X119.259 Y137.682 E0.01676
G1 X71.108 Y89.531 E2.13755
G1 X71.642 Y89.531 E0.01676
G1 X119.793 Y137.682 E2.13755
G1 X120.327 Y137.682 E0.01676
G1 X72.176 Y89.531 E2.13755
G1 X72.710 Y89.531 E0.01676
G1 X120.861 Y137.682 E2.13755
G1 X121.394 Y137.682 E0.01676
G1 X73.243 Y89.531 E2.13755
G1 X73.777 Y89.531 E0.01676
G1 X121.928 Y137.682 E2.13755
G1 X122.120 Y137.682 E0.00603
G1 X122.120 Y137.340 E0.01073
G1 X74.311 Y89.531 E2.12237
G1 X74.845 Y89.531 E0.01676
G1 X122.120 Y136.807 E2.09867
G1 X122.120 Y136.273 E0.01676
G1 X75.379 Y89.531 E2.07497
G1 X75.913 Y89.531 E0.01676
G1 X122.120 Y135.739 E2.05127
M73 Q3 S98
M73 P3 R95
G1 X122.120 Y135.205 E0.01676
G1 X76.447 Y89.531 E2.02757
G1 X76.981 Y89.531 E0.01676
G1 X122.120 Y134.671 E2.00387
G1 X122.120 Y134.137 E0.01676
G1 X77.514 Y89.531 E1.98017
G1 X78.048 Y89.531 E0.01676
G1 X122.120 Y133.603 E1.95647
G1 X122.120 Y133.069 E0.01676
G1 X78.582 Y89.531 E1.93277
G1 X79.116 Y89.531 E0.01676
G1 X122.120 Y132.535 E1.90907
G1 X122.120 Y132.002 E0.01676
G1 X79.650 Y89.531 E1.88537
G1 X80.184 Y89.531 E0.01676
G1 X106.850 Y116.198 E1.18379
G1 X105.992 Y114.805 E0.05135
G1 X80.718 Y89.531 E1.12197
G1 X81.252 Y89.531 E0.01676
G1 X105.457 Y113.737 E1.07455
G1 X105.034 Y112.867 E0.03036
G1 X104.984 Y112.730 E0.00459
G1 X81.786 Y89.531 E1.02983
G1 X82.319 Y89.531 E0.01676
G1 X104.673 Y111.885 E0.99235
G1 X104.363 Y111.041 E0.02824
