; generated by PrusaSlicer 2.2.0+ on 2020-11-08 at 16:09:17 UTC

; 

; external perimeters extrusion width = 0.60mm
; perimeters extrusion width = 0.50mm
; infill extrusion width = 0.50mm
; solid infill extrusion width = 0.50mm
; top infill extrusion width = 0.45mm
; first layer extrusion width = 0.42mm

M73 P0 R146
M73 Q0 S151
M201 X1000 Y1000 Z200 E5000 ; sets maximum accelerations, mm/sec^2
M203 X200 Y200 Z12 E120 ; sets maximum feedrates, mm/sec
M204 P1250 R1250 T1250 ; sets acceleration (P, T) and retract acceleration (R), mm/sec^2
M205 X8.00 Y8.00 Z0.40 E4.50 ; sets the jerk limits, mm/sec
M205 S0 T0 ; sets the minimum extruding and travel feed rate, mm/sec
M107
M862.3 P "MK3S" ; printer model check
M862.1 P0.4 ; nozzle diameter check
M115 U3.9.0 ; tell printer latest fw version
G90 ; use absolute coordinates
M83 ; extruder relative mode
M104 S230 ; set extruder temp
M140 S60 ; set bed temp
M190 S60 ; wait for bed temp
M109 S230 ; wait for extruder temp
G28 W ; home all without mesh bed level
G80 ; mesh bed leveling
G1 Y-3.0 F1000.0 ; go outside print area
G92 E0.0
G1 X60.0 E9.0 F1000.0 ; intro line
M73 Q0 S151
M73 P0 R146
G1 X100.0 E12.5 F1000.0 ; intro line
G92 E0.0
M221 S95
G21 ; set units to millimeters
G90 ; use absolute coordinates
M83 ; use relative distances for extrusion
M900 K0.06 ; Filament gcode LA 1.5
M900 K30 ; Filament gcode LA 1.0
;BEFORE_LAYER_CHANGE
G92 E0.0
;0.2


G1 E-0.80000 F2100.00000
G1 Z0.600 F10800.000
;AFTER_LAYER_CHANGE
;0.2
G1 X30.058 Y68.143
G1 Z0.200
G1 E0.80000 F2100.00000
M204 S500
G1 F1200.000
G1 X30.904 Y67.987 E0.02699
G1 X219.099 Y67.987 E5.90072
G1 X220.002 Y68.167 E0.02884
G1 X220.768 Y68.675 E0.02884
G1 X221.284 Y69.436 E0.02884
G1 X221.473 Y70.337 E0.02884
G1 X221.472 Y139.685 E2.17437
G1 X221.354 Y140.377 E0.02201
G1 X221.039 Y141.005 E0.02201
G1 X220.554 Y141.513 E0.02201
G1 X219.942 Y141.857 E0.02201
G1 X219.096 Y142.013 E0.02699
G1 X30.885 Y142.013 E5.90120
G1 X30.185 Y141.901 E0.02225
G1 X29.548 Y141.588 E0.02225
G1 X29.032 Y141.100 E0.02225
G1 X28.683 Y140.482 E0.02225
G1 X28.527 Y139.641 E0.02684
G1 X28.528 Y70.319 E2.17354
G1 X28.645 Y69.626 E0.02201
G1 X28.961 Y68.995 E0.02213
G1 X29.446 Y68.487 E0.02201
G1 X30.005 Y68.173 E0.02013
M204 S1000
G1 F8640.000
G1 X30.904 Y67.987 E-0.21195
G1 X33.278 Y67.987 E-0.54805
G1 E-0.04000 F2100.00000
G1 Z0.800 F10800.000
G1 X32.598 Y72.034
G1 Z0.200
G1 E0.80000 F2100.00000
M204 S500
G1 F1200.000
G1 X45.323 Y72.034 E0.39898
G1 X45.612 Y73.928 E0.06008
G1 X46.109 Y75.856 E0.06244
G1 X46.797 Y77.730 E0.06257
G1 X47.670 Y79.526 E0.06264
G1 X48.720 Y81.231 E0.06278
G1 X49.938 Y82.828 E0.06296
G1 X51.308 Y84.300 E0.06306
G1 X52.820 Y85.633 E0.06320
G1 X54.459 Y86.816 E0.06338
G1 X56.208 Y87.836 E0.06349
G1 X58.052 Y88.684 E0.06363
G1 X59.972 Y89.353 E0.06373
G1 X61.949 Y89.835 E0.06382
G1 X63.966 Y90.125 E0.06388
G1 X65.982 Y90.222 E0.06329
G1 X89.022 Y90.222 E0.72239
G1 X91.038 Y90.125 E0.06329
G1 X93.055 Y89.835 E0.06388
G1 X95.032 Y89.353 E0.06382
G1 X96.952 Y88.684 E0.06373
G1 X98.796 Y87.836 E0.06363
G1 X100.545 Y86.816 E0.06349
G1 X102.184 Y85.633 E0.06338
G1 X103.696 Y84.300 E0.06320
G1 X105.066 Y82.828 E0.06306
G1 X106.284 Y81.231 E0.06296
G1 X107.334 Y79.526 E0.06278
G1 X108.207 Y77.730 E0.06264
G1 X108.895 Y75.856 E0.06257
G1 X109.392 Y73.928 E0.06244
G1 X109.681 Y72.034 E0.06008
G1 X122.406 Y72.034 E0.39898
G1 X122.406 Y84.856 E0.40205
G1 X120.450 Y85.138 E0.06195
G1 X118.473 Y85.620 E0.06381
G1 X116.552 Y86.288 E0.06376
G1 X114.709 Y87.137 E0.06362
G1 X112.959 Y88.157 E0.06352
G1 X111.321 Y89.340 E0.06335
G1 X109.809 Y90.673 E0.06322
G1 X108.437 Y92.145 E0.06307
G1 X107.221 Y93.742 E0.06293
G1 X106.170 Y95.446 E0.06279
G1 X105.297 Y97.243 E0.06265
G1 X104.609 Y99.116 E0.06254
G1 X104.112 Y101.045 E0.06248
G1 X103.812 Y103.013 E0.06240
G1 X103.711 Y105.000 E0.06240
G1 X103.812 Y106.987 E0.06240
G1 X104.112 Y108.955 E0.06240
G1 X104.609 Y110.884 E0.06248
G1 X105.297 Y112.757 E0.06254
G1 X106.170 Y114.554 E0.06265
G1 X107.221 Y116.258 E0.06279
G1 X108.437 Y117.855 E0.06293
G1 X109.809 Y119.327 E0.06307
G1 X111.321 Y120.660 E0.06322
G1 X112.959 Y121.843 E0.06335
G1 X114.709 Y122.863 E0.06352
G1 X116.552 Y123.712 E0.06362
G1 X118.473 Y124.380 E0.06376
G1 X120.450 Y124.862 E0.06381
G1 X122.406 Y125.144 E0.06195
G1 X122.406 Y137.966 E0.40205
G1 X109.533 Y137.966 E0.40364
G1 X109.392 Y137.045 E0.02922
G1 X108.895 Y135.116 E0.06248
G1 X108.207 Y133.243 E0.06254
G1 X107.334 Y131.447 E0.06264
G1 X106.284 Y129.742 E0.06278
G1 X105.066 Y128.145 E0.06296
G1 X103.696 Y126.673 E0.06306
G1 X102.184 Y125.340 E0.06320
G1 X100.545 Y124.157 E0.06338
G1 X98.796 Y123.137 E0.06349
G1 X96.952 Y122.288 E0.06365
G1 X95.032 Y121.620 E0.06373
G1 X93.055 Y121.138 E0.06381
G1 X91.038 Y120.848 E0.06388
G1 X89.022 Y120.751 E0.06329
G1 X65.982 Y120.751 E0.72239
G1 X63.966 Y120.848 E0.06329
G1 X61.949 Y121.138 E0.06388
G1 X59.972 Y121.620 E0.06381
G1 X58.052 Y122.288 E0.06373
G1 X56.208 Y123.137 E0.06365
G1 X54.459 Y124.157 E0.06349
G1 X52.820 Y125.340 E0.06338
G1 X51.308 Y126.673 E0.06320
G1 X49.938 Y128.145 E0.06306
G1 X48.720 Y129.742 E0.06296
G1 X47.670 Y131.447 E0.06278
G1 X46.797 Y133.243 E0.06264
G1 X46.109 Y135.116 E0.06254
G1 X45.612 Y137.045 E0.06248
G1 X45.471 Y137.966 E0.02922
G1 X32.598 Y137.966 E0.40364
G1 X32.598 Y125.144 E0.40205
G1 X34.554 Y124.862 E0.06195
G1 X36.531 Y124.380 E0.06381
G1 X38.452 Y123.712 E0.06376
G1 X40.295 Y122.863 E0.06362
G1 X42.045 Y121.843 E0.06352
G1 X43.683 Y120.660 E0.06335
G1 X45.195 Y119.327 E0.06322
G1 X46.567 Y117.855 E0.06307
G1 X47.783 Y116.258 E0.06293
G1 X48.834 Y114.554 E0.06279
G1 X49.707 Y112.757 E0.06265
G1 X50.395 Y110.884 E0.06254
G1 X50.892 Y108.955 E0.06248
G1 X51.192 Y106.987 E0.06240
G1 X51.292 Y105.000 E0.06239
G1 X51.192 Y103.013 E0.06239
G1 X50.892 Y101.045 E0.06240
G1 X50.395 Y99.116 E0.06248
G1 X49.707 Y97.243 E0.06254
G1 X48.834 Y95.446 E0.06265
G1 X47.783 Y93.742 E0.06279
G1 X46.567 Y92.145 E0.06293
G1 X45.195 Y90.673 E0.06307
G1 X43.683 Y89.340 E0.06322
G1 X42.045 Y88.157 E0.06335
G1 X40.295 Y87.137 E0.06352
G1 X38.452 Y86.288 E0.06362
G1 X36.531 Y85.620 E0.06376
G1 X34.554 Y85.138 E0.06381
G1 X32.598 Y84.856 E0.06195
G1 X32.598 Y72.094 E0.40017
M204 S1000
G1 X32.221 Y71.656 F10800.000
M204 S500
G1 F1200.000
G1 X45.674 Y71.656 E0.42181
G1 X45.688 Y71.922 E0.00835
G1 X45.982 Y73.852 E0.06121
G1 X46.469 Y75.744 E0.06126
G1 X47.144 Y77.582 E0.06138
G1 X48.001 Y79.345 E0.06146
G1 X49.032 Y81.017 E0.06160
G1 X50.226 Y82.585 E0.06179
G1 X51.572 Y84.029 E0.06190
G1 X53.056 Y85.338 E0.06204
G1 X54.665 Y86.499 E0.06223
G1 X56.383 Y87.501 E0.06234
G1 X58.194 Y88.334 E0.06249
G1 X60.079 Y88.991 E0.06259
G1 X62.021 Y89.464 E0.06268
G1 X64.002 Y89.750 E0.06275
G1 X65.991 Y89.845 E0.06245
G1 X89.013 Y89.845 E0.72183
G1 X91.002 Y89.750 E0.06245
G1 X92.983 Y89.464 E0.06275
G1 X94.925 Y88.991 E0.06268
G1 X96.810 Y88.334 E0.06259
G1 X98.621 Y87.501 E0.06249
G1 X100.339 Y86.499 E0.06234
G1 X101.948 Y85.338 E0.06223
G1 X103.432 Y84.029 E0.06204
G1 X104.778 Y82.585 E0.06190
G1 X105.972 Y81.017 E0.06179
G1 X107.003 Y79.345 E0.06160
G1 X107.860 Y77.582 E0.06146
G1 X108.535 Y75.744 E0.06138
G1 X109.022 Y73.852 E0.06126
G1 X109.316 Y71.922 E0.06121
G1 X109.330 Y71.656 E0.00835
G1 X122.783 Y71.656 E0.42182
G1 X122.783 Y85.210 E0.42496
G1 X122.502 Y85.223 E0.00883
G1 X120.522 Y85.509 E0.06272
G1 X118.580 Y85.982 E0.06268
G1 X116.694 Y86.638 E0.06262
G1 X114.884 Y87.472 E0.06248
G1 X113.165 Y88.474 E0.06237
G1 X111.557 Y89.635 E0.06220
G1 X110.072 Y90.944 E0.06206
G1 X108.726 Y92.388 E0.06190
G1 X107.533 Y93.956 E0.06177
G1 X106.501 Y95.628 E0.06161
G1 X105.644 Y97.391 E0.06146
G1 X104.969 Y99.228 E0.06135
G1 X104.482 Y101.121 E0.06129
G1 X104.188 Y103.051 E0.06121
G1 X104.088 Y105.000 E0.06120
G1 X104.188 Y106.949 E0.06120
G1 X104.482 Y108.879 E0.06121
G1 X104.969 Y110.772 E0.06129
G1 X105.644 Y112.609 E0.06135
G1 X106.501 Y114.372 E0.06146
G1 X107.533 Y116.044 E0.06161
G1 X108.726 Y117.612 E0.06177
G1 X110.072 Y119.056 E0.06190
G1 X111.557 Y120.365 E0.06206
G1 X113.165 Y121.526 E0.06220
G1 X114.884 Y122.528 E0.06237
G1 X116.694 Y123.362 E0.06248
G1 X118.580 Y124.018 E0.06262
G1 X120.522 Y124.491 E0.06268
G1 X122.502 Y124.777 E0.06272
G1 X122.783 Y124.790 E0.00883
G1 X122.783 Y138.344 E0.42496
G1 X109.209 Y138.344 E0.42562
M73 Q0 S150
M73 P0 R145
G1 X109.022 Y137.121 E0.03878
G1 X108.535 Y135.228 E0.06129
G1 X107.860 Y133.391 E0.06135
G1 X107.003 Y131.628 E0.06146
G1 X105.972 Y129.956 E0.06160
G1 X104.778 Y128.388 E0.06179
G1 X103.432 Y126.944 E0.06190
G1 X101.948 Y125.635 E0.06204
G1 X100.339 Y124.474 E0.06223
G1 X98.621 Y123.472 E0.06234
G1 X96.810 Y122.638 E0.06251
G1 X94.925 Y121.982 E0.06259
G1 X92.983 Y121.509 E0.06268
G1 X91.002 Y121.223 E0.06275
G1 X89.013 Y121.128 E0.06245
G1 X65.991 Y121.128 E0.72183
G1 X64.002 Y121.223 E0.06245
G1 X62.021 Y121.509 E0.06275
G1 X60.079 Y121.982 E0.06268
G1 X58.194 Y122.638 E0.06259
G1 X56.383 Y123.472 E0.06251
G1 X54.665 Y124.474 E0.06234
G1 X53.056 Y125.635 E0.06223
G1 X51.572 Y126.944 E0.06204
G1 X50.226 Y128.388 E0.06190
G1 X49.032 Y129.956 E0.06179
G1 X48.001 Y131.628 E0.06160
G1 X47.144 Y133.391 E0.06146
G1 X46.469 Y135.228 E0.06135
G1 X45.982 Y137.121 E0.06129
G1 X45.795 Y138.344 E0.03878
G1 X32.221 Y138.344 E0.42562
G1 X32.221 Y124.790 E0.42496
G1 X32.502 Y124.777 E0.00883
G1 X34.482 Y124.491 E0.06272
G1 X36.424 Y124.018 E0.06268
G1 X38.310 Y123.362 E0.06262
G1 X40.120 Y122.528 E0.06248
G1 X41.839 Y121.526 E0.06237
G1 X43.447 Y120.365 E0.06220
G1 X44.932 Y119.056 E0.06206
G1 X46.278 Y117.612 E0.06190
G1 X47.471 Y116.044 E0.06177
G1 X48.503 Y114.372 E0.06161
G1 X49.360 Y112.609 E0.06146
G1 X50.035 Y110.772 E0.06135
G1 X50.522 Y108.879 E0.06129
G1 X50.816 Y106.949 E0.06121
G1 X50.915 Y105.000 E0.06120
G1 X50.816 Y103.051 E0.06120
G1 X50.522 Y101.121 E0.06121
G1 X50.035 Y99.228 E0.06129
G1 X49.360 Y97.391 E0.06135
G1 X48.503 Y95.628 E0.06146
G1 X47.471 Y93.956 E0.06161
G1 X46.278 Y92.388 E0.06177
G1 X44.932 Y90.944 E0.06190
G1 X43.447 Y89.635 E0.06206
G1 X41.839 Y88.474 E0.06220
G1 X40.120 Y87.472 E0.06237
G1 X38.310 Y86.638 E0.06248
G1 X36.424 Y85.982 E0.06262
G1 X34.482 Y85.509 E0.06268
G1 X32.502 Y85.223 E0.06272
G1 X32.221 Y85.210 E0.00883
G1 X32.221 Y71.716 E0.42308
M204 S1000
G1 X32.569 Y71.854 F10800.000
G1 F8640.000
G1 X35.512 Y71.702 E-0.76000
G1 E-0.04000 F2100.00000
G1 Z0.800 F10800.000
G1 X45.330 Y72.828
G1 Z0.200
G1 E0.80000 F2100.00000
M204 S500
G1 F1200.000
G1 X44.818 Y72.316 E0.02270
G1 X44.284 Y72.316 E0.01676
G1 X45.223 Y73.255 E0.04168
G1 X45.319 Y73.885 E0.02000
G1 X43.751 Y72.316 E0.06964
G1 X43.217 Y72.316 E0.01676
G1 X45.490 Y74.590 E0.10094
G1 X45.676 Y75.309 E0.02331
G1 X42.683 Y72.316 E0.13286
G1 X42.149 Y72.316 E0.01676
G1 X45.876 Y76.043 E0.16546
G1 X46.186 Y76.887 E0.02823
G1 X41.615 Y72.316 E0.20293
G1 X41.081 Y72.316 E0.01676
G1 X46.496 Y77.731 E0.24040
G1 X46.976 Y78.745 E0.03521
G1 X40.547 Y72.316 E0.28540
G1 X40.013 Y72.316 E0.01676
G1 X47.522 Y79.825 E0.33334
G1 X48.379 Y81.215 E0.05126
G1 X39.479 Y72.316 E0.39507
G1 X38.946 Y72.316 E0.01676
G1 X87.097 Y120.468 E2.13763
G1 X86.563 Y120.468 E0.01676
G1 X38.412 Y72.316 E2.13763
G1 X37.878 Y72.316 E0.01676
G1 X86.030 Y120.468 E2.13763
G1 X85.496 Y120.468 E0.01676
G1 X37.344 Y72.316 E2.13763
G1 X36.810 Y72.316 E0.01676
G1 X84.962 Y120.468 E2.13763
G1 X84.428 Y120.468 E0.01676
G1 X36.276 Y72.316 E2.13763
G1 X35.742 Y72.316 E0.01676
G1 X83.894 Y120.468 E2.13763
G1 X83.360 Y120.468 E0.01676
G1 X35.208 Y72.316 E2.13763
G1 X34.674 Y72.316 E0.01676
G1 X82.826 Y120.468 E2.13763
G1 X82.292 Y120.468 E0.01676
G1 X34.140 Y72.316 E2.13763
G1 X33.607 Y72.316 E0.01676
G1 X81.758 Y120.468 E2.13763
G1 X81.225 Y120.468 E0.01676
G1 X33.073 Y72.316 E2.13763
G1 X32.881 Y72.316 E0.00602
G1 X32.881 Y72.658 E0.01074
G1 X80.691 Y120.468 E2.12245
G1 X80.157 Y120.468 E0.01676
G1 X32.881 Y73.192 E2.09875
M73 Q1 S149
M73 P1 R144
G1 X32.881 Y73.726 E0.01676
G1 X79.623 Y120.468 E2.07504
G1 X79.089 Y120.468 E0.01676
G1 X32.881 Y74.260 E2.05134
G1 X32.881 Y74.794 E0.01676
G1 X78.555 Y120.468 E2.02764
G1 X78.021 Y120.468 E0.01676
G1 X32.881 Y75.328 E2.00394
G1 X32.881 Y75.862 E0.01676
G1 X77.487 Y120.468 E1.98024
G1 X76.953 Y120.468 E0.01676
G1 X32.881 Y76.396 E1.95654
G1 X32.881 Y76.930 E0.01676
G1 X76.419 Y120.468 E1.93283
G1 X75.886 Y120.468 E0.01676
G1 X32.881 Y77.463 E1.90913
G1 X32.881 Y77.997 E0.01676
G1 X75.352 Y120.468 E1.88543
G1 X74.818 Y120.468 E0.01676
G1 X48.152 Y93.803 E1.18378
G1 X49.011 Y95.195 E0.05136
G1 X74.284 Y120.468 E1.12196
G1 X73.750 Y120.468 E0.01676
G1 X49.545 Y96.263 E1.07454
G1 X49.968 Y97.133 E0.03034
G1 X50.018 Y97.270 E0.00461
G1 X73.216 Y120.468 E1.02983
G1 X72.682 Y120.468 E0.01676
G1 X50.329 Y98.115 E0.99235
G1 X50.639 Y98.959 E0.02824
G1 X72.148 Y120.468 E0.95487
G1 X71.614 Y120.468 E0.01676
G1 X50.835 Y99.689 E0.92248
G1 X51.020 Y100.408 E0.02331
G1 X71.081 Y120.468 E0.89056
G1 X70.547 Y120.468 E0.01676
G1 X51.188 Y101.109 E0.85940
G1 X51.284 Y101.739 E0.02000
G1 X70.013 Y120.468 E0.83143
G1 X69.479 Y120.468 E0.01676
G1 X51.380 Y102.369 E0.80347
G1 X51.474 Y102.998 E0.01994
G1 X68.945 Y120.468 E0.77558
G1 X68.411 Y120.468 E0.01676
G1 X51.503 Y103.560 E0.75062
G1 X51.531 Y104.122 E0.01767
G1 X67.877 Y120.468 E0.72566
G1 X67.343 Y120.468 E0.01676
G1 X51.559 Y104.684 E0.70070
G1 X51.575 Y105.000 E0.00993
G1 X51.564 Y105.223 E0.00700
G1 X66.809 Y120.468 E0.67680
G1 X66.275 Y120.468 E0.01676
G1 X51.538 Y105.731 E0.65423
G1 X51.513 Y106.239 E0.01598
G1 X65.752 Y120.479 E0.63214
G1 X65.243 Y120.503 E0.01601
G1 X51.487 Y106.748 E0.61066
G1 X51.440 Y107.235 E0.01536
G1 X64.733 Y120.528 E0.59012
G1 X64.224 Y120.552 E0.01601
G1 X51.370 Y107.698 E0.57064
G1 X51.299 Y108.161 E0.01471
G1 X63.733 Y120.595 E0.55200
G1 X63.267 Y120.663 E0.01480
G1 X51.229 Y108.625 E0.53442
G1 X51.152 Y109.081 E0.01454
G1 X62.800 Y120.730 E0.51712
M73 Q2 S148
M73 P2 R143
G1 X62.333 Y120.797 E0.01480
G1 X51.042 Y109.506 E0.50126
G1 X50.933 Y109.931 E0.01376
G1 X61.869 Y120.867 E0.48550
G1 X61.440 Y120.971 E0.01387
G1 X50.824 Y110.355 E0.47129
G1 X50.714 Y110.780 E0.01376
G1 X61.011 Y121.076 E0.45709
G1 X60.581 Y121.181 E0.01387
G1 X50.586 Y111.185 E0.44372
G1 X50.443 Y111.576 E0.01306
G1 X60.152 Y121.285 E0.43104
G1 X59.736 Y121.403 E0.01358
G1 X50.299 Y111.966 E0.41893
G1 X50.155 Y112.357 E0.01306
G1 X59.340 Y121.541 E0.40772
G1 X58.944 Y121.679 E0.01316
G1 X50.012 Y112.747 E0.39651
G1 X49.847 Y113.116 E0.01269
G1 X58.548 Y121.816 E0.38625
G1 X58.151 Y121.954 E0.01316
G1 X49.672 Y113.475 E0.37642
G1 X49.498 Y113.834 E0.01254
G1 X57.770 Y122.107 E0.36724
G1 X57.404 Y122.275 E0.01263
G1 X49.323 Y114.194 E0.35876
G1 X49.148 Y114.553 E0.01254
G1 X57.039 Y122.443 E0.35029
G1 X56.673 Y122.612 E0.01263
G1 X48.956 Y114.894 E0.34260
G1 X48.752 Y115.224 E0.01218
G1 X56.308 Y122.780 E0.33541
G1 X55.953 Y122.959 E0.01248
G1 X48.549 Y115.555 E0.32869
G1 X48.345 Y115.885 E0.01218
G1 X55.615 Y123.155 E0.32276
G1 X55.278 Y123.352 E0.01225
G1 X48.141 Y116.215 E0.31684
G1 X47.927 Y116.535 E0.01208
G1 X54.941 Y123.549 E0.31137
G1 X54.604 Y123.746 E0.01225
G1 X47.696 Y116.838 E0.30665
G1 X47.466 Y117.141 E0.01196
G1 X54.270 Y123.945 E0.30207
G1 X53.960 Y124.169 E0.01200
G1 X47.235 Y117.444 E0.29855
G1 X47.004 Y117.747 E0.01196
G1 X53.650 Y124.393 E0.29503
G1 X53.339 Y124.617 E0.01200
G1 X46.772 Y118.049 E0.29156
G1 X46.514 Y118.326 E0.01186
G1 X53.029 Y124.841 E0.28922
G1 X52.719 Y125.064 E0.01200
G1 X46.257 Y118.602 E0.28688
G1 X46.000 Y118.879 E0.01186
G1 X52.429 Y125.308 E0.28543
G1 X52.145 Y125.558 E0.01187
G1 X45.742 Y119.155 E0.28427
G1 X45.485 Y119.431 E0.01186
G1 X51.862 Y125.808 E0.28310
G1 X51.578 Y126.059 E0.01187
G1 X45.210 Y119.691 E0.28269
G1 X44.926 Y119.941 E0.01187
G1 X51.294 Y126.309 E0.28269
G1 X51.020 Y126.568 E0.01186
G1 X44.643 Y120.191 E0.28311
G1 X44.359 Y120.441 E0.01187
G1 X50.762 Y126.845 E0.28428
G1 X50.505 Y127.121 E0.01186
G1 X44.075 Y120.691 E0.28545
G1 X43.785 Y120.935 E0.01190
G1 X50.247 Y127.398 E0.28690
G1 X49.990 Y127.674 E0.01186
G1 X43.475 Y121.159 E0.28923
