; generated by PrusaSlicer 2.2.0+ on 2020-11-08 at 16:09:11 UTC

; 

; external perimeters extrusion width = 0.60mm
; perimeters extrusion width = 0.50mm
; infill extrusion width = 0.50mm
; solid infill extrusion width = 0.50mm
; top infill extrusion width = 0.45mm
; first layer extrusion width = 0.42mm

M73 P0 R74
M73 Q0 S75
M201 X1000 Y1000 Z200 E5000 ; sets maximum accelerations, mm/sec^2
M203 X200 Y200 Z12 E120 ; sets maximum feedrates, mm/sec
M204 P1250 R1250 T1250 ; sets acceleration (P, T) and retract acceleration (R), mm/sec^2
M205 X8.00 Y8.00 Z0.40 E4.50 ; sets the jerk limits, mm/sec
M205 S0 T0 ; sets the minimum extruding and travel feed rate, mm/sec
M107
M862.3 P "MK3S" ; printer model check
M862.1 P0.4 ; nozzle diameter check
M115 U3.9.0 ; tell printer latest fw version
G90 ; use absolute coordinates
M83 ; extruder relative mode
M104 S230 ; set extruder temp
M140 S60 ; set bed temp
M190 S60 ; wait for bed temp
M109 S230 ; wait for extruder temp
G28 W ; home all without mesh bed level
G80 ; mesh bed leveling
G1 Y-3.0 F1000.0 ; go outside print area
G92 E0.0
G1 X60.0 E9.0 F1000.0 ; intro line
M73 Q0 S75
M73 P0 R74
G1 X100.0 E12.5 F1000.0 ; intro line
G92 E0.0
M221 S95
G21 ; set units to millimeters
G90 ; use absolute coordinates
M83 ; use relative distances for extrusion
M900 K0.06 ; Filament gcode LA 1.5
M900 K30 ; Filament gcode LA 1.0
;BEFORE_LAYER_CHANGE
G92 E0.0
;0.2


G1 E-0.80000 F2100.00000
G1 Z0.600 F10800.000
;AFTER_LAYER_CHANGE
;0.2
G1 X30.132 Y68.116
G1 Z0.200
G1 E0.80000 F2100.00000
M204 S500
G1 F1200.000
G1 X30.891 Y67.987 E0.02414
G1 X219.108 Y67.989 E5.90141
G1 X219.856 Y68.114 E0.02378
G1 X220.527 Y68.468 E0.02378
G1 X220.921 Y68.843 E0.01704
G1 X221.219 Y69.297 E0.01704
G1 X221.408 Y69.811 E0.01716
G1 X221.473 Y70.350 E0.01704
G1 X221.473 Y139.651 E2.17287
G1 X221.348 Y140.399 E0.02378
G1 X220.995 Y141.066 E0.02367
G1 X220.617 Y141.462 E0.01716
G1 X220.156 Y141.763 E0.01728
G1 X219.641 Y141.949 E0.01716
G1 X219.096 Y142.013 E0.01719
G1 X30.892 Y142.011 E5.90101
G1 X30.356 Y141.947 E0.01692
G1 X29.848 Y141.764 E0.01692
G1 X29.395 Y141.471 E0.01692
G1 X29.020 Y141.083 E0.01692
G1 X28.655 Y140.405 E0.02414
G1 X28.527 Y139.650 E0.02402
G1 X28.527 Y70.349 E2.17287
G1 X28.591 Y69.813 E0.01692
G1 X28.775 Y69.306 E0.01692
G1 X29.066 Y68.856 E0.01680
G1 X29.454 Y68.481 E0.01692
G1 X30.079 Y68.145 E0.02226
M204 S1000
G1 F8640.000
G1 X30.891 Y67.987 E-0.19093
G1 X33.356 Y67.988 E-0.56907
G1 E-0.04000 F2100.00000
G1 Z0.800 F10800.000
G1 X127.597 Y72.035
G1 Z0.200
G1 E0.80000 F2100.00000
M204 S500
G1 F1200.000
G1 X140.470 Y72.035 E0.40361
G1 X140.610 Y72.956 E0.02919
G1 X141.107 Y74.885 E0.06248
G1 X141.795 Y76.758 E0.06254
G1 X142.668 Y78.554 E0.06264
G1 X143.718 Y80.259 E0.06278
G1 X144.936 Y81.856 E0.06296
G1 X146.306 Y83.328 E0.06306
G1 X147.818 Y84.661 E0.06320
G1 X149.457 Y85.844 E0.06338
G1 X151.206 Y86.864 E0.06349
G1 X153.050 Y87.713 E0.06365
G1 X154.970 Y88.381 E0.06372
G1 X156.947 Y88.863 E0.06381
G1 X158.964 Y89.153 E0.06388
G1 X160.980 Y89.250 E0.06329
G1 X184.020 Y89.250 E0.72239
G1 X186.036 Y89.153 E0.06329
G1 X188.053 Y88.863 E0.06388
G1 X190.030 Y88.381 E0.06381
G1 X191.950 Y87.713 E0.06373
G1 X193.794 Y86.864 E0.06365
G1 X195.543 Y85.844 E0.06349
G1 X197.182 Y84.661 E0.06338
G1 X198.694 Y83.328 E0.06320
G1 X200.064 Y81.856 E0.06306
G1 X201.282 Y80.259 E0.06296
G1 X202.332 Y78.554 E0.06278
G1 X203.205 Y76.758 E0.06264
G1 X203.893 Y74.885 E0.06254
G1 X204.390 Y72.956 E0.06248
G1 X204.530 Y72.035 E0.02919
G1 X217.403 Y72.035 E0.40361
G1 X217.403 Y84.857 E0.40203
G1 X215.448 Y85.139 E0.06192
G1 X213.471 Y85.621 E0.06381
G1 X211.550 Y86.289 E0.06376
G1 X209.707 Y87.138 E0.06362
G1 X207.957 Y88.158 E0.06352
G1 X206.319 Y89.341 E0.06335
G1 X204.807 Y90.674 E0.06322
G1 X203.435 Y92.146 E0.06307
G1 X202.219 Y93.743 E0.06293
G1 X201.168 Y95.447 E0.06279
G1 X200.295 Y97.244 E0.06265
G1 X199.607 Y99.117 E0.06254
G1 X199.110 Y101.046 E0.06248
G1 X198.810 Y103.014 E0.06240
G1 X198.710 Y105.001 E0.06239
G1 X198.810 Y106.988 E0.06239
G1 X199.110 Y108.956 E0.06240
G1 X199.607 Y110.885 E0.06248
G1 X200.295 Y112.758 E0.06254
G1 X201.168 Y114.555 E0.06265
G1 X202.219 Y116.259 E0.06279
G1 X203.435 Y117.856 E0.06293
G1 X204.807 Y119.328 E0.06307
G1 X206.319 Y120.661 E0.06322
G1 X207.957 Y121.844 E0.06335
G1 X209.707 Y122.864 E0.06352
G1 X211.550 Y123.713 E0.06362
G1 X213.471 Y124.381 E0.06376
G1 X215.448 Y124.863 E0.06381
G1 X217.403 Y125.145 E0.06192
G1 X217.403 Y137.967 E0.40203
G1 X204.679 Y137.967 E0.39896
G1 X204.390 Y136.073 E0.06006
G1 X203.893 Y134.145 E0.06244
G1 X203.205 Y132.271 E0.06257
G1 X202.332 Y130.475 E0.06264
G1 X201.282 Y128.770 E0.06278
G1 X200.064 Y127.173 E0.06296
G1 X198.694 Y125.701 E0.06306
G1 X197.182 Y124.368 E0.06320
G1 X195.543 Y123.185 E0.06338
G1 X193.794 Y122.165 E0.06349
G1 X191.950 Y121.317 E0.06363
G1 X190.030 Y120.648 E0.06373
G1 X188.053 Y120.166 E0.06382
G1 X186.036 Y119.876 E0.06388
G1 X184.020 Y119.779 E0.06329
G1 X160.980 Y119.779 E0.72239
G1 X158.964 Y119.876 E0.06329
G1 X156.947 Y120.166 E0.06388
G1 X154.970 Y120.648 E0.06382
G1 X153.050 Y121.317 E0.06373
G1 X151.206 Y122.165 E0.06363
G1 X149.457 Y123.185 E0.06349
G1 X147.818 Y124.368 E0.06338
G1 X146.306 Y125.701 E0.06320
G1 X144.936 Y127.173 E0.06306
G1 X143.718 Y128.770 E0.06296
G1 X142.668 Y130.475 E0.06278
G1 X141.795 Y132.271 E0.06264
G1 X141.107 Y134.145 E0.06257
G1 X140.610 Y136.073 E0.06244
G1 X140.321 Y137.967 E0.06006
G1 X127.597 Y137.967 E0.39896
G1 X127.597 Y125.145 E0.40203
G1 X129.552 Y124.863 E0.06192
G1 X131.529 Y124.381 E0.06381
G1 X133.450 Y123.713 E0.06376
G1 X135.293 Y122.864 E0.06362
G1 X137.043 Y121.844 E0.06352
G1 X138.681 Y120.661 E0.06335
G1 X140.193 Y119.328 E0.06322
G1 X141.565 Y117.856 E0.06307
G1 X142.781 Y116.259 E0.06293
G1 X143.832 Y114.555 E0.06279
G1 X144.705 Y112.758 E0.06265
G1 X145.393 Y110.885 E0.06254
G1 X145.890 Y108.956 E0.06248
G1 X146.190 Y106.988 E0.06240
G1 X146.291 Y105.001 E0.06240
G1 X146.190 Y103.014 E0.06240
G1 X145.890 Y101.046 E0.06240
G1 X145.393 Y99.117 E0.06248
G1 X144.705 Y97.244 E0.06254
G1 X143.832 Y95.447 E0.06265
G1 X142.781 Y93.743 E0.06279
G1 X141.565 Y92.146 E0.06293
G1 X140.193 Y90.674 E0.06307
G1 X138.681 Y89.341 E0.06322
G1 X137.043 Y88.158 E0.06335
G1 X135.293 Y87.138 E0.06352
G1 X133.450 Y86.289 E0.06362
G1 X131.529 Y85.621 E0.06376
G1 X129.552 Y85.139 E0.06381
G1 X127.597 Y84.857 E0.06192
G1 X127.597 Y72.095 E0.40014
M204 S1000
G1 X127.220 Y71.658 F10800.000
M204 S500
G1 F1200.000
G1 X140.794 Y71.658 E0.42559
G1 X140.980 Y72.880 E0.03876
G1 X141.467 Y74.773 E0.06129
G1 X142.142 Y76.610 E0.06135
G1 X142.999 Y78.373 E0.06146
G1 X144.030 Y80.045 E0.06160
G1 X145.224 Y81.613 E0.06179
G1 X146.570 Y83.057 E0.06190
G1 X148.054 Y84.366 E0.06204
G1 X149.663 Y85.527 E0.06223
G1 X151.381 Y86.529 E0.06234
G1 X153.192 Y87.363 E0.06251
G1 X155.077 Y88.019 E0.06259
G1 X157.019 Y88.492 E0.06268
G1 X159.000 Y88.778 E0.06275
G1 X160.989 Y88.873 E0.06245
G1 X184.011 Y88.873 E0.72183
G1 X186.000 Y88.778 E0.06245
G1 X187.981 Y88.492 E0.06275
G1 X189.923 Y88.019 E0.06268
G1 X191.808 Y87.363 E0.06259
G1 X193.619 Y86.529 E0.06251
G1 X195.337 Y85.527 E0.06234
G1 X196.946 Y84.366 E0.06223
G1 X198.430 Y83.057 E0.06204
G1 X199.776 Y81.613 E0.06190
G1 X200.970 Y80.045 E0.06179
G1 X202.001 Y78.373 E0.06160
G1 X202.858 Y76.610 E0.06146
G1 X203.533 Y74.773 E0.06135
G1 X204.020 Y72.880 E0.06129
G1 X204.207 Y71.658 E0.03876
G1 X217.780 Y71.658 E0.42559
G1 X217.780 Y85.211 E0.42493
G1 X217.500 Y85.224 E0.00880
G1 X215.520 Y85.510 E0.06272
G1 X213.578 Y85.983 E0.06268
G1 X211.692 Y86.639 E0.06262
G1 X209.882 Y87.473 E0.06248
G1 X208.163 Y88.475 E0.06237
G1 X206.555 Y89.636 E0.06220
G1 X205.070 Y90.945 E0.06206
G1 X203.724 Y92.389 E0.06190
G1 X202.531 Y93.957 E0.06177
G1 X201.499 Y95.629 E0.06161
G1 X200.642 Y97.392 E0.06146
G1 X199.967 Y99.229 E0.06135
G1 X199.480 Y101.122 E0.06129
G1 X199.186 Y103.052 E0.06121
G1 X199.087 Y105.001 E0.06120
G1 X199.186 Y106.950 E0.06120
G1 X199.480 Y108.880 E0.06121
G1 X199.967 Y110.773 E0.06129
G1 X200.642 Y112.610 E0.06135
G1 X201.499 Y114.373 E0.06146
G1 X202.531 Y116.045 E0.06161
G1 X203.724 Y117.613 E0.06177
G1 X205.070 Y119.057 E0.06190
G1 X206.555 Y120.366 E0.06206
G1 X208.163 Y121.527 E0.06220
G1 X209.882 Y122.529 E0.06237
G1 X211.692 Y123.363 E0.06248
G1 X213.578 Y124.019 E0.06262
G1 X215.520 Y124.492 E0.06268
G1 X217.500 Y124.778 E0.06272
M73 Q1 S74
G1 X217.780 Y124.791 E0.00880
G1 X217.780 Y138.344 E0.42494
M73 P1 R73
G1 X204.328 Y138.344 E0.42179
G1 X204.314 Y138.079 E0.00832
G1 X204.020 Y136.149 E0.06121
G1 X203.533 Y134.257 E0.06126
G1 X202.858 Y132.419 E0.06138
G1 X202.001 Y130.656 E0.06146
G1 X200.970 Y128.984 E0.06160
G1 X199.776 Y127.416 E0.06179
G1 X198.430 Y125.972 E0.06190
G1 X196.946 Y124.663 E0.06204
G1 X195.337 Y123.502 E0.06223
G1 X193.619 Y122.500 E0.06234
G1 X191.808 Y121.667 E0.06249
G1 X189.923 Y121.010 E0.06259
G1 X187.981 Y120.537 E0.06268
G1 X186.000 Y120.251 E0.06275
G1 X184.011 Y120.156 E0.06245
G1 X160.989 Y120.156 E0.72183
G1 X159.000 Y120.251 E0.06245
G1 X157.019 Y120.537 E0.06275
G1 X155.077 Y121.010 E0.06268
G1 X153.192 Y121.667 E0.06259
G1 X151.381 Y122.500 E0.06249
G1 X149.663 Y123.502 E0.06234
G1 X148.054 Y124.663 E0.06223
G1 X146.570 Y125.972 E0.06204
G1 X145.224 Y127.416 E0.06190
G1 X144.030 Y128.984 E0.06179
G1 X142.999 Y130.656 E0.06160
G1 X142.142 Y132.419 E0.06146
G1 X141.467 Y134.257 E0.06138
G1 X140.980 Y136.149 E0.06126
G1 X140.686 Y138.079 E0.06121
G1 X140.672 Y138.344 E0.00832
G1 X127.220 Y138.344 E0.42179
G1 X127.220 Y124.791 E0.42494
G1 X127.500 Y124.778 E0.00880
G1 X129.480 Y124.492 E0.06272
G1 X131.422 Y124.019 E0.06268
G1 X133.308 Y123.363 E0.06262
G1 X135.118 Y122.529 E0.06248
G1 X136.837 Y121.527 E0.06237
G1 X138.445 Y120.366 E0.06220
G1 X139.930 Y119.057 E0.06206
G1 X141.276 Y117.613 E0.06190
G1 X142.469 Y116.045 E0.06177
G1 X143.501 Y114.373 E0.06161
G1 X144.358 Y112.610 E0.06146
G1 X145.033 Y110.773 E0.06135
G1 X145.520 Y108.880 E0.06129
G1 X145.814 Y106.950 E0.06121
G1 X145.914 Y105.001 E0.06120
G1 X145.814 Y103.052 E0.06120
G1 X145.520 Y101.122 E0.06121
G1 X145.033 Y99.229 E0.06129
G1 X144.358 Y97.392 E0.06135
G1 X143.501 Y95.629 E0.06146
G1 X142.469 Y93.957 E0.06161
G1 X141.276 Y92.389 E0.06177
G1 X139.930 Y90.945 E0.06190
G1 X138.445 Y89.636 E0.06206
G1 X136.837 Y88.475 E0.06220
G1 X135.118 Y87.473 E0.06237
G1 X133.308 Y86.639 E0.06248
G1 X131.422 Y85.983 E0.06262
G1 X129.480 Y85.510 E0.06268
G1 X127.500 Y85.224 E0.06272
G1 X127.220 Y85.211 E0.00880
G1 X127.220 Y71.718 E0.42305
M204 S1000
G1 X127.568 Y71.856 F10800.000
G1 F8640.000
G1 X130.511 Y71.704 E-0.76000
G1 E-0.04000 F2100.00000
G1 Z0.800 F10800.000
G1 X128.322 Y84.848
G1 Z0.200
G1 E0.80000 F2100.00000
M204 S500
G1 F1200.000
G1 X127.880 Y84.406 E0.01963
G1 X127.880 Y83.872 E0.01676
G1 X128.745 Y84.737 E0.03843
G1 X129.369 Y84.827 E0.01979
G1 X127.880 Y83.338 E0.06613
G1 X127.880 Y82.804 E0.01676
G1 X130.044 Y84.968 E0.09609
G1 X130.750 Y85.140 E0.02281
G1 X127.880 Y82.270 E0.12742
G1 X127.880 Y81.736 E0.01676
G1 X131.456 Y85.312 E0.15876
G1 X132.250 Y85.573 E0.02623
G1 X127.880 Y81.202 E0.19401
G1 X127.880 Y80.668 E0.01676
G1 X133.069 Y85.857 E0.23035
G1 X133.555 Y86.027 E0.01618
G1 X133.957 Y86.211 E0.01386
G1 X127.880 Y80.134 E0.26977
G1 X127.880 Y79.601 E0.01676
G1 X134.946 Y86.667 E0.31370
G1 X135.423 Y86.887 E0.01649
G1 X136.087 Y87.274 E0.02410
G1 X127.880 Y79.067 E0.36433
G1 X127.880 Y78.533 E0.01676
G1 X138.206 Y88.859 E0.45839
M204 S1000
G1 F8640.000
G1 X135.878 Y86.531 E-0.76000
G1 E-0.04000 F2100.00000
G1 Z0.800 F10800.000
G1 X148.572 Y85.344
G1 Z0.200
G1 E0.80000 F2100.00000
M204 S500
G1 F1200.000
G1 X182.724 Y119.496 E1.51609
G1 X183.258 Y119.496 E0.01676
G1 X150.599 Y86.837 E1.44983
G1 X151.076 Y87.115 E0.01733
G1 X151.697 Y87.401 E0.02147
G1 X183.792 Y119.496 E1.42478
G1 X184.341 Y119.511 E0.01724
G1 X152.686 Y87.856 E1.40524
G1 X152.945 Y87.975 E0.00894
G1 X153.549 Y88.186 E0.02010
G1 X184.902 Y119.538 E1.39181
G1 X185.462 Y119.565 E0.01762
G1 X154.368 Y88.471 E1.38035
G1 X154.890 Y88.652 E0.01734
G1 X155.146 Y88.715 E0.00827
G1 X186.023 Y119.592 E1.37072
G1 X186.642 Y119.677 E0.01962
G1 X155.852 Y88.887 E1.36688
G1 X156.558 Y89.059 E0.02281
G1 X187.266 Y119.767 E1.36323
G1 X187.890 Y119.857 E0.01978
G1 X157.221 Y89.188 E1.36150
G1 X157.844 Y89.278 E0.01978
G1 X188.568 Y120.001 E1.36388
G1 X189.273 Y120.173 E0.02281
G1 X158.468 Y89.368 E1.36752
G1 X159.076 Y89.442 E0.01923
G1 X189.979 Y120.345 E1.37186
G1 X190.778 Y120.609 E0.02640
G1 X159.637 Y89.469 E1.38241
G1 X160.198 Y89.496 E0.01762
G1 X191.597 Y120.895 E1.39389
G1 X192.055 Y121.055 E0.01523
G1 X192.491 Y121.255 E0.01505
G1 X160.759 Y89.523 E1.40868
G1 X161.303 Y89.533 E0.01708
G1 X193.479 Y121.709 E1.42839
G1 X193.924 Y121.914 E0.01538
G1 X194.629 Y122.325 E0.02560
G1 X161.837 Y89.533 E1.45572
G1 X162.371 Y89.533 E0.01676
G1 X196.768 Y123.930 E1.52699
M204 S1000
G1 F8640.000
G1 X194.441 Y121.603 E-0.76000
G1 E-0.04000 F2100.00000
G1 Z0.800 F10800.000
G1 X217.290 Y125.766
G1 Z0.200
G1 E0.80000 F2100.00000
M73 Q2 S73
M204 S500
G1 F1200.000
G1 X216.878 Y125.355 E0.01827
G1 X216.255 Y125.265 E0.01979
G1 X217.120 Y126.130 E0.03843
G1 X217.120 Y126.664 E0.01676
G1 X215.631 Y125.175 E0.06613
G1 X215.394 Y125.141 E0.00749
G1 X214.956 Y125.034 E0.01417
G1 X217.120 Y127.198 E0.09609
M73 P2 R72
G1 X217.120 Y127.732 E0.01676
G1 X214.250 Y124.862 E0.12742
G1 X213.544 Y124.690 E0.02281
G1 X217.120 Y128.266 E0.15876
G1 X217.120 Y128.800 E0.01676
G1 X212.750 Y124.429 E0.19401
G1 X211.931 Y124.145 E0.02720
G1 X217.120 Y129.334 E0.23035
G1 X217.120 Y129.868 E0.01676
G1 X211.043 Y123.791 E0.26977
G1 X210.054 Y123.335 E0.03420
G1 X217.120 Y130.401 E0.31370
G1 X217.120 Y130.935 E0.01676
G1 X208.913 Y122.728 E0.36433
G1 X207.803 Y122.081 E0.04035
G1 X207.547 Y121.896 E0.00989
G1 X217.290 Y131.639 E0.43249
M204 S1000
G1 F8640.000
G1 X214.963 Y129.312 E-0.76000
G1 E-0.04000 F2100.00000
G1 Z0.800 F10800.000
G1 X204.672 Y137.173
G1 Z0.200
G1 E0.80000 F2100.00000
M204 S500
G1 F1200.000
G1 X205.183 Y137.684 E0.02267
G1 X205.717 Y137.684 E0.01676
G1 X204.779 Y136.746 E0.04164
G1 X204.683 Y136.116 E0.02000
G1 X206.251 Y137.684 E0.06960
G1 X206.784 Y137.684 E0.01676
G1 X204.512 Y135.411 E0.10090
G1 X204.326 Y134.692 E0.02331
G1 X207.318 Y137.684 E0.13282
G1 X207.852 Y137.684 E0.01676
G1 X204.126 Y133.958 E0.16542
G1 X203.816 Y133.114 E0.02822
G1 X208.386 Y137.684 E0.20289
G1 X208.920 Y137.684 E0.01676
G1 X203.506 Y132.270 E0.24036
G1 X203.026 Y131.256 E0.03521
G1 X209.454 Y137.684 E0.28536
G1 X209.988 Y137.684 E0.01676
G1 X202.480 Y130.176 E0.33330
G1 X201.623 Y128.786 E0.05126
G1 X210.522 Y137.684 E0.39502
G1 X211.056 Y137.684 E0.01676
G1 X162.905 Y89.533 E2.13755
G1 X163.438 Y89.533 E0.01676
G1 X211.589 Y137.684 E2.13755
G1 X212.123 Y137.684 E0.01676
G1 X163.972 Y89.533 E2.13755
G1 X164.506 Y89.533 E0.01676
G1 X212.657 Y137.684 E2.13755
G1 X213.191 Y137.684 E0.01676
G1 X165.040 Y89.533 E2.13755
G1 X165.574 Y89.533 E0.01676
G1 X213.725 Y137.684 E2.13755
G1 X214.259 Y137.684 E0.01676
G1 X166.108 Y89.533 E2.13755
G1 X166.642 Y89.533 E0.01676
G1 X214.793 Y137.684 E2.13755
G1 X215.327 Y137.684 E0.01676
G1 X167.176 Y89.533 E2.13755
G1 X167.710 Y89.533 E0.01676
G1 X215.861 Y137.684 E2.13755
G1 X216.394 Y137.684 E0.01676
G1 X168.243 Y89.533 E2.13755
G1 X168.777 Y89.533 E0.01676
G1 X216.928 Y137.684 E2.13755
G1 X217.120 Y137.684 E0.00603
G1 X217.120 Y137.342 E0.01073
G1 X169.311 Y89.533 E2.12237
G1 X169.845 Y89.533 E0.01676
G1 X217.120 Y136.808 E2.09867
G1 X217.120 Y136.274 E0.01676
G1 X170.379 Y89.533 E2.07497
M73 Q4 S72
G1 X170.913 Y89.533 E0.01676
G1 X217.120 Y135.740 E2.05127
M73 P4 R71
G1 X217.120 Y135.206 E0.01676
G1 X171.447 Y89.533 E2.02757
G1 X171.981 Y89.533 E0.01676
G1 X217.120 Y134.673 E2.00387
G1 X217.120 Y134.139 E0.01676
G1 X172.514 Y89.533 E1.98017
G1 X173.048 Y89.533 E0.01676
G1 X217.120 Y133.605 E1.95647
G1 X217.120 Y133.071 E0.01676
G1 X173.582 Y89.533 E1.93277
G1 X174.116 Y89.533 E0.01676
G1 X217.120 Y132.537 E1.90907
