; generated by PrusaSlicer 2.2.0+ on 2020-11-08 at 16:09:12 UTC

; 

; external perimeters extrusion width = 0.60mm
; perimeters extrusion width = 0.50mm
; infill extrusion width = 0.50mm
; solid infill extrusion width = 0.50mm
; top infill extrusion width = 0.45mm
; first layer extrusion width = 0.42mm

M73 P0 R97
M73 Q0 S99
M201 X1000 Y1000 Z200 E5000 ; sets maximum accelerations, mm/sec^2
M203 X200 Y200 Z12 E120 ; sets maximum feedrates, mm/sec
M204 P1250 R1250 T1250 ; sets acceleration (P, T) and retract acceleration (R), mm/sec^2
M205 X8.00 Y8.00 Z0.40 E4.50 ; sets the jerk limits, mm/sec
M205 S0 T0 ; sets the minimum extruding and travel feed rate, mm/sec
M107
M862.3 P "MK3S" ; printer model check
M862.1 P0.4 ; nozzle diameter check
M115 U3.9.0 ; tell printer latest fw version
G90 ; use absolute coordinates
M83 ; extruder relative mode
M104 S230 ; set extruder temp
M140 S60 ; set bed temp
M190 S60 ; wait for bed temp
M109 S230 ; wait for extruder temp
G28 W ; home all without mesh bed level
G80 ; mesh bed leveling
G1 Y-3.0 F1000.0 ; go outside print area
G92 E0.0
G1 X60.0 E9.0 F1000.0 ; intro line
M73 Q0 S99
M73 P0 R97
G1 X100.0 E12.5 F1000.0 ; intro line
G92 E0.0
M221 S95
G21 ; set units to millimeters
G90 ; use absolute coordinates
M83 ; use relative distances for extrusion
M900 K0.06 ; Filament gcode LA 1.5
M900 K30 ; Filament gcode LA 1.0
;BEFORE_LAYER_CHANGE
G92 E0.0
;0.2


G1 E-0.80000 F2100.00000
G1 Z0.600 F10800.000
;AFTER_LAYER_CHANGE
;0.2
G1 X76.127 Y34.183
G1 Z0.200
G1 E0.80000 F2100.00000
M204 S500
G1 F1200.000
G1 X76.413 Y33.567 E0.02130
G1 X76.788 Y33.123 E0.01823
G1 X77.260 Y32.783 E0.01823
G1 X77.800 Y32.567 E0.01823
G1 X78.376 Y32.490 E0.01823
G1 X171.600 Y32.489 E2.92299
G1 X172.502 Y32.669 E0.02884
G1 X173.266 Y33.175 E0.02872
G1 X173.783 Y33.935 E0.02884
G1 X173.973 Y34.835 E0.02884
G1 X173.973 Y175.141 E4.39920
G1 X173.873 Y175.817 E0.02142
G1 X173.587 Y176.433 E0.02130
G1 X173.209 Y176.880 E0.01835
G1 X172.737 Y177.219 E0.01823
G1 X172.193 Y177.435 E0.01835
G1 X171.613 Y177.510 E0.01835
G1 X78.392 Y177.511 E2.92287
G1 X77.720 Y177.410 E0.02130
G1 X77.104 Y177.124 E0.02130
G1 X76.657 Y176.746 E0.01835
G1 X76.316 Y176.271 E0.01835
G1 X76.102 Y175.726 E0.01835
G1 X76.027 Y175.146 E0.01835
G1 X76.027 Y34.859 E4.39860
G1 X76.118 Y34.242 E0.01954
M204 S1000
G1 F8640.000
G1 X76.413 Y33.567 E-0.17022
G1 X76.788 Y33.123 E-0.13423
G1 X77.260 Y32.783 E-0.13423
G1 X77.800 Y32.567 E-0.13423
G1 X78.376 Y32.490 E-0.13423
G1 X78.605 Y32.490 E-0.05286
G1 E-0.04000 F2100.00000
G1 Z0.800 F10800.000
G1 X80.097 Y107.533
G1 Z0.200
G1 E0.80000 F2100.00000
M204 S500
G1 F1200.000
G1 X92.970 Y107.533 E0.40361
G1 X93.110 Y108.454 E0.02919
G1 X93.607 Y110.383 E0.06248
G1 X94.295 Y112.256 E0.06254
G1 X95.168 Y114.052 E0.06264
G1 X96.218 Y115.757 E0.06278
G1 X97.436 Y117.354 E0.06296
G1 X98.806 Y118.826 E0.06306
G1 X100.318 Y120.159 E0.06320
G1 X101.957 Y121.342 E0.06338
G1 X103.706 Y122.362 E0.06349
G1 X105.550 Y123.211 E0.06365
G1 X107.470 Y123.879 E0.06372
G1 X109.447 Y124.361 E0.06381
G1 X111.464 Y124.651 E0.06388
G1 X113.480 Y124.748 E0.06329
G1 X136.520 Y124.748 E0.72239
G1 X138.536 Y124.651 E0.06329
G1 X140.553 Y124.361 E0.06388
G1 X142.530 Y123.879 E0.06381
G1 X144.450 Y123.211 E0.06372
G1 X146.294 Y122.362 E0.06365
G1 X148.043 Y121.342 E0.06349
G1 X149.682 Y120.159 E0.06338
G1 X151.194 Y118.826 E0.06320
G1 X152.564 Y117.354 E0.06306
G1 X153.782 Y115.757 E0.06296
G1 X154.832 Y114.052 E0.06278
G1 X155.705 Y112.256 E0.06264
G1 X156.393 Y110.383 E0.06254
G1 X156.890 Y108.454 E0.06248
G1 X157.030 Y107.533 E0.02919
G1 X169.903 Y107.533 E0.40361
G1 X169.903 Y120.355 E0.40203
G1 X167.948 Y120.637 E0.06192
G1 X165.971 Y121.119 E0.06381
G1 X164.050 Y121.787 E0.06376
G1 X162.207 Y122.636 E0.06362
G1 X160.457 Y123.656 E0.06352
G1 X158.819 Y124.839 E0.06335
G1 X157.307 Y126.172 E0.06322
G1 X155.935 Y127.644 E0.06307
G1 X154.719 Y129.241 E0.06293
G1 X153.668 Y130.945 E0.06279
G1 X152.795 Y132.742 E0.06265
G1 X152.107 Y134.615 E0.06254
G1 X151.610 Y136.544 E0.06248
G1 X151.310 Y138.512 E0.06240
G1 X151.209 Y140.499 E0.06240
G1 X151.310 Y142.486 E0.06240
G1 X151.610 Y144.454 E0.06240
G1 X152.107 Y146.383 E0.06248
G1 X152.795 Y148.256 E0.06254
G1 X153.668 Y150.053 E0.06265
G1 X154.719 Y151.757 E0.06279
G1 X155.935 Y153.354 E0.06293
G1 X157.307 Y154.826 E0.06307
G1 X158.819 Y156.159 E0.06322
G1 X160.457 Y157.342 E0.06335
G1 X162.207 Y158.362 E0.06352
G1 X164.050 Y159.211 E0.06362
G1 X165.971 Y159.879 E0.06376
G1 X167.948 Y160.361 E0.06381
G1 X169.903 Y160.643 E0.06192
G1 X169.903 Y173.465 E0.40203
G1 X157.179 Y173.465 E0.39896
G1 X156.890 Y171.571 E0.06006
G1 X156.393 Y169.643 E0.06244
G1 X155.705 Y167.769 E0.06257
G1 X154.832 Y165.973 E0.06264
G1 X153.782 Y164.268 E0.06278
G1 X152.564 Y162.671 E0.06296
G1 X151.194 Y161.199 E0.06306
G1 X149.682 Y159.866 E0.06320
G1 X148.043 Y158.683 E0.06338
G1 X146.294 Y157.663 E0.06349
G1 X144.450 Y156.815 E0.06363
G1 X142.530 Y156.146 E0.06373
G1 X140.553 Y155.664 E0.06382
G1 X138.536 Y155.374 E0.06388
G1 X136.520 Y155.277 E0.06329
G1 X113.480 Y155.277 E0.72239
G1 X111.464 Y155.374 E0.06329
G1 X109.447 Y155.664 E0.06388
G1 X107.470 Y156.146 E0.06382
G1 X105.550 Y156.815 E0.06373
G1 X103.706 Y157.663 E0.06363
G1 X101.957 Y158.683 E0.06349
G1 X100.318 Y159.866 E0.06338
G1 X98.806 Y161.199 E0.06320
G1 X97.436 Y162.671 E0.06306
G1 X96.218 Y164.268 E0.06296
G1 X95.168 Y165.973 E0.06278
G1 X94.295 Y167.769 E0.06264
G1 X93.607 Y169.643 E0.06257
G1 X93.110 Y171.571 E0.06244
G1 X92.821 Y173.465 E0.06006
G1 X80.097 Y173.465 E0.39896
G1 X80.097 Y160.643 E0.40203
G1 X82.052 Y160.361 E0.06192
G1 X84.029 Y159.879 E0.06381
G1 X85.950 Y159.211 E0.06376
G1 X87.793 Y158.362 E0.06362
G1 X89.543 Y157.342 E0.06352
G1 X91.181 Y156.159 E0.06335
G1 X92.693 Y154.826 E0.06322
G1 X94.065 Y153.354 E0.06307
G1 X95.281 Y151.757 E0.06293
G1 X96.332 Y150.053 E0.06279
G1 X97.205 Y148.256 E0.06265
G1 X97.893 Y146.383 E0.06254
G1 X98.390 Y144.454 E0.06248
G1 X98.690 Y142.486 E0.06240
G1 X98.790 Y140.499 E0.06239
G1 X98.690 Y138.512 E0.06239
G1 X98.390 Y136.544 E0.06240
G1 X97.893 Y134.615 E0.06248
G1 X97.205 Y132.742 E0.06254
G1 X96.332 Y130.945 E0.06265
G1 X95.281 Y129.241 E0.06279
G1 X94.065 Y127.644 E0.06293
G1 X92.693 Y126.172 E0.06307
G1 X91.181 Y124.839 E0.06322
G1 X89.543 Y123.656 E0.06335
G1 X87.793 Y122.636 E0.06352
G1 X85.950 Y121.787 E0.06362
G1 X84.029 Y121.119 E0.06376
G1 X82.052 Y120.637 E0.06381
G1 X80.097 Y120.355 E0.06192
G1 X80.097 Y107.593 E0.40014
M204 S1000
G1 X79.720 Y107.156 F10800.000
M204 S500
G1 F1200.000
G1 X93.294 Y107.156 E0.42559
G1 X93.480 Y108.378 E0.03876
G1 X93.967 Y110.271 E0.06129
G1 X94.642 Y112.108 E0.06135
G1 X95.499 Y113.871 E0.06146
G1 X96.530 Y115.543 E0.06160
G1 X97.724 Y117.111 E0.06179
G1 X99.070 Y118.555 E0.06190
G1 X100.554 Y119.864 E0.06204
G1 X102.163 Y121.025 E0.06223
G1 X103.881 Y122.027 E0.06234
G1 X105.692 Y122.861 E0.06251
G1 X107.577 Y123.517 E0.06259
G1 X109.519 Y123.990 E0.06268
G1 X111.500 Y124.276 E0.06275
G1 X113.489 Y124.371 E0.06245
G1 X136.511 Y124.371 E0.72183
G1 X138.500 Y124.276 E0.06245
G1 X140.481 Y123.990 E0.06275
G1 X142.423 Y123.517 E0.06268
G1 X144.308 Y122.861 E0.06259
G1 X146.119 Y122.027 E0.06251
G1 X147.837 Y121.025 E0.06234
G1 X149.446 Y119.864 E0.06223
G1 X150.930 Y118.555 E0.06204
G1 X152.276 Y117.111 E0.06190
G1 X153.470 Y115.543 E0.06179
G1 X154.501 Y113.871 E0.06160
G1 X155.358 Y112.108 E0.06146
G1 X156.033 Y110.271 E0.06135
G1 X156.520 Y108.378 E0.06129
G1 X156.707 Y107.156 E0.03876
G1 X170.280 Y107.156 E0.42559
G1 X170.280 Y120.709 E0.42494
G1 X170.000 Y120.722 E0.00880
G1 X168.020 Y121.008 E0.06272
G1 X166.078 Y121.481 E0.06268
G1 X164.192 Y122.137 E0.06262
G1 X162.382 Y122.971 E0.06248
G1 X160.663 Y123.973 E0.06237
G1 X159.055 Y125.134 E0.06220
G1 X157.570 Y126.443 E0.06206
G1 X156.224 Y127.887 E0.06190
G1 X155.031 Y129.455 E0.06177
G1 X153.999 Y131.127 E0.06161
G1 X153.142 Y132.890 E0.06146
G1 X152.467 Y134.727 E0.06135
G1 X151.980 Y136.620 E0.06129
G1 X151.686 Y138.550 E0.06121
G1 X151.586 Y140.499 E0.06120
G1 X151.686 Y142.448 E0.06120
G1 X151.980 Y144.378 E0.06121
G1 X152.467 Y146.271 E0.06129
G1 X153.142 Y148.108 E0.06135
G1 X153.999 Y149.871 E0.06146
G1 X155.031 Y151.543 E0.06161
G1 X156.224 Y153.111 E0.06177
G1 X157.570 Y154.555 E0.06190
G1 X159.055 Y155.864 E0.06206
G1 X160.663 Y157.025 E0.06220
G1 X162.382 Y158.027 E0.06237
G1 X164.192 Y158.861 E0.06248
G1 X166.078 Y159.517 E0.06262
G1 X168.020 Y159.990 E0.06268
G1 X170.000 Y160.276 E0.06272
G1 X170.280 Y160.289 E0.00880
G1 X170.280 Y173.842 E0.42494
G1 X156.828 Y173.842 E0.42179
G1 X156.814 Y173.577 E0.00832
G1 X156.520 Y171.647 E0.06121
G1 X156.033 Y169.755 E0.06126
G1 X155.358 Y167.917 E0.06138
G1 X154.501 Y166.154 E0.06146
G1 X153.470 Y164.482 E0.06160
G1 X152.276 Y162.914 E0.06179
G1 X150.930 Y161.470 E0.06190
G1 X149.446 Y160.161 E0.06204
G1 X147.837 Y159.000 E0.06223
G1 X146.119 Y157.998 E0.06234
G1 X144.308 Y157.165 E0.06249
G1 X142.423 Y156.508 E0.06259
G1 X140.481 Y156.035 E0.06268
G1 X138.500 Y155.749 E0.06275
G1 X136.511 Y155.654 E0.06245
M73 Q1 S98
G1 X113.489 Y155.654 E0.72183
M73 P1 R96
G1 X111.500 Y155.749 E0.06245
G1 X109.519 Y156.035 E0.06275
G1 X107.577 Y156.508 E0.06268
G1 X105.692 Y157.165 E0.06259
G1 X103.881 Y157.998 E0.06249
G1 X102.163 Y159.000 E0.06234
G1 X100.554 Y160.161 E0.06223
G1 X99.070 Y161.470 E0.06204
G1 X97.724 Y162.914 E0.06190
G1 X96.530 Y164.482 E0.06179
G1 X95.499 Y166.154 E0.06160
G1 X94.642 Y167.917 E0.06146
G1 X93.967 Y169.755 E0.06138
G1 X93.480 Y171.647 E0.06126
G1 X93.186 Y173.577 E0.06121
G1 X93.172 Y173.842 E0.00832
G1 X79.720 Y173.842 E0.42179
G1 X79.720 Y160.289 E0.42494
G1 X80.000 Y160.276 E0.00880
G1 X81.980 Y159.990 E0.06272
G1 X83.922 Y159.517 E0.06268
G1 X85.808 Y158.861 E0.06262
G1 X87.618 Y158.027 E0.06248
G1 X89.337 Y157.025 E0.06237
G1 X90.945 Y155.864 E0.06220
G1 X92.430 Y154.555 E0.06206
G1 X93.776 Y153.111 E0.06190
G1 X94.969 Y151.543 E0.06177
G1 X96.001 Y149.871 E0.06161
G1 X96.858 Y148.108 E0.06146
G1 X97.533 Y146.271 E0.06135
G1 X98.020 Y144.378 E0.06129
G1 X98.314 Y142.448 E0.06121
G1 X98.413 Y140.499 E0.06120
G1 X98.314 Y138.550 E0.06120
G1 X98.020 Y136.620 E0.06121
G1 X97.533 Y134.727 E0.06129
G1 X96.858 Y132.890 E0.06135
G1 X96.001 Y131.127 E0.06146
G1 X94.969 Y129.455 E0.06161
G1 X93.776 Y127.887 E0.06177
G1 X92.430 Y126.443 E0.06190
G1 X90.945 Y125.134 E0.06206
G1 X89.337 Y123.973 E0.06220
G1 X87.618 Y122.971 E0.06237
G1 X85.808 Y122.137 E0.06248
G1 X83.922 Y121.481 E0.06262
G1 X81.980 Y121.008 E0.06268
G1 X80.000 Y120.722 E0.06272
G1 X79.720 Y120.709 E0.00880
G1 X79.720 Y107.216 E0.42305
M204 S1000
G1 X80.068 Y107.354 F10800.000
G1 F8640.000
G1 X83.011 Y107.202 E-0.76000
G1 E-0.04000 F2100.00000
G1 Z0.800 F10800.000
G1 X80.822 Y120.346
G1 Z0.200
G1 E0.80000 F2100.00000
M204 S500
G1 F1200.000
G1 X80.380 Y119.904 E0.01963
G1 X80.380 Y119.370 E0.01676
G1 X81.245 Y120.235 E0.03843
G1 X81.869 Y120.325 E0.01979
G1 X80.380 Y118.836 E0.06613
G1 X80.380 Y118.302 E0.01676
G1 X82.544 Y120.466 E0.09609
G1 X83.250 Y120.638 E0.02281
G1 X80.380 Y117.768 E0.12742
G1 X80.380 Y117.234 E0.01676
G1 X83.956 Y120.810 E0.15876
G1 X84.750 Y121.071 E0.02623
G1 X80.380 Y116.700 E0.19401
G1 X80.380 Y116.166 E0.01676
G1 X85.569 Y121.355 E0.23035
G1 X86.055 Y121.525 E0.01618
G1 X86.457 Y121.709 E0.01386
G1 X80.380 Y115.632 E0.26977
G1 X80.380 Y115.099 E0.01676
G1 X87.446 Y122.165 E0.31370
G1 X87.923 Y122.385 E0.01649
G1 X88.587 Y122.772 E0.02410
G1 X80.380 Y114.565 E0.36433
G1 X80.380 Y114.031 E0.01676
G1 X90.706 Y124.357 E0.45839
M204 S1000
G1 F8640.000
G1 X88.378 Y122.029 E-0.76000
G1 E-0.04000 F2100.00000
G1 Z0.800 F10800.000
G1 X101.072 Y120.842
G1 Z0.200
G1 E0.80000 F2100.00000
M204 S500
G1 F1200.000
G1 X135.224 Y154.994 E1.51609
G1 X135.758 Y154.994 E0.01676
G1 X103.099 Y122.335 E1.44983
G1 X103.576 Y122.613 E0.01733
G1 X104.197 Y122.899 E0.02147
G1 X136.292 Y154.994 E1.42478
G1 X136.841 Y155.009 E0.01724
G1 X105.186 Y123.354 E1.40524
G1 X105.445 Y123.473 E0.00894
G1 X106.049 Y123.684 E0.02010
G1 X137.402 Y155.036 E1.39181
G1 X137.962 Y155.063 E0.01762
G1 X106.868 Y123.969 E1.38035
G1 X107.390 Y124.150 E0.01734
G1 X107.646 Y124.213 E0.00827
G1 X138.523 Y155.090 E1.37072
G1 X139.142 Y155.175 E0.01962
G1 X108.352 Y124.385 E1.36688
G1 X109.058 Y124.557 E0.02281
G1 X139.766 Y155.265 E1.36323
G1 X140.390 Y155.355 E0.01978
G1 X109.721 Y124.686 E1.36150
G1 X110.344 Y124.776 E0.01978
G1 X141.068 Y155.499 E1.36388
G1 X141.773 Y155.671 E0.02281
G1 X110.968 Y124.866 E1.36752
G1 X111.576 Y124.940 E0.01923
G1 X142.479 Y155.843 E1.37186
G1 X143.278 Y156.107 E0.02640
G1 X112.137 Y124.967 E1.38241
G1 X112.698 Y124.994 E0.01762
G1 X144.097 Y156.393 E1.39389
G1 X144.555 Y156.553 E0.01523
G1 X144.991 Y156.753 E0.01505
G1 X113.259 Y125.021 E1.40868
G1 X113.803 Y125.031 E0.01708
G1 X145.979 Y157.207 E1.42839
G1 X146.424 Y157.412 E0.01538
G1 X147.129 Y157.823 E0.02560
G1 X114.337 Y125.031 E1.45572
G1 X114.871 Y125.031 E0.01676
G1 X149.268 Y159.428 E1.52699
M204 S1000
G1 F8640.000
G1 X146.941 Y157.101 E-0.76000
G1 E-0.04000 F2100.00000
G1 Z0.800 F10800.000
G1 X157.172 Y172.671
G1 Z0.200
G1 E0.80000 F2100.00000
M204 S500
G1 F1200.000
G1 X157.683 Y173.182 E0.02267
G1 X158.217 Y173.182 E0.01676
G1 X157.279 Y172.244 E0.04164
G1 X157.183 Y171.614 E0.02000
G1 X158.751 Y173.182 E0.06960
G1 X159.284 Y173.182 E0.01676
G1 X157.012 Y170.909 E0.10090
G1 X156.826 Y170.190 E0.02331
G1 X159.818 Y173.182 E0.13282
G1 X160.352 Y173.182 E0.01676
G1 X156.626 Y169.456 E0.16542
G1 X156.316 Y168.612 E0.02822
G1 X160.886 Y173.182 E0.20289
G1 X161.420 Y173.182 E0.01676
G1 X156.006 Y167.768 E0.24036
G1 X155.526 Y166.754 E0.03521
G1 X161.954 Y173.182 E0.28536
G1 X162.488 Y173.182 E0.01676
G1 X154.980 Y165.674 E0.33330
M73 Q2 S97
G1 X154.123 Y164.284 E0.05126
G1 X163.022 Y173.182 E0.39502
G1 X163.556 Y173.182 E0.01676
G1 X115.405 Y125.031 E2.13755
M73 P2 R95
G1 X115.938 Y125.031 E0.01676
G1 X164.089 Y173.182 E2.13755
G1 X164.623 Y173.182 E0.01676
G1 X116.472 Y125.031 E2.13755
G1 X117.006 Y125.031 E0.01676
G1 X165.157 Y173.182 E2.13755
G1 X165.691 Y173.182 E0.01676
G1 X117.540 Y125.031 E2.13755
G1 X118.074 Y125.031 E0.01676
G1 X166.225 Y173.182 E2.13755
G1 X166.759 Y173.182 E0.01676
G1 X118.608 Y125.031 E2.13755
G1 X119.142 Y125.031 E0.01676
G1 X167.293 Y173.182 E2.13755
G1 X167.827 Y173.182 E0.01676
G1 X119.676 Y125.031 E2.13755
G1 X120.210 Y125.031 E0.01676
G1 X168.361 Y173.182 E2.13755
G1 X168.894 Y173.182 E0.01676
G1 X120.743 Y125.031 E2.13755
G1 X121.277 Y125.031 E0.01676
G1 X169.428 Y173.182 E2.13755
G1 X169.620 Y173.182 E0.00603
G1 X169.620 Y172.840 E0.01073
G1 X121.811 Y125.031 E2.12237
G1 X122.345 Y125.031 E0.01676
G1 X169.620 Y172.306 E2.09867
G1 X169.620 Y171.772 E0.01676
G1 X122.879 Y125.031 E2.07497
G1 X123.413 Y125.031 E0.01676
G1 X169.620 Y171.238 E2.05127
G1 X169.620 Y170.704 E0.01676
G1 X123.947 Y125.031 E2.02757
G1 X124.481 Y125.031 E0.01676
G1 X169.620 Y170.171 E2.00387
M73 Q3 S96
G1 X169.620 Y169.637 E0.01676
G1 X125.015 Y125.031 E1.98017
M73 P3 R94
G1 X125.548 Y125.031 E0.01676
G1 X169.620 Y169.103 E1.95647
G1 X169.620 Y168.569 E0.01676
G1 X126.082 Y125.031 E1.93277
G1 X126.616 Y125.031 E0.01676
G1 X169.790 Y168.205 E1.91660
M204 S1000
G1 F8640.000
G1 X167.463 Y165.877 E-0.76000
G1 E-0.04000 F2100.00000
G1 Z0.800 F10800.000
G1 X169.790 Y161.264
G1 Z0.200
G1 E0.80000 F2100.00000
M204 S500
G1 F1200.000
G1 X169.378 Y160.853 E0.01827
G1 X168.755 Y160.763 E0.01979
G1 X169.620 Y161.628 E0.03843
G1 X169.620 Y162.162 E0.01676
G1 X168.131 Y160.673 E0.06613
G1 X167.895 Y160.639 E0.00749
G1 X167.456 Y160.532 E0.01417
G1 X169.620 Y162.696 E0.09609
G1 X169.620 Y163.230 E0.01676
G1 X166.750 Y160.360 E0.12742
G1 X166.044 Y160.188 E0.02281
G1 X169.620 Y163.764 E0.15876
G1 X169.620 Y164.298 E0.01676
G1 X165.250 Y159.927 E0.19401
G1 X164.431 Y159.643 E0.02720
G1 X169.620 Y164.832 E0.23035
G1 X169.620 Y165.366 E0.01676
G1 X163.543 Y159.289 E0.26977
G1 X162.554 Y158.833 E0.03420
G1 X169.620 Y165.899 E0.31370
G1 X169.620 Y166.433 E0.01676
