; generated by PrusaSlicer 2.2.0+ on 2020-11-08 at 16:09:15 UTC

; 

; external perimeters extrusion width = 0.60mm
; perimeters extrusion width = 0.50mm
; infill extrusion width = 0.50mm
; solid infill extrusion width = 0.50mm
; top infill extrusion width = 0.45mm
; first layer extrusion width = 0.42mm

M73 P0 R90
M73 Q0 S92
M201 X1000 Y1000 Z200 E5000 ; sets maximum accelerations, mm/sec^2
M203 X200 Y200 Z12 E120 ; sets maximum feedrates, mm/sec
M204 P1250 R1250 T1250 ; sets acceleration (P, T) and retract acceleration (R), mm/sec^2
M205 X8.00 Y8.00 Z0.40 E4.50 ; sets the jerk limits, mm/sec
M205 S0 T0 ; sets the minimum extruding and travel feed rate, mm/sec
M107
M862.3 P "MK3S" ; printer model check
M862.1 P0.4 ; nozzle diameter check
M115 U3.9.0 ; tell printer latest fw version
G90 ; use absolute coordinates
M83 ; extruder relative mode
M104 S230 ; set extruder temp
M140 S60 ; set bed temp
M190 S60 ; wait for bed temp
M109 S230 ; wait for extruder temp
G28 W ; home all without mesh bed level
G80 ; mesh bed leveling
G1 Y-3.0 F1000.0 ; go outside print area
G92 E0.0
G1 X60.0 E9.0 F1000.0 ; intro line
M73 Q0 S92
M73 P0 R90
G1 X100.0 E12.5 F1000.0 ; intro line
G92 E0.0
M221 S95
G21 ; set units to millimeters
G90 ; use absolute coordinates
M83 ; use relative distances for extrusion
M900 K0.06 ; Filament gcode LA 1.5
M900 K30 ; Filament gcode LA 1.0
;BEFORE_LAYER_CHANGE
G92 E0.0
;0.2


G1 E-0.80000 F2100.00000
G1 Z0.600 F10800.000
;AFTER_LAYER_CHANGE
;0.2
G1 X77.631 Y68.116
G1 Z0.200
G1 E0.80000 F2100.00000
M204 S500
G1 F1200.000
G1 X78.390 Y67.987 E0.02414
G1 X171.601 Y67.987 E2.92258
G1 X172.500 Y68.165 E0.02872
G1 X173.262 Y68.667 E0.02860
G1 X173.780 Y69.422 E0.02872
G1 X173.974 Y70.318 E0.02872
G1 X173.974 Y139.666 E2.17437
G1 X173.907 Y140.198 E0.01680
G1 X173.723 Y140.701 E0.01680
G1 X173.432 Y141.147 E0.01669
G1 X173.047 Y141.520 E0.01680
G1 X172.369 Y141.884 E0.02414
G1 X171.610 Y142.013 E0.02414
G1 X78.391 Y142.013 E2.92282
G1 X77.855 Y141.949 E0.01692
G1 X77.347 Y141.766 E0.01692
G1 X76.894 Y141.473 E0.01692
G1 X76.518 Y141.085 E0.01692
G1 X76.154 Y140.407 E0.02414
G1 X76.025 Y139.652 E0.02402
G1 X76.025 Y70.349 E2.17294
G1 X76.090 Y69.813 E0.01692
G1 X76.274 Y69.306 E0.01692
G1 X76.565 Y68.856 E0.01680
G1 X76.953 Y68.480 E0.01692
G1 X77.578 Y68.144 E0.02226
M204 S1000
G1 F8640.000
G1 X78.390 Y67.987 E-0.19093
G1 X80.854 Y67.987 E-0.56907
G1 E-0.04000 F2100.00000
G1 Z0.800 F10800.000
G1 X80.096 Y72.034
G1 Z0.200
G1 E0.80000 F2100.00000
M204 S500
G1 F1200.000
G1 X92.821 Y72.034 E0.39898
G1 X93.110 Y73.928 E0.06008
G1 X93.607 Y75.856 E0.06244
G1 X94.295 Y77.730 E0.06257
G1 X95.168 Y79.526 E0.06264
G1 X96.218 Y81.231 E0.06278
G1 X97.436 Y82.828 E0.06296
G1 X98.806 Y84.300 E0.06306
G1 X100.318 Y85.633 E0.06320
G1 X101.957 Y86.816 E0.06338
G1 X103.706 Y87.836 E0.06349
G1 X105.550 Y88.684 E0.06363
G1 X107.470 Y89.353 E0.06373
G1 X109.447 Y89.835 E0.06382
G1 X111.464 Y90.125 E0.06388
G1 X113.480 Y90.222 E0.06329
G1 X136.520 Y90.222 E0.72239
G1 X138.536 Y90.125 E0.06329
G1 X140.553 Y89.835 E0.06388
G1 X142.530 Y89.353 E0.06382
G1 X144.450 Y88.684 E0.06373
G1 X146.294 Y87.836 E0.06363
G1 X148.043 Y86.816 E0.06349
G1 X149.682 Y85.633 E0.06338
G1 X151.194 Y84.300 E0.06320
G1 X152.564 Y82.828 E0.06306
G1 X153.782 Y81.231 E0.06296
G1 X154.832 Y79.526 E0.06278
G1 X155.705 Y77.730 E0.06264
G1 X156.393 Y75.856 E0.06257
G1 X156.890 Y73.928 E0.06244
G1 X157.179 Y72.034 E0.06008
G1 X169.904 Y72.034 E0.39898
G1 X169.904 Y84.856 E0.40205
G1 X167.948 Y85.138 E0.06195
G1 X165.971 Y85.620 E0.06381
G1 X164.050 Y86.288 E0.06376
G1 X162.207 Y87.137 E0.06362
G1 X160.457 Y88.157 E0.06352
G1 X158.819 Y89.340 E0.06335
G1 X157.307 Y90.673 E0.06322
G1 X155.935 Y92.145 E0.06307
G1 X154.719 Y93.742 E0.06293
G1 X153.668 Y95.446 E0.06279
G1 X152.795 Y97.243 E0.06265
G1 X152.107 Y99.116 E0.06254
G1 X151.610 Y101.045 E0.06248
G1 X151.310 Y103.013 E0.06240
G1 X151.210 Y105.000 E0.06239
G1 X151.310 Y106.987 E0.06239
G1 X151.610 Y108.955 E0.06240
G1 X152.107 Y110.884 E0.06248
G1 X152.795 Y112.757 E0.06254
G1 X153.668 Y114.554 E0.06265
G1 X154.719 Y116.258 E0.06279
G1 X155.935 Y117.855 E0.06293
G1 X157.307 Y119.327 E0.06307
G1 X158.819 Y120.660 E0.06322
G1 X160.457 Y121.843 E0.06335
G1 X162.207 Y122.863 E0.06352
G1 X164.050 Y123.712 E0.06362
G1 X165.971 Y124.380 E0.06376
G1 X167.948 Y124.862 E0.06381
G1 X169.904 Y125.144 E0.06195
G1 X169.904 Y137.966 E0.40205
G1 X157.031 Y137.966 E0.40364
G1 X156.890 Y137.045 E0.02922
G1 X156.393 Y135.116 E0.06248
G1 X155.705 Y133.243 E0.06254
G1 X154.832 Y131.447 E0.06264
G1 X153.782 Y129.742 E0.06278
G1 X152.564 Y128.145 E0.06296
G1 X151.194 Y126.673 E0.06306
G1 X149.682 Y125.340 E0.06320
G1 X148.043 Y124.157 E0.06338
G1 X146.294 Y123.137 E0.06349
G1 X144.450 Y122.288 E0.06365
G1 X142.530 Y121.620 E0.06372
G1 X140.553 Y121.138 E0.06381
G1 X138.536 Y120.848 E0.06388
G1 X136.520 Y120.751 E0.06329
G1 X113.480 Y120.751 E0.72239
G1 X111.464 Y120.848 E0.06329
G1 X109.447 Y121.138 E0.06388
G1 X107.470 Y121.620 E0.06381
G1 X105.550 Y122.288 E0.06372
G1 X103.706 Y123.137 E0.06365
G1 X101.957 Y124.157 E0.06349
G1 X100.318 Y125.340 E0.06338
G1 X98.806 Y126.673 E0.06320
G1 X97.436 Y128.145 E0.06306
G1 X96.218 Y129.742 E0.06296
G1 X95.168 Y131.447 E0.06278
G1 X94.295 Y133.243 E0.06264
G1 X93.607 Y135.116 E0.06254
G1 X93.110 Y137.045 E0.06248
G1 X92.969 Y137.966 E0.02922
G1 X80.096 Y137.966 E0.40364
G1 X80.096 Y125.144 E0.40205
G1 X82.052 Y124.862 E0.06195
G1 X84.029 Y124.380 E0.06381
G1 X85.950 Y123.712 E0.06376
G1 X87.793 Y122.863 E0.06362
G1 X89.543 Y121.843 E0.06352
G1 X91.181 Y120.660 E0.06335
G1 X92.693 Y119.327 E0.06322
G1 X94.065 Y117.855 E0.06307
G1 X95.281 Y116.258 E0.06293
G1 X96.332 Y114.554 E0.06279
G1 X97.205 Y112.757 E0.06265
G1 X97.893 Y110.884 E0.06254
G1 X98.390 Y108.955 E0.06248
G1 X98.690 Y106.987 E0.06240
G1 X98.790 Y105.000 E0.06239
G1 X98.690 Y103.013 E0.06239
G1 X98.390 Y101.045 E0.06240
G1 X97.893 Y99.116 E0.06248
G1 X97.205 Y97.243 E0.06254
G1 X96.332 Y95.446 E0.06265
G1 X95.281 Y93.742 E0.06279
G1 X94.065 Y92.145 E0.06293
G1 X92.693 Y90.673 E0.06307
G1 X91.181 Y89.340 E0.06322
G1 X89.543 Y88.157 E0.06335
G1 X87.793 Y87.137 E0.06352
G1 X85.950 Y86.288 E0.06362
G1 X84.029 Y85.620 E0.06376
G1 X82.052 Y85.138 E0.06381
G1 X80.096 Y84.856 E0.06195
G1 X80.096 Y72.094 E0.40017
M204 S1000
G1 X79.719 Y71.656 F10800.000
M204 S500
G1 F1200.000
G1 X93.172 Y71.656 E0.42181
G1 X93.186 Y71.922 E0.00835
G1 X93.480 Y73.852 E0.06121
G1 X93.967 Y75.744 E0.06126
G1 X94.642 Y77.582 E0.06138
G1 X95.499 Y79.345 E0.06146
G1 X96.530 Y81.017 E0.06160
G1 X97.724 Y82.585 E0.06179
G1 X99.070 Y84.029 E0.06190
G1 X100.554 Y85.338 E0.06204
G1 X102.163 Y86.499 E0.06223
G1 X103.881 Y87.501 E0.06234
G1 X105.692 Y88.334 E0.06249
G1 X107.577 Y88.991 E0.06259
G1 X109.519 Y89.464 E0.06268
G1 X111.500 Y89.750 E0.06275
G1 X113.489 Y89.845 E0.06245
G1 X136.511 Y89.845 E0.72183
G1 X138.500 Y89.750 E0.06245
G1 X140.481 Y89.464 E0.06275
G1 X142.423 Y88.991 E0.06268
G1 X144.308 Y88.334 E0.06259
G1 X146.119 Y87.501 E0.06249
G1 X147.837 Y86.499 E0.06234
G1 X149.446 Y85.338 E0.06223
G1 X150.930 Y84.029 E0.06204
G1 X152.276 Y82.585 E0.06190
G1 X153.470 Y81.017 E0.06179
G1 X154.501 Y79.345 E0.06160
G1 X155.358 Y77.582 E0.06146
G1 X156.033 Y75.744 E0.06138
G1 X156.520 Y73.852 E0.06126
G1 X156.814 Y71.922 E0.06121
G1 X156.828 Y71.656 E0.00835
G1 X170.281 Y71.656 E0.42182
G1 X170.281 Y85.210 E0.42496
G1 X170.000 Y85.223 E0.00883
G1 X168.020 Y85.509 E0.06272
G1 X166.078 Y85.982 E0.06268
G1 X164.192 Y86.638 E0.06262
G1 X162.382 Y87.472 E0.06248
G1 X160.663 Y88.474 E0.06237
G1 X159.055 Y89.635 E0.06220
G1 X157.570 Y90.944 E0.06206
G1 X156.224 Y92.388 E0.06190
G1 X155.031 Y93.956 E0.06177
G1 X153.999 Y95.628 E0.06161
G1 X153.142 Y97.391 E0.06146
G1 X152.467 Y99.228 E0.06135
G1 X151.980 Y101.121 E0.06129
G1 X151.686 Y103.051 E0.06121
G1 X151.587 Y105.000 E0.06120
G1 X151.686 Y106.949 E0.06120
G1 X151.980 Y108.879 E0.06121
G1 X152.467 Y110.772 E0.06129
G1 X153.142 Y112.609 E0.06135
G1 X153.999 Y114.372 E0.06146
G1 X155.031 Y116.044 E0.06161
G1 X156.224 Y117.612 E0.06177
G1 X157.570 Y119.056 E0.06190
G1 X159.055 Y120.365 E0.06206
G1 X160.663 Y121.526 E0.06220
G1 X162.382 Y122.528 E0.06237
G1 X164.192 Y123.362 E0.06248
G1 X166.078 Y124.018 E0.06262
G1 X168.020 Y124.491 E0.06268
G1 X170.000 Y124.777 E0.06272
G1 X170.281 Y124.790 E0.00883
G1 X170.281 Y138.344 E0.42496
G1 X156.707 Y138.344 E0.42562
G1 X156.520 Y137.121 E0.03878
G1 X156.033 Y135.228 E0.06129
G1 X155.358 Y133.391 E0.06135
G1 X154.501 Y131.628 E0.06146
G1 X153.470 Y129.956 E0.06160
G1 X152.276 Y128.388 E0.06179
G1 X150.930 Y126.944 E0.06190
G1 X149.446 Y125.635 E0.06204
G1 X147.837 Y124.474 E0.06223
G1 X146.119 Y123.472 E0.06234
G1 X144.308 Y122.638 E0.06251
G1 X142.423 Y121.982 E0.06259
G1 X140.481 Y121.509 E0.06268
G1 X138.500 Y121.223 E0.06275
G1 X136.511 Y121.128 E0.06245
G1 X113.489 Y121.128 E0.72183
G1 X111.500 Y121.223 E0.06245
G1 X109.519 Y121.509 E0.06275
G1 X107.577 Y121.982 E0.06268
G1 X105.692 Y122.638 E0.06259
G1 X103.881 Y123.472 E0.06251
G1 X102.163 Y124.474 E0.06234
G1 X100.554 Y125.635 E0.06223
G1 X99.070 Y126.944 E0.06204
G1 X97.724 Y128.388 E0.06190
G1 X96.530 Y129.956 E0.06179
G1 X95.499 Y131.628 E0.06160
G1 X94.642 Y133.391 E0.06146
G1 X93.967 Y135.228 E0.06135
G1 X93.480 Y137.121 E0.06129
G1 X93.293 Y138.344 E0.03878
G1 X79.719 Y138.344 E0.42562
G1 X79.719 Y124.790 E0.42496
G1 X80.000 Y124.777 E0.00883
G1 X81.980 Y124.491 E0.06272
G1 X83.922 Y124.018 E0.06268
G1 X85.808 Y123.362 E0.06262
G1 X87.618 Y122.528 E0.06248
G1 X89.337 Y121.526 E0.06237
G1 X90.945 Y120.365 E0.06220
G1 X92.430 Y119.056 E0.06206
G1 X93.776 Y117.612 E0.06190
G1 X94.969 Y116.044 E0.06177
G1 X96.001 Y114.372 E0.06161
G1 X96.858 Y112.609 E0.06146
G1 X97.533 Y110.772 E0.06135
G1 X98.020 Y108.879 E0.06129
G1 X98.314 Y106.949 E0.06121
G1 X98.413 Y105.000 E0.06120
G1 X98.314 Y103.051 E0.06120
G1 X98.020 Y101.121 E0.06121
G1 X97.533 Y99.228 E0.06129
G1 X96.858 Y97.391 E0.06135
G1 X96.001 Y95.628 E0.06146
G1 X94.969 Y93.956 E0.06161
G1 X93.776 Y92.388 E0.06177
G1 X92.430 Y90.944 E0.06190
G1 X90.945 Y89.635 E0.06206
G1 X89.337 Y88.474 E0.06220
G1 X87.618 Y87.472 E0.06237
G1 X85.808 Y86.638 E0.06248
G1 X83.922 Y85.982 E0.06262
G1 X81.980 Y85.509 E0.06268
G1 X80.000 Y85.223 E0.06272
G1 X79.719 Y85.210 E0.00883
G1 X79.719 Y71.716 E0.42308
M73 Q1 S91
M73 P1 R89
M204 S1000
G1 X80.067 Y71.854 F10800.000
G1 F8640.000
G1 X83.010 Y71.702 E-0.76000
G1 E-0.04000 F2100.00000
G1 Z0.800 F10800.000
G1 X92.828 Y72.828
G1 Z0.200
G1 E0.80000 F2100.00000
M204 S500
G1 F1200.000
G1 X92.316 Y72.316 E0.02270
G1 X91.782 Y72.316 E0.01676
G1 X92.721 Y73.255 E0.04168
G1 X92.817 Y73.885 E0.02000
G1 X91.249 Y72.316 E0.06964
G1 X90.715 Y72.316 E0.01676
G1 X92.988 Y74.590 E0.10094
G1 X93.174 Y75.309 E0.02331
G1 X90.181 Y72.316 E0.13286
G1 X89.647 Y72.316 E0.01676
G1 X93.374 Y76.043 E0.16546
G1 X93.684 Y76.887 E0.02823
G1 X89.113 Y72.316 E0.20293
G1 X88.579 Y72.316 E0.01676
G1 X93.994 Y77.731 E0.24040
G1 X94.474 Y78.745 E0.03521
G1 X88.045 Y72.316 E0.28540
G1 X87.511 Y72.316 E0.01676
G1 X95.020 Y79.825 E0.33335
G1 X95.877 Y81.215 E0.05126
G1 X86.977 Y72.316 E0.39507
G1 X86.444 Y72.316 E0.01676
G1 X134.595 Y120.468 E2.13763
G1 X134.061 Y120.468 E0.01676
G1 X85.910 Y72.316 E2.13763
G1 X85.376 Y72.316 E0.01676
G1 X133.528 Y120.468 E2.13763
G1 X132.994 Y120.468 E0.01676
G1 X84.842 Y72.316 E2.13763
G1 X84.308 Y72.316 E0.01676
G1 X132.460 Y120.468 E2.13763
G1 X131.926 Y120.468 E0.01676
G1 X83.774 Y72.316 E2.13763
G1 X83.240 Y72.316 E0.01676
G1 X131.392 Y120.468 E2.13763
G1 X130.858 Y120.468 E0.01676
G1 X82.706 Y72.316 E2.13763
G1 X82.172 Y72.316 E0.01676
G1 X130.324 Y120.468 E2.13763
G1 X129.790 Y120.468 E0.01676
G1 X81.638 Y72.316 E2.13763
G1 X81.105 Y72.316 E0.01676
G1 X129.256 Y120.468 E2.13763
G1 X128.722 Y120.468 E0.01676
G1 X80.571 Y72.316 E2.13763
G1 X80.379 Y72.316 E0.00602
G1 X80.379 Y72.658 E0.01074
G1 X128.189 Y120.468 E2.12245
G1 X127.655 Y120.468 E0.01676
G1 X80.379 Y73.192 E2.09874
G1 X80.379 Y73.726 E0.01676
G1 X127.121 Y120.468 E2.07504
G1 X126.587 Y120.468 E0.01676
G1 X80.379 Y74.260 E2.05134
G1 X80.379 Y74.794 E0.01676
G1 X126.053 Y120.468 E2.02764
M73 Q2 S90
M73 P2 R88
G1 X125.519 Y120.468 E0.01676
G1 X80.379 Y75.328 E2.00394
G1 X80.379 Y75.862 E0.01676
G1 X124.985 Y120.468 E1.98024
G1 X124.451 Y120.468 E0.01676
G1 X80.379 Y76.396 E1.95653
G1 X80.379 Y76.930 E0.01676
G1 X123.917 Y120.468 E1.93283
G1 X123.384 Y120.468 E0.01676
G1 X80.379 Y77.463 E1.90913
G1 X80.379 Y77.997 E0.01676
G1 X122.850 Y120.468 E1.88543
G1 X122.316 Y120.468 E0.01676
G1 X95.650 Y93.803 E1.18377
G1 X96.509 Y95.195 E0.05136
G1 X121.782 Y120.468 E1.12195
G1 X121.248 Y120.468 E0.01676
G1 X97.043 Y96.263 E1.07454
G1 X97.466 Y97.133 E0.03034
G1 X97.516 Y97.270 E0.00461
G1 X120.714 Y120.468 E1.02983
G1 X120.180 Y120.468 E0.01676
G1 X97.827 Y98.115 E0.99235
G1 X98.137 Y98.959 E0.02824
G1 X119.646 Y120.468 E0.95487
G1 X119.112 Y120.468 E0.01676
G1 X98.333 Y99.689 E0.92247
G1 X98.518 Y100.408 E0.02331
G1 X118.578 Y120.468 E0.89056
G1 X118.045 Y120.468 E0.01676
G1 X98.686 Y101.110 E0.85940
G1 X98.782 Y101.739 E0.02000
G1 X117.511 Y120.468 E0.83143
G1 X116.977 Y120.468 E0.01676
G1 X98.878 Y102.369 E0.80347
G1 X98.972 Y102.998 E0.01994
G1 X116.443 Y120.468 E0.77557
G1 X115.909 Y120.468 E0.01676
G1 X99.001 Y103.560 E0.75062
G1 X99.029 Y104.122 E0.01767
G1 X115.375 Y120.468 E0.72566
G1 X114.841 Y120.468 E0.01676
G1 X99.057 Y104.684 E0.70070
G1 X99.073 Y105.000 E0.00992
G1 X99.062 Y105.223 E0.00700
G1 X114.307 Y120.468 E0.67679
G1 X113.773 Y120.468 E0.01676
G1 X99.036 Y105.731 E0.65423
G1 X99.011 Y106.239 E0.01598
G1 X113.250 Y120.479 E0.63214
G1 X112.741 Y120.503 E0.01601
G1 X98.985 Y106.748 E0.61065
G1 X98.938 Y107.235 E0.01536
G1 X112.231 Y120.528 E0.59012
G1 X111.722 Y120.552 E0.01601
G1 X98.868 Y107.698 E0.57064
G1 X98.797 Y108.161 E0.01471
G1 X111.231 Y120.595 E0.55199
G1 X110.765 Y120.663 E0.01480
G1 X98.727 Y108.625 E0.53441
G1 X98.650 Y109.081 E0.01454
G1 X110.298 Y120.730 E0.51712
G1 X109.831 Y120.797 E0.01480
G1 X98.540 Y109.506 E0.50126
G1 X98.431 Y109.931 E0.01376
G1 X109.367 Y120.867 E0.48550
G1 X108.938 Y120.971 E0.01387
G1 X98.322 Y110.355 E0.47129
G1 X98.212 Y110.780 E0.01376
G1 X108.509 Y121.076 E0.45709
G1 X108.079 Y121.181 E0.01387
G1 X98.084 Y111.185 E0.44372
G1 X97.941 Y111.576 E0.01306
G1 X107.650 Y121.285 E0.43104
G1 X107.234 Y121.403 E0.01358
G1 X97.797 Y111.966 E0.41893
G1 X97.653 Y112.357 E0.01306
G1 X106.838 Y121.541 E0.40772
G1 X106.442 Y121.679 E0.01316
G1 X97.510 Y112.747 E0.39651
G1 X97.345 Y113.116 E0.01269
G1 X106.046 Y121.816 E0.38625
G1 X105.649 Y121.954 E0.01316
G1 X97.170 Y113.475 E0.37642
G1 X96.996 Y113.834 E0.01254
G1 X105.268 Y122.107 E0.36724
G1 X104.902 Y122.275 E0.01263
G1 X96.821 Y114.194 E0.35876
G1 X96.646 Y114.553 E0.01254
G1 X104.537 Y122.443 E0.35029
M73 Q3 S89
M73 P3 R87
G1 X104.171 Y122.612 E0.01263
G1 X96.454 Y114.894 E0.34260
G1 X96.250 Y115.224 E0.01218
G1 X103.806 Y122.780 E0.33541
G1 X103.451 Y122.959 E0.01248
G1 X96.047 Y115.555 E0.32869
G1 X95.843 Y115.885 E0.01218
G1 X103.113 Y123.155 E0.32276
G1 X102.776 Y123.352 E0.01225
G1 X95.639 Y116.215 E0.31684
G1 X95.425 Y116.535 E0.01208
G1 X102.439 Y123.549 E0.31137
G1 X102.102 Y123.746 E0.01225
G1 X95.194 Y116.838 E0.30665
G1 X94.964 Y117.141 E0.01196
G1 X101.768 Y123.945 E0.30207
G1 X101.458 Y124.169 E0.01200
G1 X94.733 Y117.444 E0.29855
G1 X94.502 Y117.747 E0.01196
G1 X101.148 Y124.393 E0.29503
G1 X100.837 Y124.617 E0.01200
G1 X94.270 Y118.049 E0.29156
G1 X94.012 Y118.326 E0.01186
G1 X100.527 Y124.841 E0.28922
G1 X100.217 Y125.064 E0.01200
G1 X93.755 Y118.602 E0.28688
G1 X93.498 Y118.879 E0.01186
G1 X99.927 Y125.308 E0.28543
G1 X99.643 Y125.558 E0.01187
G1 X93.240 Y119.155 E0.28427
G1 X92.983 Y119.431 E0.01186
G1 X99.360 Y125.808 E0.28310
G1 X99.076 Y126.059 E0.01187
G1 X92.708 Y119.691 E0.28269
G1 X92.424 Y119.941 E0.01187
G1 X98.792 Y126.309 E0.28269
G1 X98.518 Y126.568 E0.01186
G1 X92.140 Y120.191 E0.28311
G1 X91.857 Y120.441 E0.01187
