; generated by PrusaSlicer 2.2.0+ on 2020-11-08 at 16:09:12 UTC

; 

; external perimeters extrusion width = 0.60mm
; perimeters extrusion width = 0.50mm
; infill extrusion width = 0.50mm
; solid infill extrusion width = 0.50mm
; top infill extrusion width = 0.45mm
; first layer extrusion width = 0.42mm

M73 P0 R147
M73 Q0 S148
M201 X1000 Y1000 Z200 E5000 ; sets maximum accelerations, mm/sec^2
M203 X200 Y200 Z12 E120 ; sets maximum feedrates, mm/sec
M204 P1250 R1250 T1250 ; sets acceleration (P, T) and retract acceleration (R), mm/sec^2
M205 X8.00 Y8.00 Z0.40 E4.50 ; sets the jerk limits, mm/sec
M205 S0 T0 ; sets the minimum extruding and travel feed rate, mm/sec
M107
M862.3 P "MK3S" ; printer model check
M862.1 P0.4 ; nozzle diameter check
M115 U3.9.0 ; tell printer latest fw version
G90 ; use absolute coordinates
M83 ; extruder relative mode
M104 S230 ; set extruder temp
M140 S60 ; set bed temp
M190 S60 ; wait for bed temp
M109 S230 ; wait for extruder temp
G28 W ; home all without mesh bed level
G80 ; mesh bed leveling
G1 Y-3.0 F1000.0 ; go outside print area
G92 E0.0
G1 X60.0 E9.0 F1000.0 ; intro line
M73 Q0 S148
M73 P0 R146
G1 X100.0 E12.5 F1000.0 ; intro line
G92 E0.0
M221 S95
G21 ; set units to millimeters
G90 ; use absolute coordinates
M83 ; use relative distances for extrusion
M900 K0.06 ; Filament gcode LA 1.5
M900 K30 ; Filament gcode LA 1.0
;BEFORE_LAYER_CHANGE
G92 E0.0
;0.2


G1 E-0.80000 F2100.00000
G1 Z0.600 F10800.000
;AFTER_LAYER_CHANGE
;0.2
G1 X28.627 Y34.173
G1 Z0.200
G1 E0.80000 F2100.00000
M204 S500
G1 F1200.000
G1 X28.920 Y33.551 E0.02154
G1 X29.295 Y33.112 E0.01811
G1 X29.764 Y32.776 E0.01811
G1 X30.301 Y32.563 E0.01811
G1 X30.874 Y32.487 E0.01811
G1 X219.121 Y32.489 E5.90236
G1 X219.694 Y32.565 E0.01811
G1 X220.227 Y32.776 E0.01799
G1 X220.698 Y33.111 E0.01811
G1 X221.074 Y33.549 E0.01811
G1 X221.369 Y34.174 E0.02166
G1 X221.471 Y34.857 E0.02166
G1 X221.475 Y175.147 E4.39870
G1 X221.402 Y175.724 E0.01823
G1 X221.190 Y176.265 E0.01823
G1 X220.856 Y176.736 E0.01811
G1 X220.415 Y177.115 E0.01823
G1 X219.787 Y177.411 E0.02178
G1 X219.103 Y177.513 E0.02166
G1 X30.898 Y177.511 E5.90105
G1 X30.321 Y177.438 E0.01823
G1 X29.779 Y177.227 E0.01823
G1 X29.305 Y176.891 E0.01823
G1 X28.926 Y176.450 E0.01823
G1 X28.632 Y175.829 E0.02154
G1 X28.529 Y175.146 E0.02166
G1 X28.525 Y34.852 E4.39881
G1 X28.618 Y34.232 E0.01966
M204 S1000
G1 F8640.000
G1 X28.920 Y33.551 E-0.17195
G1 X29.295 Y33.112 E-0.13336
G1 X29.764 Y32.776 E-0.13336
G1 X30.301 Y32.563 E-0.13336
G1 X30.874 Y32.487 E-0.13336
G1 X31.110 Y32.487 E-0.05462
G1 E-0.04000 F2100.00000
G1 Z0.800 F10800.000
G1 X127.599 Y107.535
G1 Z0.200
G1 E0.80000 F2100.00000
M204 S500
G1 F1200.000
G1 X140.472 Y107.535 E0.40361
G1 X140.612 Y108.456 E0.02919
G1 X141.109 Y110.385 E0.06248
G1 X141.797 Y112.258 E0.06254
G1 X142.670 Y114.054 E0.06264
G1 X143.720 Y115.759 E0.06278
G1 X144.938 Y117.356 E0.06296
G1 X146.308 Y118.828 E0.06306
G1 X147.820 Y120.161 E0.06320
G1 X149.459 Y121.344 E0.06338
G1 X151.208 Y122.364 E0.06349
G1 X153.052 Y123.213 E0.06365
G1 X154.972 Y123.881 E0.06373
G1 X156.949 Y124.363 E0.06381
G1 X158.966 Y124.653 E0.06388
G1 X160.982 Y124.750 E0.06329
G1 X184.022 Y124.750 E0.72239
G1 X186.038 Y124.653 E0.06329
G1 X188.055 Y124.363 E0.06388
G1 X190.032 Y123.881 E0.06381
G1 X191.952 Y123.213 E0.06372
G1 X193.796 Y122.364 E0.06365
G1 X195.545 Y121.344 E0.06349
G1 X197.184 Y120.161 E0.06338
G1 X198.696 Y118.828 E0.06320
G1 X200.066 Y117.356 E0.06306
G1 X201.284 Y115.759 E0.06296
G1 X202.334 Y114.054 E0.06278
G1 X203.207 Y112.258 E0.06264
G1 X203.895 Y110.385 E0.06254
G1 X204.392 Y108.456 E0.06248
G1 X204.532 Y107.535 E0.02919
G1 X217.405 Y107.535 E0.40361
G1 X217.405 Y120.357 E0.40203
G1 X215.450 Y120.639 E0.06192
G1 X213.473 Y121.121 E0.06381
G1 X211.552 Y121.789 E0.06376
G1 X209.709 Y122.638 E0.06362
G1 X207.959 Y123.658 E0.06352
G1 X206.321 Y124.841 E0.06335
G1 X204.809 Y126.174 E0.06322
G1 X203.437 Y127.646 E0.06307
G1 X202.221 Y129.243 E0.06293
G1 X201.170 Y130.947 E0.06279
G1 X200.297 Y132.744 E0.06265
G1 X199.609 Y134.617 E0.06254
G1 X199.112 Y136.546 E0.06248
G1 X198.812 Y138.514 E0.06240
G1 X198.712 Y140.501 E0.06239
G1 X198.812 Y142.488 E0.06239
G1 X199.112 Y144.456 E0.06240
G1 X199.609 Y146.385 E0.06248
G1 X200.297 Y148.258 E0.06254
G1 X201.170 Y150.055 E0.06265
G1 X202.221 Y151.759 E0.06279
G1 X203.437 Y153.356 E0.06293
G1 X204.809 Y154.828 E0.06307
G1 X206.321 Y156.161 E0.06322
G1 X207.959 Y157.344 E0.06335
G1 X209.709 Y158.364 E0.06352
G1 X211.552 Y159.213 E0.06362
G1 X213.473 Y159.881 E0.06376
G1 X215.450 Y160.363 E0.06381
G1 X217.405 Y160.645 E0.06192
G1 X217.405 Y173.467 E0.40203
G1 X204.681 Y173.467 E0.39896
G1 X204.392 Y171.573 E0.06006
G1 X203.895 Y169.645 E0.06244
G1 X203.207 Y167.771 E0.06257
G1 X202.334 Y165.975 E0.06264
G1 X201.284 Y164.270 E0.06278
G1 X200.066 Y162.673 E0.06296
G1 X198.696 Y161.201 E0.06306
G1 X197.184 Y159.868 E0.06320
G1 X195.545 Y158.685 E0.06338
G1 X193.796 Y157.665 E0.06349
G1 X191.952 Y156.817 E0.06363
G1 X190.032 Y156.148 E0.06373
G1 X188.055 Y155.666 E0.06382
G1 X186.038 Y155.376 E0.06388
G1 X184.022 Y155.279 E0.06329
G1 X160.982 Y155.279 E0.72239
G1 X158.966 Y155.376 E0.06329
G1 X156.949 Y155.666 E0.06388
G1 X154.972 Y156.148 E0.06382
G1 X153.052 Y156.817 E0.06373
G1 X151.208 Y157.665 E0.06363
G1 X149.459 Y158.685 E0.06349
G1 X147.820 Y159.868 E0.06338
G1 X146.308 Y161.201 E0.06320
G1 X144.938 Y162.673 E0.06306
G1 X143.720 Y164.270 E0.06296
G1 X142.670 Y165.975 E0.06278
G1 X141.797 Y167.771 E0.06264
G1 X141.109 Y169.645 E0.06257
G1 X140.612 Y171.573 E0.06244
G1 X140.323 Y173.467 E0.06006
G1 X127.599 Y173.467 E0.39896
G1 X127.599 Y160.645 E0.40203
G1 X129.554 Y160.363 E0.06192
G1 X131.531 Y159.881 E0.06381
G1 X133.452 Y159.213 E0.06376
G1 X135.295 Y158.364 E0.06362
G1 X137.045 Y157.344 E0.06352
G1 X138.683 Y156.161 E0.06335
G1 X140.195 Y154.828 E0.06322
G1 X141.567 Y153.356 E0.06307
G1 X142.783 Y151.759 E0.06293
G1 X143.834 Y150.055 E0.06279
G1 X144.707 Y148.258 E0.06265
G1 X145.395 Y146.385 E0.06254
G1 X145.892 Y144.456 E0.06248
G1 X146.192 Y142.488 E0.06240
G1 X146.293 Y140.501 E0.06240
G1 X146.192 Y138.514 E0.06240
G1 X145.892 Y136.546 E0.06240
G1 X145.395 Y134.617 E0.06248
G1 X144.707 Y132.744 E0.06254
G1 X143.834 Y130.947 E0.06265
G1 X142.783 Y129.243 E0.06279
G1 X141.567 Y127.646 E0.06293
G1 X140.195 Y126.174 E0.06307
G1 X138.683 Y124.841 E0.06322
G1 X137.045 Y123.658 E0.06335
G1 X135.295 Y122.638 E0.06352
G1 X133.452 Y121.789 E0.06362
G1 X131.531 Y121.121 E0.06376
G1 X129.554 Y120.639 E0.06381
G1 X127.599 Y120.357 E0.06192
G1 X127.599 Y107.595 E0.40014
M204 S1000
G1 X127.222 Y107.158 F10800.000
M204 S500
G1 F1200.000
G1 X140.795 Y107.158 E0.42559
G1 X140.982 Y108.380 E0.03876
G1 X141.469 Y110.273 E0.06129
G1 X142.144 Y112.110 E0.06135
G1 X143.001 Y113.873 E0.06146
G1 X144.032 Y115.545 E0.06160
G1 X145.226 Y117.113 E0.06179
G1 X146.572 Y118.557 E0.06190
G1 X148.056 Y119.866 E0.06204
G1 X149.665 Y121.027 E0.06223
G1 X151.383 Y122.029 E0.06234
G1 X153.194 Y122.863 E0.06251
G1 X155.079 Y123.519 E0.06259
G1 X157.021 Y123.992 E0.06268
M73 Q0 S147
G1 X159.002 Y124.278 E0.06275
G1 X160.991 Y124.373 E0.06245
G1 X184.013 Y124.373 E0.72183
M73 P0 R145
G1 X186.002 Y124.278 E0.06245
G1 X187.983 Y123.992 E0.06275
G1 X189.925 Y123.519 E0.06268
G1 X191.810 Y122.863 E0.06259
G1 X193.621 Y122.029 E0.06251
G1 X195.339 Y121.027 E0.06234
G1 X196.948 Y119.866 E0.06223
G1 X198.432 Y118.557 E0.06204
G1 X199.778 Y117.113 E0.06190
G1 X200.972 Y115.545 E0.06179
G1 X202.003 Y113.873 E0.06160
G1 X202.860 Y112.110 E0.06146
G1 X203.535 Y110.273 E0.06135
G1 X204.022 Y108.380 E0.06129
G1 X204.209 Y107.158 E0.03876
G1 X217.782 Y107.158 E0.42559
G1 X217.782 Y120.711 E0.42494
G1 X217.502 Y120.724 E0.00880
G1 X215.522 Y121.010 E0.06272
G1 X213.580 Y121.483 E0.06268
G1 X211.694 Y122.139 E0.06262
G1 X209.884 Y122.973 E0.06248
G1 X208.165 Y123.975 E0.06237
G1 X206.557 Y125.136 E0.06220
G1 X205.072 Y126.445 E0.06206
G1 X203.726 Y127.889 E0.06190
G1 X202.533 Y129.457 E0.06177
G1 X201.501 Y131.129 E0.06161
G1 X200.644 Y132.892 E0.06146
G1 X199.969 Y134.729 E0.06135
G1 X199.482 Y136.622 E0.06129
G1 X199.188 Y138.552 E0.06121
G1 X199.089 Y140.501 E0.06120
G1 X199.188 Y142.450 E0.06120
G1 X199.482 Y144.380 E0.06121
G1 X199.969 Y146.273 E0.06129
G1 X200.644 Y148.110 E0.06135
G1 X201.501 Y149.873 E0.06146
G1 X202.533 Y151.545 E0.06161
G1 X203.726 Y153.113 E0.06177
G1 X205.072 Y154.557 E0.06190
G1 X206.557 Y155.866 E0.06206
G1 X208.165 Y157.027 E0.06220
G1 X209.884 Y158.029 E0.06237
G1 X211.694 Y158.863 E0.06248
G1 X213.580 Y159.519 E0.06262
G1 X215.522 Y159.992 E0.06268
G1 X217.502 Y160.278 E0.06272
G1 X217.782 Y160.291 E0.00880
G1 X217.782 Y173.844 E0.42494
G1 X204.330 Y173.844 E0.42179
G1 X204.316 Y173.579 E0.00832
G1 X204.022 Y171.649 E0.06121
G1 X203.535 Y169.757 E0.06126
G1 X202.860 Y167.919 E0.06138
G1 X202.003 Y166.156 E0.06146
G1 X200.972 Y164.484 E0.06160
G1 X199.778 Y162.916 E0.06179
G1 X198.432 Y161.472 E0.06190
G1 X196.948 Y160.163 E0.06204
G1 X195.339 Y159.002 E0.06223
G1 X193.621 Y158.000 E0.06234
G1 X191.810 Y157.167 E0.06249
G1 X189.925 Y156.510 E0.06259
G1 X187.983 Y156.037 E0.06268
G1 X186.002 Y155.751 E0.06275
G1 X184.013 Y155.656 E0.06245
G1 X160.991 Y155.656 E0.72183
G1 X159.002 Y155.751 E0.06245
G1 X157.021 Y156.037 E0.06275
G1 X155.079 Y156.510 E0.06268
G1 X153.194 Y157.167 E0.06259
G1 X151.383 Y158.000 E0.06249
G1 X149.665 Y159.002 E0.06234
G1 X148.056 Y160.163 E0.06223
G1 X146.572 Y161.472 E0.06204
G1 X145.226 Y162.916 E0.06190
G1 X144.032 Y164.484 E0.06179
G1 X143.001 Y166.156 E0.06160
G1 X142.144 Y167.919 E0.06146
G1 X141.469 Y169.757 E0.06138
G1 X140.982 Y171.649 E0.06126
G1 X140.688 Y173.579 E0.06121
G1 X140.674 Y173.844 E0.00832
G1 X127.222 Y173.844 E0.42179
G1 X127.222 Y160.291 E0.42494
G1 X127.502 Y160.278 E0.00880
G1 X129.482 Y159.992 E0.06272
G1 X131.424 Y159.519 E0.06268
G1 X133.310 Y158.863 E0.06262
G1 X135.120 Y158.029 E0.06248
G1 X136.839 Y157.027 E0.06237
G1 X138.447 Y155.866 E0.06220
G1 X139.932 Y154.557 E0.06206
G1 X141.278 Y153.113 E0.06190
G1 X142.471 Y151.545 E0.06177
G1 X143.503 Y149.873 E0.06161
G1 X144.360 Y148.110 E0.06146
G1 X145.035 Y146.273 E0.06135
G1 X145.522 Y144.380 E0.06129
G1 X145.816 Y142.450 E0.06121
G1 X145.916 Y140.501 E0.06120
G1 X145.816 Y138.552 E0.06120
G1 X145.522 Y136.622 E0.06121
G1 X145.035 Y134.729 E0.06129
G1 X144.360 Y132.892 E0.06135
G1 X143.503 Y131.129 E0.06146
G1 X142.471 Y129.457 E0.06161
G1 X141.278 Y127.889 E0.06177
G1 X139.932 Y126.445 E0.06190
G1 X138.447 Y125.136 E0.06206
G1 X136.839 Y123.975 E0.06220
G1 X135.120 Y122.973 E0.06237
G1 X133.310 Y122.139 E0.06248
G1 X131.424 Y121.483 E0.06262
G1 X129.482 Y121.010 E0.06268
G1 X127.502 Y120.724 E0.06272
G1 X127.222 Y120.711 E0.00880
G1 X127.222 Y107.218 E0.42305
M204 S1000
G1 X127.570 Y107.356 F10800.000
G1 F8640.000
G1 X130.513 Y107.204 E-0.76000
G1 E-0.04000 F2100.00000
G1 Z0.800 F10800.000
G1 X128.324 Y120.348
G1 Z0.200
G1 E0.80000 F2100.00000
M204 S500
G1 F1200.000
G1 X127.882 Y119.906 E0.01963
G1 X127.882 Y119.372 E0.01676
G1 X128.747 Y120.237 E0.03843
G1 X129.371 Y120.327 E0.01979
G1 X127.882 Y118.838 E0.06613
G1 X127.882 Y118.304 E0.01676
G1 X130.046 Y120.468 E0.09609
G1 X130.752 Y120.640 E0.02281
G1 X127.882 Y117.770 E0.12742
G1 X127.882 Y117.236 E0.01676
G1 X131.458 Y120.812 E0.15876
G1 X132.252 Y121.073 E0.02623
G1 X127.882 Y116.702 E0.19401
G1 X127.882 Y116.168 E0.01676
G1 X133.071 Y121.357 E0.23035
G1 X133.557 Y121.527 E0.01618
G1 X133.959 Y121.711 E0.01386
G1 X127.882 Y115.634 E0.26977
G1 X127.882 Y115.101 E0.01676
G1 X134.948 Y122.167 E0.31370
G1 X135.425 Y122.387 E0.01649
G1 X136.089 Y122.774 E0.02410
G1 X127.882 Y114.567 E0.36433
G1 X127.882 Y114.033 E0.01676
G1 X138.208 Y124.359 E0.45839
M204 S1000
G1 F8640.000
G1 X135.880 Y122.031 E-0.76000
G1 E-0.04000 F2100.00000
G1 Z0.800 F10800.000
G1 X148.574 Y120.844
G1 Z0.200
G1 E0.80000 F2100.00000
M204 S500
G1 F1200.000
G1 X182.726 Y154.996 E1.51609
G1 X183.260 Y154.996 E0.01676
G1 X150.601 Y122.337 E1.44983
G1 X151.078 Y122.615 E0.01733
G1 X151.699 Y122.901 E0.02147
G1 X183.794 Y154.996 E1.42478
G1 X184.343 Y155.011 E0.01724
G1 X152.688 Y123.356 E1.40524
G1 X152.947 Y123.475 E0.00894
G1 X153.551 Y123.686 E0.02010
G1 X184.904 Y155.038 E1.39181
G1 X185.464 Y155.065 E0.01762
G1 X154.370 Y123.971 E1.38035
G1 X154.892 Y124.152 E0.01734
G1 X155.148 Y124.215 E0.00827
G1 X186.025 Y155.092 E1.37072
G1 X186.644 Y155.177 E0.01962
G1 X155.854 Y124.387 E1.36688
G1 X156.560 Y124.559 E0.02281
G1 X187.268 Y155.267 E1.36323
G1 X187.892 Y155.357 E0.01978
G1 X157.223 Y124.688 E1.36150
G1 X157.846 Y124.778 E0.01978
G1 X188.570 Y155.501 E1.36388
G1 X189.275 Y155.673 E0.02281
G1 X158.470 Y124.868 E1.36752
G1 X159.078 Y124.942 E0.01923
G1 X189.981 Y155.845 E1.37186
G1 X190.780 Y156.109 E0.02640
G1 X159.639 Y124.969 E1.38241
G1 X160.200 Y124.996 E0.01762
G1 X191.599 Y156.395 E1.39389
G1 X192.057 Y156.555 E0.01523
G1 X192.493 Y156.755 E0.01505
G1 X160.761 Y125.023 E1.40868
G1 X161.305 Y125.033 E0.01708
G1 X193.481 Y157.209 E1.42839
M73 Q1 S146
M73 P1 R144
G1 X193.926 Y157.414 E0.01537
G1 X194.631 Y157.825 E0.02560
G1 X161.839 Y125.033 E1.45572
G1 X162.373 Y125.033 E0.01676
G1 X196.770 Y159.430 E1.52699
M204 S1000
G1 F8640.000
G1 X194.443 Y157.103 E-0.76000
G1 E-0.04000 F2100.00000
G1 Z0.800 F10800.000
G1 X217.292 Y161.266
G1 Z0.200
G1 E0.80000 F2100.00000
M204 S500
G1 F1200.000
G1 X216.880 Y160.855 E0.01827
G1 X216.257 Y160.765 E0.01979
G1 X217.122 Y161.630 E0.03843
G1 X217.122 Y162.164 E0.01676
G1 X215.633 Y160.675 E0.06613
G1 X215.397 Y160.641 E0.00749
G1 X214.958 Y160.534 E0.01417
G1 X217.122 Y162.698 E0.09609
G1 X217.122 Y163.232 E0.01676
G1 X214.252 Y160.362 E0.12742
G1 X213.546 Y160.190 E0.02281
G1 X217.122 Y163.766 E0.15876
G1 X217.122 Y164.300 E0.01676
G1 X212.752 Y159.929 E0.19401
G1 X211.933 Y159.645 E0.02720
G1 X217.122 Y164.834 E0.23035
G1 X217.122 Y165.368 E0.01676
G1 X211.045 Y159.291 E0.26977
G1 X210.056 Y158.835 E0.03420
G1 X217.122 Y165.901 E0.31370
G1 X217.122 Y166.435 E0.01676
G1 X208.915 Y158.228 E0.36433
G1 X207.805 Y157.581 E0.04035
G1 X207.549 Y157.396 E0.00989
G1 X217.292 Y167.139 E0.43249
M204 S1000
G1 F8640.000
G1 X214.965 Y164.812 E-0.76000
G1 E-0.04000 F2100.00000
G1 Z0.800 F10800.000
G1 X204.674 Y172.673
G1 Z0.200
G1 E0.80000 F2100.00000
M204 S500
G1 F1200.000
G1 X205.185 Y173.184 E0.02267
G1 X205.719 Y173.184 E0.01676
G1 X204.781 Y172.246 E0.04164
G1 X204.685 Y171.616 E0.02000
G1 X206.253 Y173.184 E0.06960
G1 X206.786 Y173.184 E0.01676
G1 X204.514 Y170.911 E0.10090
G1 X204.328 Y170.192 E0.02331
G1 X207.320 Y173.184 E0.13282
G1 X207.854 Y173.184 E0.01676
G1 X204.128 Y169.458 E0.16542
G1 X203.818 Y168.614 E0.02822
G1 X208.388 Y173.184 E0.20289
G1 X208.922 Y173.184 E0.01676
G1 X203.508 Y167.770 E0.24036
G1 X203.028 Y166.756 E0.03521
G1 X209.456 Y173.184 E0.28536
G1 X209.990 Y173.184 E0.01676
G1 X202.482 Y165.676 E0.33330
G1 X201.625 Y164.286 E0.05126
G1 X210.524 Y173.184 E0.39502
G1 X211.058 Y173.184 E0.01676
G1 X162.907 Y125.033 E2.13755
G1 X163.440 Y125.033 E0.01676
G1 X211.591 Y173.184 E2.13755
G1 X212.125 Y173.184 E0.01676
G1 X163.974 Y125.033 E2.13755
G1 X164.508 Y125.033 E0.01676
G1 X212.659 Y173.184 E2.13755
G1 X213.193 Y173.184 E0.01676
G1 X165.042 Y125.033 E2.13755
G1 X165.576 Y125.033 E0.01676
G1 X213.727 Y173.184 E2.13755
G1 X214.261 Y173.184 E0.01676
G1 X166.110 Y125.033 E2.13755
G1 X166.644 Y125.033 E0.01676
G1 X214.795 Y173.184 E2.13755
G1 X215.329 Y173.184 E0.01676
G1 X167.178 Y125.033 E2.13755
G1 X167.712 Y125.033 E0.01676
G1 X215.863 Y173.184 E2.13755
G1 X216.396 Y173.184 E0.01676
G1 X168.245 Y125.033 E2.13755
G1 X168.779 Y125.033 E0.01676
G1 X216.930 Y173.184 E2.13755
G1 X217.122 Y173.184 E0.00603
G1 X217.122 Y172.842 E0.01073
G1 X169.313 Y125.033 E2.12237
G1 X169.847 Y125.033 E0.01676
G1 X217.122 Y172.308 E2.09867
M73 Q2 S145
M73 P2 R143
G1 X217.122 Y171.774 E0.01676
G1 X170.381 Y125.033 E2.07497
G1 X170.915 Y125.033 E0.01676
G1 X217.122 Y171.240 E2.05127
G1 X217.122 Y170.706 E0.01676
G1 X171.449 Y125.033 E2.02757
