; generated by PrusaSlicer 2.2.0+ on 2020-11-08 at 16:09:15 UTC

; 

; external perimeters extrusion width = 0.60mm
; perimeters extrusion width = 0.50mm
; infill extrusion width = 0.50mm
; solid infill extrusion width = 0.50mm
; top infill extrusion width = 0.45mm
; first layer extrusion width = 0.42mm

M73 P0 R142
M73 Q0 S146
M201 X1000 Y1000 Z200 E5000 ; sets maximum accelerations, mm/sec^2
M203 X200 Y200 Z12 E120 ; sets maximum feedrates, mm/sec
M204 P1250 R1250 T1250 ; sets acceleration (P, T) and retract acceleration (R), mm/sec^2
M205 X8.00 Y8.00 Z0.40 E4.50 ; sets the jerk limits, mm/sec
M205 S0 T0 ; sets the minimum extruding and travel feed rate, mm/sec
M107
M862.3 P "MK3S" ; printer model check
M862.1 P0.4 ; nozzle diameter check
M115 U3.9.0 ; tell printer latest fw version
G90 ; use absolute coordinates
M83 ; extruder relative mode
M104 S230 ; set extruder temp
M140 S60 ; set bed temp
M190 S60 ; wait for bed temp
M109 S230 ; wait for extruder temp
G28 W ; home all without mesh bed level
G80 ; mesh bed leveling
G1 Y-3.0 F1000.0 ; go outside print area
G92 E0.0
G1 X60.0 E9.0 F1000.0 ; intro line
M73 Q0 S145
M73 P0 R142
G1 X100.0 E12.5 F1000.0 ; intro line
G92 E0.0
M221 S95
G21 ; set units to millimeters
G90 ; use absolute coordinates
M83 ; use relative distances for extrusion
M900 K0.06 ; Filament gcode LA 1.5
M900 K30 ; Filament gcode LA 1.0
;BEFORE_LAYER_CHANGE
G92 E0.0
;0.2


G1 E-0.80000 F2100.00000
G1 Z0.600 F10800.000
;AFTER_LAYER_CHANGE
;0.2
G1 X76.124 Y34.183
G1 Z0.200
G1 E0.80000 F2100.00000
M204 S500
G1 F1200.000
G1 X76.410 Y33.567 E0.02130
G1 X76.785 Y33.123 E0.01823
G1 X77.257 Y32.783 E0.01823
G1 X77.797 Y32.568 E0.01823
G1 X78.373 Y32.490 E0.01823
G1 X171.599 Y32.490 E2.92306
G1 X172.502 Y32.669 E0.02884
G1 X173.265 Y33.175 E0.02872
G1 X173.783 Y33.935 E0.02884
G1 X173.972 Y34.835 E0.02884
G1 X173.977 Y175.142 E4.39921
G1 X173.876 Y175.818 E0.02142
G1 X173.590 Y176.434 E0.02130
G1 X173.215 Y176.878 E0.01823
G1 X172.740 Y177.220 E0.01835
G1 X172.196 Y177.435 E0.01835
G1 X171.616 Y177.511 E0.01835
G1 X78.393 Y177.511 E2.92294
G1 X77.721 Y177.411 E0.02130
G1 X77.105 Y177.124 E0.02130
G1 X76.658 Y176.747 E0.01835
G1 X76.317 Y176.271 E0.01835
G1 X76.102 Y175.727 E0.01835
G1 X76.027 Y175.147 E0.01835
G1 X76.023 Y34.859 E4.39861
G1 X76.115 Y34.243 E0.01954
M204 S1000
G1 F8640.000
G1 X76.410 Y33.567 E-0.17022
G1 X76.785 Y33.123 E-0.13423
G1 X77.257 Y32.783 E-0.13423
G1 X77.797 Y32.568 E-0.13423
G1 X78.373 Y32.490 E-0.13423
G1 X78.602 Y32.490 E-0.05286
G1 E-0.04000 F2100.00000
G1 Z0.800 F10800.000
G1 X80.098 Y107.532
G1 Z0.200
G1 E0.80000 F2100.00000
M204 S500
G1 F1200.000
G1 X92.823 Y107.532 E0.39898
G1 X93.112 Y109.426 E0.06008
G1 X93.609 Y111.355 E0.06244
G1 X94.297 Y113.228 E0.06257
G1 X95.170 Y115.025 E0.06264
G1 X96.220 Y116.730 E0.06278
G1 X97.438 Y118.327 E0.06296
G1 X98.808 Y119.798 E0.06306
G1 X100.320 Y121.131 E0.06320
G1 X101.959 Y122.314 E0.06338
G1 X103.708 Y123.335 E0.06349
G1 X105.552 Y124.182 E0.06363
G1 X107.472 Y124.851 E0.06373
G1 X109.449 Y125.333 E0.06382
G1 X111.466 Y125.624 E0.06388
G1 X113.482 Y125.721 E0.06329
G1 X136.522 Y125.721 E0.72239
G1 X138.538 Y125.624 E0.06329
G1 X140.555 Y125.333 E0.06388
G1 X142.532 Y124.851 E0.06382
G1 X144.452 Y124.182 E0.06373
G1 X146.296 Y123.335 E0.06363
G1 X148.045 Y122.314 E0.06349
G1 X149.684 Y121.131 E0.06338
G1 X151.196 Y119.798 E0.06320
G1 X152.566 Y118.327 E0.06306
G1 X153.784 Y116.730 E0.06296
G1 X154.834 Y115.025 E0.06278
G1 X155.707 Y113.228 E0.06264
G1 X156.395 Y111.355 E0.06257
G1 X156.892 Y109.426 E0.06244
G1 X157.181 Y107.532 E0.06008
G1 X169.906 Y107.532 E0.39898
G1 X169.906 Y120.355 E0.40205
G1 X167.950 Y120.637 E0.06195
G1 X165.973 Y121.119 E0.06381
G1 X164.052 Y121.787 E0.06376
G1 X162.209 Y122.635 E0.06362
G1 X160.459 Y123.656 E0.06352
G1 X158.821 Y124.839 E0.06335
G1 X157.309 Y126.172 E0.06322
G1 X155.937 Y127.644 E0.06307
G1 X154.721 Y129.240 E0.06293
G1 X153.670 Y130.945 E0.06279
G1 X152.797 Y132.742 E0.06265
G1 X152.109 Y134.614 E0.06254
G1 X151.612 Y136.544 E0.06248
G1 X151.312 Y138.511 E0.06240
G1 X151.211 Y140.498 E0.06240
G1 X151.312 Y142.486 E0.06240
G1 X151.612 Y144.453 E0.06240
G1 X152.109 Y146.383 E0.06248
G1 X152.797 Y148.255 E0.06254
G1 X153.670 Y150.052 E0.06265
G1 X154.721 Y151.757 E0.06279
G1 X155.937 Y153.353 E0.06293
G1 X157.309 Y154.825 E0.06307
G1 X158.821 Y156.158 E0.06322
G1 X160.459 Y157.341 E0.06335
G1 X162.209 Y158.362 E0.06352
G1 X164.052 Y159.210 E0.06362
G1 X165.973 Y159.878 E0.06376
G1 X167.950 Y160.360 E0.06381
G1 X169.906 Y160.642 E0.06195
G1 X169.906 Y173.465 E0.40205
G1 X157.033 Y173.465 E0.40363
G1 X156.892 Y172.544 E0.02922
G1 X156.395 Y170.614 E0.06248
G1 X155.707 Y168.742 E0.06254
G1 X154.834 Y166.945 E0.06264
G1 X153.784 Y165.240 E0.06278
G1 X152.566 Y163.643 E0.06296
G1 X151.196 Y162.172 E0.06306
G1 X149.684 Y160.839 E0.06320
G1 X148.045 Y159.656 E0.06338
G1 X146.296 Y158.635 E0.06349
G1 X144.452 Y157.787 E0.06365
G1 X142.532 Y157.119 E0.06373
G1 X140.555 Y156.637 E0.06381
G1 X138.538 Y156.346 E0.06388
G1 X136.522 Y156.249 E0.06329
G1 X113.482 Y156.249 E0.72239
G1 X111.466 Y156.346 E0.06329
G1 X109.449 Y156.637 E0.06388
G1 X107.472 Y157.119 E0.06381
G1 X105.552 Y157.787 E0.06373
G1 X103.708 Y158.635 E0.06365
G1 X101.959 Y159.656 E0.06349
G1 X100.320 Y160.839 E0.06338
G1 X98.808 Y162.172 E0.06320
G1 X97.438 Y163.643 E0.06306
G1 X96.220 Y165.240 E0.06296
G1 X95.170 Y166.945 E0.06278
G1 X94.297 Y168.742 E0.06264
G1 X93.609 Y170.614 E0.06254
G1 X93.112 Y172.544 E0.06248
G1 X92.971 Y173.465 E0.02922
G1 X80.098 Y173.465 E0.40364
G1 X80.098 Y160.642 E0.40205
G1 X82.054 Y160.360 E0.06195
G1 X84.031 Y159.878 E0.06381
G1 X85.952 Y159.210 E0.06376
G1 X87.795 Y158.362 E0.06362
G1 X89.545 Y157.341 E0.06352
G1 X91.183 Y156.158 E0.06335
G1 X92.695 Y154.825 E0.06322
G1 X94.067 Y153.353 E0.06307
G1 X95.283 Y151.757 E0.06293
G1 X96.334 Y150.052 E0.06279
G1 X97.207 Y148.255 E0.06265
G1 X97.895 Y146.383 E0.06254
G1 X98.392 Y144.453 E0.06248
G1 X98.692 Y142.486 E0.06240
G1 X98.793 Y140.498 E0.06240
G1 X98.692 Y138.511 E0.06240
G1 X98.392 Y136.544 E0.06240
G1 X97.895 Y134.614 E0.06248
G1 X97.207 Y132.742 E0.06254
G1 X96.334 Y130.945 E0.06265
G1 X95.283 Y129.240 E0.06279
G1 X94.067 Y127.644 E0.06293
G1 X92.695 Y126.172 E0.06307
G1 X91.183 Y124.839 E0.06322
G1 X89.545 Y123.656 E0.06335
G1 X87.795 Y122.635 E0.06352
G1 X85.952 Y121.787 E0.06362
G1 X84.031 Y121.119 E0.06376
G1 X82.054 Y120.637 E0.06381
G1 X80.098 Y120.355 E0.06195
G1 X80.098 Y107.592 E0.40017
M204 S1000
G1 X79.721 Y107.155 F10800.000
M204 S500
G1 F1200.000
G1 X93.174 Y107.155 E0.42181
G1 X93.188 Y107.421 E0.00835
G1 X93.482 Y109.351 E0.06121
G1 X93.969 Y111.243 E0.06126
G1 X94.644 Y113.080 E0.06138
G1 X95.501 Y114.843 E0.06146
G1 X96.532 Y116.516 E0.06160
G1 X97.726 Y118.083 E0.06179
G1 X99.072 Y119.528 E0.06190
G1 X100.556 Y120.836 E0.06204
G1 X102.165 Y121.998 E0.06223
G1 X103.883 Y123.000 E0.06234
G1 X105.694 Y123.832 E0.06249
G1 X107.579 Y124.489 E0.06259
G1 X109.521 Y124.962 E0.06268
G1 X111.502 Y125.248 E0.06275
G1 X113.491 Y125.343 E0.06245
G1 X136.513 Y125.343 E0.72183
G1 X138.502 Y125.248 E0.06245
G1 X140.483 Y124.962 E0.06275
G1 X142.425 Y124.489 E0.06268
G1 X144.310 Y123.832 E0.06259
G1 X146.121 Y123.000 E0.06249
G1 X147.839 Y121.998 E0.06234
G1 X149.448 Y120.836 E0.06223
G1 X150.932 Y119.528 E0.06204
G1 X152.278 Y118.083 E0.06190
G1 X153.472 Y116.516 E0.06179
G1 X154.503 Y114.843 E0.06160
G1 X155.360 Y113.080 E0.06146
G1 X156.035 Y111.243 E0.06138
G1 X156.522 Y109.351 E0.06126
G1 X156.816 Y107.421 E0.06121
G1 X156.830 Y107.155 E0.00835
G1 X170.283 Y107.155 E0.42182
G1 X170.283 Y120.708 E0.42496
G1 X170.002 Y120.722 E0.00883
G1 X168.022 Y121.008 E0.06272
G1 X166.080 Y121.481 E0.06268
G1 X164.194 Y122.137 E0.06262
G1 X162.384 Y122.970 E0.06248
G1 X160.665 Y123.972 E0.06237
G1 X159.057 Y125.134 E0.06220
G1 X157.572 Y126.442 E0.06206
G1 X156.226 Y127.887 E0.06190
G1 X155.033 Y129.454 E0.06177
G1 X154.001 Y131.127 E0.06161
G1 X153.144 Y132.890 E0.06146
G1 X152.469 Y134.726 E0.06135
G1 X151.982 Y136.619 E0.06129
G1 X151.688 Y138.549 E0.06121
G1 X151.588 Y140.498 E0.06120
G1 X151.688 Y142.448 E0.06120
G1 X151.982 Y144.378 E0.06121
G1 X152.469 Y146.271 E0.06129
G1 X153.144 Y148.107 E0.06135
G1 X154.001 Y149.870 E0.06146
G1 X155.033 Y151.543 E0.06161
G1 X156.226 Y153.110 E0.06177
G1 X157.572 Y154.555 E0.06190
G1 X159.057 Y155.863 E0.06206
G1 X160.665 Y157.025 E0.06220
G1 X162.384 Y158.027 E0.06237
G1 X164.194 Y158.860 E0.06248
G1 X166.080 Y159.516 E0.06262
G1 X168.022 Y159.989 E0.06268
G1 X170.002 Y160.275 E0.06272
G1 X170.283 Y160.289 E0.00883
G1 X170.283 Y173.842 E0.42496
G1 X156.709 Y173.842 E0.42562
G1 X156.522 Y172.619 E0.03878
G1 X156.035 Y170.726 E0.06129
G1 X155.360 Y168.890 E0.06135
G1 X154.503 Y167.127 E0.06146
G1 X153.472 Y165.454 E0.06160
G1 X152.278 Y163.887 E0.06179
G1 X150.932 Y162.442 E0.06190
G1 X149.448 Y161.134 E0.06204
G1 X147.839 Y159.972 E0.06223
G1 X146.121 Y158.970 E0.06234
G1 X144.310 Y158.137 E0.06251
G1 X142.425 Y157.481 E0.06259
G1 X140.483 Y157.008 E0.06268
G1 X138.502 Y156.722 E0.06275
M73 Q0 S144
G1 X136.513 Y156.627 E0.06245
G1 X113.491 Y156.627 E0.72183
M73 P0 R141
G1 X111.502 Y156.722 E0.06245
G1 X109.521 Y157.008 E0.06275
G1 X107.579 Y157.481 E0.06268
G1 X105.694 Y158.137 E0.06259
G1 X103.883 Y158.970 E0.06251
G1 X102.165 Y159.972 E0.06234
G1 X100.556 Y161.134 E0.06223
G1 X99.072 Y162.442 E0.06204
G1 X97.726 Y163.887 E0.06190
G1 X96.532 Y165.454 E0.06179
G1 X95.501 Y167.127 E0.06160
G1 X94.644 Y168.890 E0.06146
G1 X93.969 Y170.726 E0.06135
G1 X93.482 Y172.619 E0.06129
G1 X93.295 Y173.842 E0.03878
G1 X79.721 Y173.842 E0.42562
G1 X79.721 Y160.289 E0.42496
G1 X80.002 Y160.275 E0.00883
G1 X81.982 Y159.989 E0.06272
G1 X83.924 Y159.516 E0.06268
G1 X85.810 Y158.860 E0.06262
G1 X87.620 Y158.027 E0.06248
G1 X89.339 Y157.025 E0.06237
G1 X90.947 Y155.863 E0.06220
G1 X92.432 Y154.555 E0.06206
G1 X93.778 Y153.110 E0.06190
G1 X94.971 Y151.543 E0.06177
G1 X96.003 Y149.870 E0.06161
G1 X96.860 Y148.107 E0.06146
G1 X97.535 Y146.271 E0.06135
G1 X98.022 Y144.378 E0.06129
G1 X98.316 Y142.448 E0.06121
G1 X98.416 Y140.498 E0.06120
G1 X98.316 Y138.549 E0.06120
G1 X98.022 Y136.619 E0.06121
G1 X97.535 Y134.726 E0.06129
G1 X96.860 Y132.890 E0.06135
G1 X96.003 Y131.127 E0.06146
G1 X94.971 Y129.454 E0.06161
G1 X93.778 Y127.887 E0.06177
G1 X92.432 Y126.442 E0.06190
G1 X90.947 Y125.134 E0.06206
G1 X89.339 Y123.972 E0.06220
G1 X87.620 Y122.970 E0.06237
G1 X85.810 Y122.137 E0.06248
G1 X83.924 Y121.481 E0.06262
G1 X81.982 Y121.008 E0.06268
G1 X80.002 Y120.722 E0.06272
G1 X79.721 Y120.708 E0.00883
G1 X79.721 Y107.215 E0.42308
M204 S1000
G1 X80.069 Y107.353 F10800.000
G1 F8640.000
G1 X83.012 Y107.200 E-0.76000
G1 E-0.04000 F2100.00000
G1 Z0.800 F10800.000
G1 X92.830 Y108.326
G1 Z0.200
G1 E0.80000 F2100.00000
M204 S500
G1 F1200.000
G1 X92.318 Y107.815 E0.02270
G1 X91.784 Y107.815 E0.01676
G1 X92.723 Y108.754 E0.04168
G1 X92.819 Y109.384 E0.02000
G1 X91.251 Y107.815 E0.06964
G1 X90.717 Y107.815 E0.01676
G1 X92.990 Y110.089 E0.10094
G1 X93.176 Y110.808 E0.02331
G1 X90.183 Y107.815 E0.13286
G1 X89.649 Y107.815 E0.01676
G1 X93.376 Y111.542 E0.16546
G1 X93.686 Y112.386 E0.02823
G1 X89.115 Y107.815 E0.20293
G1 X88.581 Y107.815 E0.01676
G1 X93.996 Y113.230 E0.24040
G1 X94.476 Y114.244 E0.03521
G1 X88.047 Y107.815 E0.28540
G1 X87.513 Y107.815 E0.01676
G1 X95.022 Y115.324 E0.33334
G1 X95.879 Y116.714 E0.05126
G1 X86.979 Y107.815 E0.39507
G1 X86.446 Y107.815 E0.01676
G1 X134.597 Y155.967 E2.13763
G1 X134.063 Y155.967 E0.01676
G1 X85.912 Y107.815 E2.13763
G1 X85.378 Y107.815 E0.01676
G1 X133.530 Y155.967 E2.13763
G1 X132.996 Y155.967 E0.01676
G1 X84.844 Y107.815 E2.13763
G1 X84.310 Y107.815 E0.01676
G1 X132.462 Y155.967 E2.13763
G1 X131.928 Y155.967 E0.01676
G1 X83.776 Y107.815 E2.13763
G1 X83.242 Y107.815 E0.01676
G1 X131.394 Y155.967 E2.13763
G1 X130.860 Y155.967 E0.01676
G1 X82.708 Y107.815 E2.13763
G1 X82.174 Y107.815 E0.01676
G1 X130.326 Y155.967 E2.13763
G1 X129.792 Y155.967 E0.01676
G1 X81.640 Y107.815 E2.13763
G1 X81.107 Y107.815 E0.01676
G1 X129.258 Y155.967 E2.13763
G1 X128.725 Y155.967 E0.01676
G1 X80.573 Y107.815 E2.13763
G1 X80.381 Y107.815 E0.00602
G1 X80.381 Y108.157 E0.01074
G1 X128.191 Y155.967 E2.12245
G1 X127.657 Y155.967 E0.01676
G1 X80.381 Y108.691 E2.09875
M73 Q1 S143
G1 X80.381 Y109.225 E0.01676
G1 X127.123 Y155.967 E2.07504
M73 P1 R140
G1 X126.589 Y155.967 E0.01676
G1 X80.381 Y109.759 E2.05134
G1 X80.381 Y110.292 E0.01676
G1 X126.055 Y155.967 E2.02764
G1 X125.521 Y155.967 E0.01676
G1 X80.381 Y110.826 E2.00394
G1 X80.381 Y111.360 E0.01676
G1 X124.987 Y155.967 E1.98024
G1 X124.453 Y155.967 E0.01676
G1 X80.381 Y111.894 E1.95654
G1 X80.381 Y112.428 E0.01676
G1 X123.919 Y155.967 E1.93283
G1 X123.386 Y155.967 E0.01676
G1 X80.381 Y112.962 E1.90913
G1 X80.381 Y113.496 E0.01676
G1 X122.852 Y155.967 E1.88543
G1 X122.318 Y155.967 E0.01676
G1 X95.652 Y129.301 E1.18378
G1 X96.511 Y130.694 E0.05136
G1 X121.784 Y155.967 E1.12196
G1 X121.250 Y155.967 E0.01676
G1 X97.045 Y131.762 E1.07454
G1 X97.468 Y132.631 E0.03034
G1 X97.518 Y132.769 E0.00461
G1 X120.716 Y155.967 E1.02983
G1 X120.182 Y155.967 E0.01676
G1 X97.829 Y133.613 E0.99235
G1 X98.139 Y134.457 E0.02824
G1 X119.648 Y155.967 E0.95487
G1 X119.114 Y155.967 E0.01676
G1 X98.335 Y135.187 E0.92248
G1 X98.520 Y135.906 E0.02331
G1 X118.581 Y155.967 E0.89056
G1 X118.047 Y155.967 E0.01676
G1 X98.688 Y136.608 E0.85940
G1 X98.784 Y137.238 E0.02000
G1 X117.513 Y155.967 E0.83143
G1 X116.979 Y155.967 E0.01676
G1 X98.880 Y137.868 E0.80347
G1 X98.974 Y138.496 E0.01994
G1 X116.445 Y155.967 E0.77558
G1 X115.911 Y155.967 E0.01676
G1 X99.003 Y139.059 E0.75061
G1 X99.032 Y139.621 E0.01768
G1 X115.377 Y155.967 E0.72563
G1 X114.843 Y155.967 E0.01676
G1 X99.060 Y140.184 E0.70066
G1 X99.076 Y140.498 E0.00990
G1 X99.065 Y140.722 E0.00703
G1 X114.309 Y155.967 E0.67676
G1 X113.775 Y155.967 E0.01676
G1 X99.039 Y141.230 E0.65420
G1 X99.013 Y141.738 E0.01597
G1 X113.252 Y155.977 E0.63212
G1 X112.743 Y156.002 E0.01601
G1 X98.987 Y142.246 E0.61065
G1 X98.940 Y142.733 E0.01536
G1 X112.233 Y156.026 E0.59012
G1 X111.724 Y156.051 E0.01601
G1 X98.870 Y143.197 E0.57064
G1 X98.799 Y143.660 E0.01471
G1 X111.233 Y156.094 E0.55200
G1 X110.767 Y156.161 E0.01480
G1 X98.729 Y144.123 E0.53442
G1 X98.652 Y144.580 E0.01454
G1 X110.300 Y156.228 E0.51712
M73 Q2 S142
G1 X109.833 Y156.296 E0.01480
G1 X98.542 Y145.005 E0.50126
G1 X98.433 Y145.429 E0.01376
G1 X109.369 Y156.365 E0.48550
G1 X108.940 Y156.470 E0.01387
G1 X98.324 Y145.854 E0.47129
G1 X98.214 Y146.278 E0.01376
G1 X108.511 Y156.575 E0.45709
M73 P2 R139
G1 X108.081 Y156.679 E0.01387
G1 X98.086 Y146.684 E0.44372
G1 X97.943 Y147.074 E0.01306
G1 X107.652 Y156.784 E0.43104
G1 X107.236 Y156.902 E0.01358
G1 X97.799 Y147.465 E0.41893
G1 X97.655 Y147.855 E0.01306
G1 X106.840 Y157.039 E0.40772
G1 X106.444 Y157.177 E0.01316
G1 X97.512 Y148.245 E0.39651
G1 X97.347 Y148.614 E0.01269
G1 X106.048 Y157.315 E0.38625
G1 X105.651 Y157.453 E0.01316
G1 X97.172 Y148.974 E0.37642
G1 X96.998 Y149.333 E0.01254
G1 X105.270 Y157.605 E0.36724
G1 X104.904 Y157.774 E0.01263
G1 X96.823 Y149.692 E0.35876
G1 X96.648 Y150.051 E0.01254
G1 X104.539 Y157.942 E0.35029
G1 X104.173 Y158.110 E0.01263
G1 X96.456 Y150.393 E0.34260
G1 X96.252 Y150.723 E0.01218
G1 X103.808 Y158.278 E0.33541
G1 X103.453 Y158.457 E0.01248
G1 X96.049 Y151.053 E0.32869
G1 X95.845 Y151.383 E0.01218
G1 X103.115 Y158.654 E0.32276
G1 X102.778 Y158.851 E0.01225
G1 X95.641 Y151.714 E0.31684
G1 X95.427 Y152.034 E0.01208
G1 X102.441 Y159.047 E0.31137
G1 X102.104 Y159.244 E0.01225
G1 X95.196 Y152.337 E0.30665
G1 X94.966 Y152.640 E0.01196
G1 X101.770 Y159.444 E0.30207
G1 X101.460 Y159.668 E0.01200
G1 X94.735 Y152.943 E0.29855
G1 X94.504 Y153.246 E0.01196
G1 X101.150 Y159.892 E0.29503
G1 X100.839 Y160.115 E0.01200
G1 X94.272 Y153.548 E0.29156
G1 X94.014 Y153.824 E0.01186
G1 X100.529 Y160.339 E0.28922
G1 X100.219 Y160.563 E0.01200
G1 X93.757 Y154.101 E0.28688
G1 X93.500 Y154.377 E0.01186
G1 X99.929 Y160.807 E0.28543
