; generated by PrusaSlicer 2.2.0+ on 2020-11-08 at 16:09:12 UTC

; 

; external perimeters extrusion width = 0.60mm
; perimeters extrusion width = 0.50mm
; infill extrusion width = 0.50mm
; solid infill extrusion width = 0.50mm
; top infill extrusion width = 0.45mm
; first layer extrusion width = 0.42mm

M73 P0 R58
M73 Q0 S59
M201 X1000 Y1000 Z200 E5000 ; sets maximum accelerations, mm/sec^2
M203 X200 Y200 Z12 E120 ; sets maximum feedrates, mm/sec
M204 P1250 R1250 T1250 ; sets acceleration (P, T) and retract acceleration (R), mm/sec^2
M205 X8.00 Y8.00 Z0.40 E4.50 ; sets the jerk limits, mm/sec
M205 S0 T0 ; sets the minimum extruding and travel feed rate, mm/sec
M107
M862.3 P "MK3S" ; printer model check
M862.1 P0.4 ; nozzle diameter check
M115 U3.9.0 ; tell printer latest fw version
G90 ; use absolute coordinates
M83 ; extruder relative mode
M104 S230 ; set extruder temp
M140 S60 ; set bed temp
M190 S60 ; wait for bed temp
M109 S230 ; wait for extruder temp
G28 W ; home all without mesh bed level
G80 ; mesh bed leveling
G1 Y-3.0 F1000.0 ; go outside print area
G92 E0.0
G1 X60.0 E9.0 F1000.0 ; intro line
M73 Q0 S59
M73 P0 R58
G1 X100.0 E12.5 F1000.0 ; intro line
G92 E0.0
M221 S95
G21 ; set units to millimeters
G90 ; use absolute coordinates
M83 ; use relative distances for extrusion
M900 K0.06 ; Filament gcode LA 1.5
M900 K30 ; Filament gcode LA 1.0
;BEFORE_LAYER_CHANGE
G92 E0.0
;0.2


G1 E-0.80000 F2100.00000
G1 Z0.600 F10800.000
;AFTER_LAYER_CHANGE
;0.2
G1 X77.632 Y68.117
G1 Z0.200
G1 E0.80000 F2100.00000
M204 S500
G1 F1200.000
G1 X78.391 Y67.988 E0.02414
G1 X171.596 Y67.988 E2.92239
G1 X172.495 Y68.165 E0.02872
G1 X173.261 Y68.668 E0.02872
G1 X173.779 Y69.424 E0.02872
G1 X173.973 Y70.319 E0.02872
G1 X173.973 Y139.665 E2.17430
G1 X173.906 Y140.197 E0.01680
G1 X173.721 Y140.700 E0.01680
G1 X173.431 Y141.146 E0.01669
G1 X173.046 Y141.518 E0.01680
G1 X172.368 Y141.883 E0.02414
G1 X171.609 Y142.012 E0.02414
G1 X78.392 Y142.012 E2.92275
G1 X77.856 Y141.948 E0.01692
G1 X77.349 Y141.765 E0.01692
G1 X76.895 Y141.472 E0.01692
G1 X76.520 Y141.084 E0.01692
G1 X76.156 Y140.410 E0.02402
G1 X76.027 Y139.651 E0.02414
G1 X76.027 Y70.350 E2.17287
G1 X76.091 Y69.814 E0.01692
G1 X76.275 Y69.307 E0.01692
G1 X76.566 Y68.857 E0.01680
G1 X76.954 Y68.482 E0.01692
G1 X77.579 Y68.146 E0.02226
M204 S1000
G1 F8640.000
G1 X78.391 Y67.988 E-0.19093
G1 X80.856 Y67.988 E-0.56907
G1 E-0.04000 F2100.00000
G1 Z0.800 F10800.000
G1 X80.097 Y72.034
G1 Z0.200
G1 E0.80000 F2100.00000
M204 S500
G1 F1200.000
G1 X92.970 Y72.034 E0.40361
G1 X93.110 Y72.955 E0.02919
G1 X93.607 Y74.884 E0.06248
G1 X94.295 Y76.757 E0.06254
G1 X95.168 Y78.553 E0.06264
G1 X96.218 Y80.258 E0.06278
G1 X97.436 Y81.855 E0.06296
G1 X98.806 Y83.327 E0.06306
G1 X100.318 Y84.660 E0.06320
G1 X101.957 Y85.843 E0.06338
G1 X103.706 Y86.863 E0.06349
G1 X105.550 Y87.712 E0.06365
G1 X107.470 Y88.380 E0.06372
G1 X109.447 Y88.862 E0.06381
G1 X111.464 Y89.152 E0.06388
G1 X113.480 Y89.249 E0.06329
G1 X136.520 Y89.249 E0.72239
G1 X138.536 Y89.152 E0.06329
G1 X140.553 Y88.862 E0.06388
G1 X142.530 Y88.380 E0.06381
G1 X144.450 Y87.712 E0.06372
G1 X146.294 Y86.863 E0.06365
G1 X148.043 Y85.843 E0.06349
G1 X149.682 Y84.660 E0.06338
G1 X151.194 Y83.327 E0.06320
G1 X152.564 Y81.855 E0.06306
G1 X153.782 Y80.258 E0.06296
G1 X154.832 Y78.553 E0.06278
G1 X155.705 Y76.757 E0.06264
G1 X156.393 Y74.884 E0.06254
G1 X156.890 Y72.955 E0.06248
G1 X157.030 Y72.034 E0.02919
G1 X169.903 Y72.034 E0.40361
G1 X169.903 Y84.856 E0.40203
G1 X167.948 Y85.138 E0.06192
G1 X165.971 Y85.620 E0.06381
G1 X164.050 Y86.288 E0.06376
G1 X162.207 Y87.137 E0.06362
G1 X160.457 Y88.157 E0.06352
G1 X158.819 Y89.340 E0.06335
G1 X157.307 Y90.673 E0.06322
G1 X155.935 Y92.145 E0.06307
G1 X154.719 Y93.742 E0.06293
G1 X153.668 Y95.446 E0.06279
G1 X152.795 Y97.243 E0.06265
G1 X152.107 Y99.116 E0.06254
G1 X151.610 Y101.045 E0.06248
G1 X151.310 Y103.013 E0.06240
G1 X151.210 Y105.000 E0.06239
G1 X151.310 Y106.987 E0.06239
G1 X151.610 Y108.955 E0.06240
G1 X152.107 Y110.884 E0.06248
G1 X152.795 Y112.757 E0.06254
G1 X153.668 Y114.554 E0.06265
G1 X154.719 Y116.258 E0.06279
G1 X155.935 Y117.855 E0.06293
G1 X157.307 Y119.327 E0.06307
G1 X158.819 Y120.660 E0.06322
G1 X160.457 Y121.843 E0.06335
G1 X162.207 Y122.863 E0.06352
G1 X164.050 Y123.712 E0.06362
G1 X165.971 Y124.380 E0.06376
G1 X167.948 Y124.862 E0.06381
G1 X169.903 Y125.144 E0.06192
G1 X169.903 Y137.966 E0.40203
G1 X157.179 Y137.966 E0.39896
G1 X156.890 Y136.072 E0.06006
G1 X156.393 Y134.144 E0.06244
G1 X155.705 Y132.270 E0.06257
G1 X154.832 Y130.474 E0.06264
G1 X153.782 Y128.769 E0.06278
G1 X152.564 Y127.172 E0.06296
G1 X151.194 Y125.700 E0.06306
G1 X149.682 Y124.367 E0.06320
G1 X148.043 Y123.184 E0.06338
G1 X146.294 Y122.164 E0.06349
G1 X144.450 Y121.316 E0.06363
G1 X142.530 Y120.647 E0.06373
G1 X140.553 Y120.165 E0.06382
G1 X138.536 Y119.875 E0.06388
G1 X136.520 Y119.778 E0.06329
G1 X113.480 Y119.778 E0.72239
G1 X111.464 Y119.875 E0.06329
G1 X109.447 Y120.165 E0.06388
G1 X107.470 Y120.647 E0.06382
G1 X105.550 Y121.316 E0.06373
G1 X103.706 Y122.164 E0.06363
G1 X101.957 Y123.184 E0.06349
G1 X100.318 Y124.367 E0.06338
G1 X98.806 Y125.700 E0.06320
G1 X97.436 Y127.172 E0.06306
G1 X96.218 Y128.769 E0.06296
G1 X95.168 Y130.474 E0.06278
G1 X94.295 Y132.270 E0.06264
G1 X93.607 Y134.144 E0.06257
G1 X93.110 Y136.072 E0.06244
G1 X92.821 Y137.966 E0.06006
G1 X80.097 Y137.966 E0.39896
G1 X80.097 Y125.144 E0.40203
G1 X82.052 Y124.862 E0.06192
G1 X84.029 Y124.380 E0.06381
G1 X85.950 Y123.712 E0.06376
G1 X87.793 Y122.863 E0.06362
G1 X89.543 Y121.843 E0.06352
G1 X91.181 Y120.660 E0.06335
G1 X92.693 Y119.327 E0.06322
G1 X94.065 Y117.855 E0.06307
G1 X95.281 Y116.258 E0.06293
G1 X96.332 Y114.554 E0.06279
G1 X97.205 Y112.757 E0.06265
G1 X97.893 Y110.884 E0.06254
G1 X98.390 Y108.955 E0.06248
G1 X98.690 Y106.987 E0.06240
G1 X98.791 Y105.000 E0.06240
G1 X98.690 Y103.013 E0.06240
G1 X98.390 Y101.045 E0.06240
G1 X97.893 Y99.116 E0.06248
G1 X97.205 Y97.243 E0.06254
G1 X96.332 Y95.446 E0.06265
G1 X95.281 Y93.742 E0.06279
G1 X94.065 Y92.145 E0.06293
G1 X92.693 Y90.673 E0.06307
G1 X91.181 Y89.340 E0.06322
G1 X89.543 Y88.157 E0.06335
G1 X87.793 Y87.137 E0.06352
G1 X85.950 Y86.288 E0.06362
G1 X84.029 Y85.620 E0.06376
G1 X82.052 Y85.138 E0.06381
G1 X80.097 Y84.856 E0.06192
G1 X80.097 Y72.094 E0.40014
M204 S1000
G1 X79.720 Y71.657 F10800.000
M204 S500
G1 F1200.000
G1 X93.294 Y71.657 E0.42559
G1 X93.480 Y72.879 E0.03876
G1 X93.967 Y74.772 E0.06129
G1 X94.642 Y76.609 E0.06135
G1 X95.499 Y78.372 E0.06146
G1 X96.530 Y80.044 E0.06160
G1 X97.724 Y81.612 E0.06179
G1 X99.070 Y83.056 E0.06190
G1 X100.554 Y84.365 E0.06204
G1 X102.163 Y85.526 E0.06223
G1 X103.881 Y86.528 E0.06234
G1 X105.692 Y87.362 E0.06251
G1 X107.577 Y88.018 E0.06259
G1 X109.519 Y88.491 E0.06268
G1 X111.500 Y88.777 E0.06275
G1 X113.489 Y88.872 E0.06245
G1 X136.511 Y88.872 E0.72183
G1 X138.500 Y88.777 E0.06245
G1 X140.481 Y88.491 E0.06275
G1 X142.423 Y88.018 E0.06268
G1 X144.308 Y87.362 E0.06259
G1 X146.119 Y86.528 E0.06251
G1 X147.837 Y85.526 E0.06234
G1 X149.446 Y84.365 E0.06223
G1 X150.930 Y83.056 E0.06204
G1 X152.276 Y81.612 E0.06190
G1 X153.470 Y80.044 E0.06179
G1 X154.501 Y78.372 E0.06160
G1 X155.358 Y76.609 E0.06146
G1 X156.033 Y74.772 E0.06135
G1 X156.520 Y72.879 E0.06129
G1 X156.707 Y71.657 E0.03876
G1 X170.280 Y71.657 E0.42559
G1 X170.280 Y85.210 E0.42494
G1 X170.000 Y85.223 E0.00880
G1 X168.020 Y85.509 E0.06272
G1 X166.078 Y85.982 E0.06268
G1 X164.192 Y86.638 E0.06262
G1 X162.382 Y87.472 E0.06248
G1 X160.663 Y88.474 E0.06237
G1 X159.055 Y89.635 E0.06220
G1 X157.570 Y90.944 E0.06206
G1 X156.224 Y92.388 E0.06190
G1 X155.031 Y93.956 E0.06177
G1 X153.999 Y95.628 E0.06161
G1 X153.142 Y97.391 E0.06146
G1 X152.467 Y99.228 E0.06135
G1 X151.980 Y101.121 E0.06129
G1 X151.686 Y103.051 E0.06121
G1 X151.587 Y105.000 E0.06120
G1 X151.686 Y106.949 E0.06120
G1 X151.980 Y108.879 E0.06121
G1 X152.467 Y110.772 E0.06129
G1 X153.142 Y112.609 E0.06135
G1 X153.999 Y114.372 E0.06146
G1 X155.031 Y116.044 E0.06161
G1 X156.224 Y117.612 E0.06177
G1 X157.570 Y119.056 E0.06190
G1 X159.055 Y120.365 E0.06206
G1 X160.663 Y121.526 E0.06220
G1 X162.382 Y122.528 E0.06237
G1 X164.192 Y123.362 E0.06248
G1 X166.078 Y124.018 E0.06262
G1 X168.020 Y124.491 E0.06268
G1 X170.000 Y124.777 E0.06272
G1 X170.280 Y124.790 E0.00880
G1 X170.280 Y138.343 E0.42494
G1 X156.828 Y138.343 E0.42179
G1 X156.814 Y138.078 E0.00832
G1 X156.520 Y136.148 E0.06121
G1 X156.033 Y134.256 E0.06126
G1 X155.358 Y132.418 E0.06138
G1 X154.501 Y130.655 E0.06146
G1 X153.470 Y128.983 E0.06160
G1 X152.276 Y127.415 E0.06179
G1 X150.930 Y125.971 E0.06190
G1 X149.446 Y124.662 E0.06204
G1 X147.837 Y123.501 E0.06223
G1 X146.119 Y122.499 E0.06234
G1 X144.308 Y121.666 E0.06249
G1 X142.423 Y121.009 E0.06259
G1 X140.481 Y120.536 E0.06268
G1 X138.500 Y120.250 E0.06275
G1 X136.511 Y120.155 E0.06245
G1 X113.489 Y120.155 E0.72183
G1 X111.500 Y120.250 E0.06245
G1 X109.519 Y120.536 E0.06275
G1 X107.577 Y121.009 E0.06268
G1 X105.692 Y121.666 E0.06259
G1 X103.881 Y122.499 E0.06249
G1 X102.163 Y123.501 E0.06234
G1 X100.554 Y124.662 E0.06223
G1 X99.070 Y125.971 E0.06204
G1 X97.724 Y127.415 E0.06190
G1 X96.530 Y128.983 E0.06179
G1 X95.499 Y130.655 E0.06160
G1 X94.642 Y132.418 E0.06146
G1 X93.967 Y134.256 E0.06138
G1 X93.480 Y136.148 E0.06126
G1 X93.186 Y138.078 E0.06121
G1 X93.172 Y138.343 E0.00832
G1 X79.720 Y138.343 E0.42179
G1 X79.720 Y124.790 E0.42494
G1 X80.000 Y124.777 E0.00880
G1 X81.980 Y124.491 E0.06272
G1 X83.922 Y124.018 E0.06268
G1 X85.808 Y123.362 E0.06262
G1 X87.618 Y122.528 E0.06248
G1 X89.337 Y121.526 E0.06237
G1 X90.945 Y120.365 E0.06220
G1 X92.430 Y119.056 E0.06206
G1 X93.776 Y117.612 E0.06190
G1 X94.969 Y116.044 E0.06177
G1 X96.001 Y114.372 E0.06161
G1 X96.858 Y112.609 E0.06146
G1 X97.533 Y110.772 E0.06135
G1 X98.020 Y108.879 E0.06129
G1 X98.314 Y106.949 E0.06121
G1 X98.414 Y105.000 E0.06120
G1 X98.314 Y103.051 E0.06120
G1 X98.020 Y101.121 E0.06121
G1 X97.533 Y99.228 E0.06129
G1 X96.858 Y97.391 E0.06135
G1 X96.001 Y95.628 E0.06146
G1 X94.969 Y93.956 E0.06161
G1 X93.776 Y92.388 E0.06177
G1 X92.430 Y90.944 E0.06190
G1 X90.945 Y89.635 E0.06206
G1 X89.337 Y88.474 E0.06220
G1 X87.618 Y87.472 E0.06237
G1 X85.808 Y86.638 E0.06248
G1 X83.922 Y85.982 E0.06262
G1 X81.980 Y85.509 E0.06268
G1 X80.000 Y85.223 E0.06272
G1 X79.720 Y85.210 E0.00880
G1 X79.720 Y71.717 E0.42305
M73 Q1 S58
M73 P1 R57
M204 S1000
G1 X80.068 Y71.855 F10800.000
G1 F8640.000
G1 X83.011 Y71.703 E-0.76000
G1 E-0.04000 F2100.00000
G1 Z0.800 F10800.000
G1 X80.822 Y84.847
G1 Z0.200
G1 E0.80000 F2100.00000
M204 S500
G1 F1200.000
G1 X80.380 Y84.405 E0.01963
G1 X80.380 Y83.871 E0.01676
G1 X81.245 Y84.736 E0.03843
G1 X81.869 Y84.826 E0.01979
G1 X80.380 Y83.337 E0.06613
G1 X80.380 Y82.803 E0.01676
G1 X82.544 Y84.967 E0.09608
G1 X83.250 Y85.139 E0.02281
G1 X80.380 Y82.269 E0.12742
G1 X80.380 Y81.735 E0.01676
G1 X83.956 Y85.311 E0.15876
G1 X84.750 Y85.572 E0.02623
G1 X80.380 Y81.201 E0.19401
G1 X80.380 Y80.667 E0.01676
G1 X85.569 Y85.856 E0.23035
G1 X86.055 Y86.026 E0.01618
G1 X86.457 Y86.210 E0.01386
G1 X80.380 Y80.133 E0.26976
G1 X80.380 Y79.600 E0.01676
G1 X87.446 Y86.666 E0.31370
G1 X87.923 Y86.886 E0.01649
G1 X88.587 Y87.273 E0.02410
G1 X80.380 Y79.066 E0.36432
G1 X80.380 Y78.532 E0.01676
G1 X90.705 Y88.858 E0.45839
M204 S1000
G1 F8640.000
G1 X88.378 Y86.530 E-0.76000
G1 E-0.04000 F2100.00000
G1 Z0.800 F10800.000
G1 X101.072 Y85.343
G1 Z0.200
G1 E0.80000 F2100.00000
M204 S500
G1 F1200.000
G1 X135.224 Y119.495 E1.51609
G1 X135.758 Y119.495 E0.01676
G1 X103.099 Y86.836 E1.44982
G1 X103.576 Y87.114 E0.01733
G1 X104.197 Y87.400 E0.02147
G1 X136.292 Y119.495 E1.42478
G1 X136.841 Y119.510 E0.01724
G1 X105.186 Y87.855 E1.40524
G1 X105.445 Y87.974 E0.00894
G1 X106.049 Y88.185 E0.02010
G1 X137.402 Y119.537 E1.39181
G1 X137.962 Y119.564 E0.01762
G1 X106.868 Y88.470 E1.38035
G1 X107.390 Y88.651 E0.01734
G1 X107.646 Y88.714 E0.00827
G1 X138.523 Y119.591 E1.37072
G1 X139.142 Y119.676 E0.01962
G1 X108.352 Y88.886 E1.36687
G1 X109.058 Y89.058 E0.02281
G1 X139.766 Y119.766 E1.36323
G1 X140.390 Y119.856 E0.01978
G1 X109.721 Y89.187 E1.36150
G1 X110.344 Y89.277 E0.01978
G1 X141.067 Y120.000 E1.36388
G1 X141.773 Y120.172 E0.02281
G1 X110.968 Y89.367 E1.36752
G1 X111.576 Y89.441 E0.01923
G1 X142.479 Y120.344 E1.37186
G1 X143.278 Y120.608 E0.02640
G1 X112.137 Y89.468 E1.38241
G1 X112.698 Y89.495 E0.01762
G1 X144.097 Y120.894 E1.39389
G1 X144.555 Y121.054 E0.01523
G1 X144.991 Y121.254 E0.01505
G1 X113.259 Y89.522 E1.40868
G1 X113.803 Y89.532 E0.01708
G1 X145.979 Y121.708 E1.42839
G1 X146.424 Y121.913 E0.01538
G1 X147.129 Y122.324 E0.02560
G1 X114.337 Y89.532 E1.45572
G1 X114.871 Y89.532 E0.01676
G1 X149.268 Y123.929 E1.52699
M204 S1000
G1 F8640.000
G1 X146.941 Y121.602 E-0.76000
G1 E-0.04000 F2100.00000
G1 Z0.800 F10800.000
G1 X157.172 Y137.172
G1 Z0.200
G1 E0.80000 F2100.00000
M204 S500
G1 F1200.000
G1 X157.683 Y137.683 E0.02267
G1 X158.217 Y137.683 E0.01676
G1 X157.279 Y136.745 E0.04164
G1 X157.183 Y136.115 E0.02000
G1 X158.751 Y137.683 E0.06960
G1 X159.284 Y137.683 E0.01676
G1 X157.012 Y135.410 E0.10090
G1 X156.826 Y134.691 E0.02331
G1 X159.818 Y137.683 E0.13282
G1 X160.352 Y137.683 E0.01676
G1 X156.626 Y133.957 E0.16542
G1 X156.316 Y133.113 E0.02822
G1 X160.886 Y137.683 E0.20289
G1 X161.420 Y137.683 E0.01676
G1 X156.006 Y132.269 E0.24035
G1 X155.526 Y131.255 E0.03521
G1 X161.954 Y137.683 E0.28535
G1 X162.488 Y137.683 E0.01676
G1 X154.980 Y130.175 E0.33329
G1 X154.123 Y128.785 E0.05126
G1 X163.022 Y137.683 E0.39501
G1 X163.556 Y137.683 E0.01676
G1 X115.405 Y89.532 E2.13755
G1 X115.938 Y89.532 E0.01676
G1 X164.089 Y137.683 E2.13755
M73 Q3 S57
M73 P3 R56
G1 X164.623 Y137.683 E0.01676
G1 X116.472 Y89.532 E2.13755
G1 X117.006 Y89.532 E0.01676
G1 X165.157 Y137.683 E2.13755
G1 X165.691 Y137.683 E0.01676
G1 X117.540 Y89.532 E2.13755
G1 X118.074 Y89.532 E0.01676
G1 X166.225 Y137.683 E2.13755
G1 X166.759 Y137.683 E0.01676
G1 X118.608 Y89.532 E2.13755
G1 X119.142 Y89.532 E0.01676
G1 X167.293 Y137.683 E2.13755
G1 X167.827 Y137.683 E0.01676
G1 X119.676 Y89.532 E2.13755
G1 X120.210 Y89.532 E0.01676
G1 X168.361 Y137.683 E2.13755
G1 X168.894 Y137.683 E0.01676
G1 X120.743 Y89.532 E2.13755
G1 X121.277 Y89.532 E0.01676
G1 X169.428 Y137.683 E2.13755
G1 X169.620 Y137.683 E0.00603
G1 X169.620 Y137.341 E0.01073
G1 X121.811 Y89.532 E2.12237
G1 X122.345 Y89.532 E0.01676
G1 X169.620 Y136.807 E2.09867
G1 X169.620 Y136.273 E0.01676
G1 X122.879 Y89.532 E2.07497
G1 X123.413 Y89.532 E0.01676
G1 X169.620 Y135.739 E2.05127
G1 X169.620 Y135.205 E0.01676
G1 X123.947 Y89.532 E2.02757
G1 X124.481 Y89.532 E0.01676
G1 X169.620 Y134.672 E2.00387
G1 X169.620 Y134.138 E0.01676
G1 X125.014 Y89.532 E1.98017
G1 X125.548 Y89.532 E0.01676
G1 X169.620 Y133.604 E1.95647
M73 Q5 S56
M73 P5 R55
G1 X169.620 Y133.070 E0.01676
G1 X126.082 Y89.532 E1.93277
G1 X126.616 Y89.532 E0.01676
G1 X169.790 Y132.706 E1.91660
M204 S1000
G1 F8640.000
G1 X167.463 Y130.378 E-0.76000
G1 E-0.04000 F2100.00000
G1 Z0.800 F10800.000
G1 X169.790 Y125.765
G1 Z0.200
G1 E0.80000 F2100.00000
M204 S500
G1 F1200.000
G1 X169.378 Y125.354 E0.01827
G1 X168.755 Y125.264 E0.01979
G1 X169.620 Y126.129 E0.03843
G1 X169.620 Y126.663 E0.01676
G1 X168.131 Y125.174 E0.06613
G1 X167.895 Y125.140 E0.00749
G1 X167.456 Y125.033 E0.01417
G1 X169.620 Y127.197 E0.09609
G1 X169.620 Y127.731 E0.01676
G1 X166.750 Y124.861 E0.12742
G1 X166.044 Y124.689 E0.02281
G1 X169.620 Y128.265 E0.15876
G1 X169.620 Y128.799 E0.01676
G1 X165.250 Y124.428 E0.19401
G1 X164.431 Y124.144 E0.02720
G1 X169.620 Y129.333 E0.23035
G1 X169.620 Y129.867 E0.01676
G1 X163.543 Y123.790 E0.26977
G1 X162.554 Y123.334 E0.03420
G1 X169.620 Y130.400 E0.31370
G1 X169.620 Y130.934 E0.01676
G1 X161.413 Y122.727 E0.36433
G1 X160.303 Y122.080 E0.04035
G1 X160.047 Y121.895 E0.00989
G1 X169.620 Y131.468 E0.42496
G1 X169.620 Y132.002 E0.01676
G1 X127.150 Y89.532 E1.88537
G1 X127.684 Y89.532 E0.01676
G1 X154.350 Y116.198 E1.18379
G1 X153.492 Y114.806 E0.05135
G1 X128.218 Y89.532 E1.12197
G1 X128.752 Y89.532 E0.01676
