; generated by PrusaSlicer 2.2.0+ on 2020-11-08 at 16:09:14 UTC

; 

; external perimeters extrusion width = 0.60mm
; perimeters extrusion width = 0.50mm
; infill extrusion width = 0.50mm
; solid infill extrusion width = 0.50mm
; top infill extrusion width = 0.45mm
; first layer extrusion width = 0.42mm

M73 P0 R193
M73 Q0 S196
M201 X1000 Y1000 Z200 E5000 ; sets maximum accelerations, mm/sec^2
M203 X200 Y200 Z12 E120 ; sets maximum feedrates, mm/sec
M204 P1250 R1250 T1250 ; sets acceleration (P, T) and retract acceleration (R), mm/sec^2
M205 X8.00 Y8.00 Z0.40 E4.50 ; sets the jerk limits, mm/sec
M205 S0 T0 ; sets the minimum extruding and travel feed rate, mm/sec
M107
M862.3 P "MK3S" ; printer model check
M862.1 P0.4 ; nozzle diameter check
M115 U3.9.0 ; tell printer latest fw version
G90 ; use absolute coordinates
M83 ; extruder relative mode
M104 S230 ; set extruder temp
M140 S60 ; set bed temp
M190 S60 ; wait for bed temp
M109 S230 ; wait for extruder temp
G28 W ; home all without mesh bed level
G80 ; mesh bed leveling
G1 Y-3.0 F1000.0 ; go outside print area
G92 E0.0
G1 X60.0 E9.0 F1000.0 ; intro line
M73 Q0 S196
M73 P0 R193
G1 X100.0 E12.5 F1000.0 ; intro line
G92 E0.0
M221 S95
G21 ; set units to millimeters
G90 ; use absolute coordinates
M83 ; use relative distances for extrusion
M900 K0.06 ; Filament gcode LA 1.5
M900 K30 ; Filament gcode LA 1.0
;BEFORE_LAYER_CHANGE
G92 E0.0
;0.2


G1 E-0.80000 F2100.00000
G1 Z0.600 F10800.000
;AFTER_LAYER_CHANGE
;0.2
G1 X30.146 Y32.614
G1 Z0.200
G1 E0.80000 F2100.00000
M204 S500
G1 F1200.000
G1 X30.899 Y32.490 E0.02390
G1 X219.100 Y32.488 E5.90093
G1 X220.002 Y32.668 E0.02884
G1 X220.771 Y33.179 E0.02896
G1 X221.286 Y33.941 E0.02884
G1 X221.473 Y34.842 E0.02884
G1 X221.473 Y175.148 E4.39920
G1 X221.408 Y175.687 E0.01704
G1 X221.221 Y176.198 E0.01704
G1 X220.924 Y176.653 E0.01704
G1 X220.531 Y177.028 E0.01704
G1 X219.854 Y177.386 E0.02402
G1 X219.101 Y177.510 E0.02390
G1 X30.896 Y177.512 E5.90105
G1 X30.353 Y177.447 E0.01716
G1 X29.842 Y177.261 E0.01704
G1 X29.383 Y176.962 E0.01716
G1 X29.008 Y176.569 E0.01704
G1 X28.651 Y175.895 E0.02390
G1 X28.527 Y175.143 E0.02390
G1 X28.527 Y34.860 E4.39848
G1 X28.591 Y34.316 E0.01716
G1 X28.777 Y33.806 E0.01704
G1 X29.076 Y33.347 E0.01716
G1 X29.469 Y32.972 E0.01704
G1 X30.093 Y32.642 E0.02214
M204 S1000
G1 F8640.000
G1 X30.899 Y32.490 E-0.18921
G1 X33.371 Y32.490 E-0.57079
G1 E-0.04000 F2100.00000
G1 Z0.800 F10800.000
G1 X32.597 Y107.534
G1 Z0.200
G1 E0.80000 F2100.00000
M204 S500
G1 F1200.000
G1 X45.470 Y107.534 E0.40361
G1 X45.610 Y108.455 E0.02919
G1 X46.107 Y110.384 E0.06248
G1 X46.795 Y112.257 E0.06254
G1 X47.668 Y114.053 E0.06264
G1 X48.718 Y115.758 E0.06278
G1 X49.936 Y117.355 E0.06296
G1 X51.306 Y118.827 E0.06306
G1 X52.818 Y120.160 E0.06320
G1 X54.457 Y121.343 E0.06338
G1 X56.206 Y122.363 E0.06349
G1 X58.050 Y123.212 E0.06365
G1 X59.970 Y123.880 E0.06373
G1 X61.947 Y124.362 E0.06381
G1 X63.964 Y124.652 E0.06388
G1 X65.980 Y124.749 E0.06329
G1 X89.020 Y124.749 E0.72239
G1 X91.036 Y124.652 E0.06329
G1 X93.053 Y124.362 E0.06388
G1 X95.030 Y123.880 E0.06381
G1 X96.950 Y123.212 E0.06372
G1 X98.794 Y122.363 E0.06365
G1 X100.543 Y121.343 E0.06349
G1 X102.182 Y120.160 E0.06338
G1 X103.694 Y118.827 E0.06320
G1 X105.064 Y117.355 E0.06306
G1 X106.282 Y115.758 E0.06296
G1 X107.332 Y114.053 E0.06278
G1 X108.205 Y112.257 E0.06264
G1 X108.893 Y110.384 E0.06254
G1 X109.390 Y108.455 E0.06248
G1 X109.530 Y107.534 E0.02919
G1 X122.403 Y107.534 E0.40361
G1 X122.403 Y120.356 E0.40203
G1 X120.448 Y120.638 E0.06192
G1 X118.471 Y121.120 E0.06381
G1 X116.550 Y121.788 E0.06376
G1 X114.707 Y122.637 E0.06362
G1 X112.957 Y123.657 E0.06352
G1 X111.319 Y124.840 E0.06335
G1 X109.807 Y126.173 E0.06322
G1 X108.435 Y127.645 E0.06307
G1 X107.219 Y129.242 E0.06293
G1 X106.168 Y130.946 E0.06279
G1 X105.295 Y132.743 E0.06265
G1 X104.607 Y134.616 E0.06254
G1 X104.110 Y136.545 E0.06248
G1 X103.810 Y138.513 E0.06240
G1 X103.709 Y140.500 E0.06240
G1 X103.810 Y142.487 E0.06240
G1 X104.110 Y144.455 E0.06240
G1 X104.607 Y146.384 E0.06248
G1 X105.295 Y148.257 E0.06254
G1 X106.168 Y150.054 E0.06265
G1 X107.219 Y151.758 E0.06279
G1 X108.435 Y153.355 E0.06293
G1 X109.807 Y154.827 E0.06307
G1 X111.319 Y156.160 E0.06322
G1 X112.957 Y157.343 E0.06335
G1 X114.707 Y158.363 E0.06352
G1 X116.550 Y159.212 E0.06362
G1 X118.471 Y159.880 E0.06376
G1 X120.448 Y160.362 E0.06381
G1 X122.403 Y160.644 E0.06192
G1 X122.403 Y173.466 E0.40203
G1 X109.679 Y173.466 E0.39896
G1 X109.390 Y171.572 E0.06006
G1 X108.893 Y169.644 E0.06244
G1 X108.205 Y167.770 E0.06257
G1 X107.332 Y165.974 E0.06264
G1 X106.282 Y164.269 E0.06278
G1 X105.064 Y162.672 E0.06296
G1 X103.694 Y161.200 E0.06306
G1 X102.182 Y159.867 E0.06320
G1 X100.543 Y158.684 E0.06338
G1 X98.794 Y157.664 E0.06349
G1 X96.950 Y156.816 E0.06363
G1 X95.030 Y156.147 E0.06373
G1 X93.053 Y155.665 E0.06382
G1 X91.036 Y155.375 E0.06388
G1 X89.020 Y155.278 E0.06329
G1 X65.980 Y155.278 E0.72239
G1 X63.964 Y155.375 E0.06329
G1 X61.947 Y155.665 E0.06388
G1 X59.970 Y156.147 E0.06382
G1 X58.050 Y156.816 E0.06373
G1 X56.206 Y157.664 E0.06363
G1 X54.457 Y158.684 E0.06349
G1 X52.818 Y159.867 E0.06338
G1 X51.306 Y161.200 E0.06320
G1 X49.936 Y162.672 E0.06306
G1 X48.718 Y164.269 E0.06296
G1 X47.668 Y165.974 E0.06278
G1 X46.795 Y167.770 E0.06264
G1 X46.107 Y169.644 E0.06257
G1 X45.610 Y171.572 E0.06244
G1 X45.321 Y173.466 E0.06006
G1 X32.597 Y173.466 E0.39896
G1 X32.597 Y160.644 E0.40203
G1 X34.552 Y160.362 E0.06192
G1 X36.529 Y159.880 E0.06381
G1 X38.450 Y159.212 E0.06376
G1 X40.293 Y158.363 E0.06362
G1 X42.043 Y157.343 E0.06352
G1 X43.681 Y156.160 E0.06335
G1 X45.193 Y154.827 E0.06322
G1 X46.565 Y153.355 E0.06307
G1 X47.781 Y151.758 E0.06293
G1 X48.832 Y150.054 E0.06279
G1 X49.705 Y148.257 E0.06265
G1 X50.393 Y146.384 E0.06254
G1 X50.890 Y144.455 E0.06248
G1 X51.190 Y142.487 E0.06240
G1 X51.290 Y140.500 E0.06239
G1 X51.190 Y138.513 E0.06239
G1 X50.890 Y136.545 E0.06240
G1 X50.393 Y134.616 E0.06248
G1 X49.705 Y132.743 E0.06254
G1 X48.832 Y130.946 E0.06265
G1 X47.781 Y129.242 E0.06279
G1 X46.565 Y127.645 E0.06293
G1 X45.193 Y126.173 E0.06307
G1 X43.681 Y124.840 E0.06322
G1 X42.043 Y123.657 E0.06335
G1 X40.293 Y122.637 E0.06352
G1 X38.450 Y121.788 E0.06362
G1 X36.529 Y121.120 E0.06376
G1 X34.552 Y120.638 E0.06381
G1 X32.597 Y120.356 E0.06192
G1 X32.597 Y107.594 E0.40014
M204 S1000
G1 X32.220 Y107.157 F10800.000
M204 S500
G1 F1200.000
G1 X45.794 Y107.157 E0.42559
G1 X45.980 Y108.379 E0.03876
G1 X46.467 Y110.272 E0.06129
G1 X47.142 Y112.109 E0.06135
G1 X47.999 Y113.872 E0.06146
G1 X49.030 Y115.544 E0.06160
G1 X50.224 Y117.112 E0.06179
G1 X51.570 Y118.556 E0.06190
G1 X53.054 Y119.865 E0.06204
G1 X54.663 Y121.026 E0.06223
G1 X56.381 Y122.028 E0.06234
G1 X58.192 Y122.862 E0.06251
G1 X60.077 Y123.518 E0.06259
G1 X62.019 Y123.991 E0.06268
G1 X64.000 Y124.277 E0.06275
G1 X65.989 Y124.372 E0.06245
G1 X89.011 Y124.372 E0.72183
M73 Q0 S195
M73 P0 R192
G1 X91.000 Y124.277 E0.06245
G1 X92.981 Y123.991 E0.06275
G1 X94.923 Y123.518 E0.06268
G1 X96.808 Y122.862 E0.06259
G1 X98.619 Y122.028 E0.06251
G1 X100.337 Y121.026 E0.06234
G1 X101.946 Y119.865 E0.06223
G1 X103.430 Y118.556 E0.06204
G1 X104.776 Y117.112 E0.06190
G1 X105.970 Y115.544 E0.06179
G1 X107.001 Y113.872 E0.06160
G1 X107.858 Y112.109 E0.06146
G1 X108.533 Y110.272 E0.06135
G1 X109.020 Y108.379 E0.06129
G1 X109.207 Y107.157 E0.03876
G1 X122.780 Y107.157 E0.42559
G1 X122.780 Y120.710 E0.42494
G1 X122.500 Y120.723 E0.00880
G1 X120.520 Y121.009 E0.06272
G1 X118.578 Y121.482 E0.06268
G1 X116.692 Y122.138 E0.06262
G1 X114.882 Y122.972 E0.06248
G1 X113.163 Y123.974 E0.06237
G1 X111.555 Y125.135 E0.06220
G1 X110.070 Y126.444 E0.06206
G1 X108.724 Y127.888 E0.06190
G1 X107.531 Y129.456 E0.06177
G1 X106.499 Y131.128 E0.06161
G1 X105.642 Y132.891 E0.06146
G1 X104.967 Y134.728 E0.06135
G1 X104.480 Y136.621 E0.06129
G1 X104.186 Y138.551 E0.06121
G1 X104.086 Y140.500 E0.06120
G1 X104.186 Y142.449 E0.06120
G1 X104.480 Y144.379 E0.06121
G1 X104.967 Y146.272 E0.06129
G1 X105.642 Y148.109 E0.06135
G1 X106.499 Y149.872 E0.06146
G1 X107.531 Y151.544 E0.06161
G1 X108.724 Y153.112 E0.06177
G1 X110.070 Y154.556 E0.06190
G1 X111.555 Y155.865 E0.06206
G1 X113.163 Y157.026 E0.06220
G1 X114.882 Y158.028 E0.06237
G1 X116.692 Y158.862 E0.06248
G1 X118.578 Y159.518 E0.06262
G1 X120.520 Y159.991 E0.06268
G1 X122.500 Y160.277 E0.06272
G1 X122.780 Y160.290 E0.00880
G1 X122.780 Y173.843 E0.42494
G1 X109.328 Y173.843 E0.42179
G1 X109.314 Y173.578 E0.00832
G1 X109.020 Y171.648 E0.06121
G1 X108.533 Y169.756 E0.06126
G1 X107.858 Y167.918 E0.06138
G1 X107.001 Y166.155 E0.06146
G1 X105.970 Y164.483 E0.06160
G1 X104.776 Y162.915 E0.06179
G1 X103.430 Y161.471 E0.06190
G1 X101.946 Y160.162 E0.06204
G1 X100.337 Y159.001 E0.06223
G1 X98.619 Y157.999 E0.06234
G1 X96.808 Y157.166 E0.06249
G1 X94.923 Y156.509 E0.06259
G1 X92.981 Y156.036 E0.06268
G1 X91.000 Y155.750 E0.06275
G1 X89.011 Y155.655 E0.06245
G1 X65.989 Y155.655 E0.72183
G1 X64.000 Y155.750 E0.06245
G1 X62.019 Y156.036 E0.06275
G1 X60.077 Y156.509 E0.06268
G1 X58.192 Y157.166 E0.06259
G1 X56.381 Y157.999 E0.06249
G1 X54.663 Y159.001 E0.06234
G1 X53.054 Y160.162 E0.06223
G1 X51.570 Y161.471 E0.06204
G1 X50.224 Y162.915 E0.06190
G1 X49.030 Y164.483 E0.06179
G1 X47.999 Y166.155 E0.06160
G1 X47.142 Y167.918 E0.06146
G1 X46.467 Y169.756 E0.06138
G1 X45.980 Y171.648 E0.06126
G1 X45.686 Y173.578 E0.06121
G1 X45.672 Y173.843 E0.00832
G1 X32.220 Y173.843 E0.42179
G1 X32.220 Y160.290 E0.42494
G1 X32.500 Y160.277 E0.00880
G1 X34.480 Y159.991 E0.06272
G1 X36.422 Y159.518 E0.06268
G1 X38.308 Y158.862 E0.06262
G1 X40.118 Y158.028 E0.06248
G1 X41.837 Y157.026 E0.06237
G1 X43.445 Y155.865 E0.06220
G1 X44.930 Y154.556 E0.06206
G1 X46.276 Y153.112 E0.06190
G1 X47.469 Y151.544 E0.06177
G1 X48.501 Y149.872 E0.06161
G1 X49.358 Y148.109 E0.06146
G1 X50.033 Y146.272 E0.06135
G1 X50.520 Y144.379 E0.06129
G1 X50.814 Y142.449 E0.06121
G1 X50.913 Y140.500 E0.06120
G1 X50.814 Y138.551 E0.06120
G1 X50.520 Y136.621 E0.06121
G1 X50.033 Y134.728 E0.06129
G1 X49.358 Y132.891 E0.06135
G1 X48.501 Y131.128 E0.06146
G1 X47.469 Y129.456 E0.06161
G1 X46.276 Y127.888 E0.06177
G1 X44.930 Y126.444 E0.06190
G1 X43.445 Y125.135 E0.06206
G1 X41.837 Y123.974 E0.06220
G1 X40.118 Y122.972 E0.06237
G1 X38.308 Y122.138 E0.06248
G1 X36.422 Y121.482 E0.06262
G1 X34.480 Y121.009 E0.06268
G1 X32.500 Y120.723 E0.06272
G1 X32.220 Y120.710 E0.00880
G1 X32.220 Y107.217 E0.42305
M204 S1000
G1 X32.568 Y107.355 F10800.000
G1 F8640.000
G1 X35.511 Y107.203 E-0.76000
G1 E-0.04000 F2100.00000
G1 Z0.800 F10800.000
G1 X33.322 Y120.347
G1 Z0.200
G1 E0.80000 F2100.00000
M204 S500
G1 F1200.000
G1 X32.880 Y119.905 E0.01963
G1 X32.880 Y119.371 E0.01676
G1 X33.745 Y120.236 E0.03843
G1 X34.369 Y120.326 E0.01979
G1 X32.880 Y118.837 E0.06613
G1 X32.880 Y118.303 E0.01676
G1 X35.044 Y120.467 E0.09609
G1 X35.750 Y120.639 E0.02281
G1 X32.880 Y117.769 E0.12742
G1 X32.880 Y117.235 E0.01676
G1 X36.456 Y120.811 E0.15876
G1 X37.250 Y121.072 E0.02623
G1 X32.880 Y116.701 E0.19401
G1 X32.880 Y116.167 E0.01676
G1 X38.069 Y121.356 E0.23035
G1 X38.555 Y121.526 E0.01618
G1 X38.957 Y121.710 E0.01386
G1 X32.880 Y115.633 E0.26977
G1 X32.880 Y115.100 E0.01676
G1 X39.946 Y122.166 E0.31370
G1 X40.423 Y122.386 E0.01649
G1 X41.087 Y122.773 E0.02410
G1 X32.880 Y114.566 E0.36433
G1 X32.880 Y114.032 E0.01676
G1 X43.206 Y124.358 E0.45839
M204 S1000
G1 F8640.000
G1 X40.878 Y122.030 E-0.76000
G1 E-0.04000 F2100.00000
G1 Z0.800 F10800.000
G1 X53.572 Y120.843
G1 Z0.200
G1 E0.80000 F2100.00000
M204 S500
G1 F1200.000
G1 X87.724 Y154.995 E1.51609
G1 X88.258 Y154.995 E0.01676
G1 X55.599 Y122.336 E1.44983
G1 X56.076 Y122.614 E0.01733
G1 X56.697 Y122.900 E0.02147
G1 X88.792 Y154.995 E1.42478
G1 X89.341 Y155.010 E0.01724
G1 X57.686 Y123.355 E1.40524
G1 X57.945 Y123.474 E0.00894
G1 X58.549 Y123.685 E0.02010
G1 X89.902 Y155.037 E1.39181
G1 X90.462 Y155.064 E0.01762
G1 X59.368 Y123.970 E1.38035
G1 X59.890 Y124.151 E0.01734
G1 X60.146 Y124.214 E0.00827
G1 X91.023 Y155.091 E1.37072
G1 X91.642 Y155.176 E0.01962
G1 X60.852 Y124.386 E1.36688
G1 X61.558 Y124.558 E0.02281
G1 X92.266 Y155.266 E1.36323
G1 X92.890 Y155.356 E0.01978
G1 X62.221 Y124.687 E1.36150
G1 X62.844 Y124.777 E0.01978
G1 X93.568 Y155.500 E1.36388
G1 X94.273 Y155.672 E0.02281
G1 X63.468 Y124.867 E1.36752
G1 X64.076 Y124.941 E0.01923
G1 X94.979 Y155.844 E1.37186
G1 X95.778 Y156.108 E0.02640
G1 X64.637 Y124.968 E1.38241
G1 X65.198 Y124.995 E0.01762
G1 X96.597 Y156.394 E1.39389
G1 X97.055 Y156.554 E0.01523
G1 X97.491 Y156.754 E0.01505
G1 X65.759 Y125.022 E1.40868
G1 X66.303 Y125.032 E0.01708
G1 X98.479 Y157.208 E1.42839
M73 Q1 S194
M73 P1 R191
G1 X98.924 Y157.413 E0.01538
G1 X99.629 Y157.824 E0.02560
G1 X66.837 Y125.032 E1.45572
G1 X67.371 Y125.032 E0.01676
G1 X101.768 Y159.429 E1.52699
M204 S1000
G1 F8640.000
G1 X99.441 Y157.102 E-0.76000
G1 E-0.04000 F2100.00000
G1 Z0.800 F10800.000
G1 X109.672 Y172.672
G1 Z0.200
G1 E0.80000 F2100.00000
M204 S500
G1 F1200.000
G1 X110.183 Y173.183 E0.02267
G1 X110.717 Y173.183 E0.01676
G1 X109.779 Y172.245 E0.04164
G1 X109.683 Y171.615 E0.02000
G1 X111.251 Y173.183 E0.06960
G1 X111.785 Y173.183 E0.01676
G1 X109.512 Y170.910 E0.10090
G1 X109.326 Y170.191 E0.02331
G1 X112.318 Y173.183 E0.13282
G1 X112.852 Y173.183 E0.01676
G1 X109.126 Y169.457 E0.16542
G1 X108.816 Y168.613 E0.02822
G1 X113.386 Y173.183 E0.20289
G1 X113.920 Y173.183 E0.01676
G1 X108.506 Y167.769 E0.24036
G1 X108.026 Y166.755 E0.03521
G1 X114.454 Y173.183 E0.28536
G1 X114.988 Y173.183 E0.01676
G1 X107.480 Y165.675 E0.33330
G1 X106.623 Y164.285 E0.05126
G1 X115.522 Y173.183 E0.39502
G1 X116.056 Y173.183 E0.01676
G1 X67.905 Y125.032 E2.13755
G1 X68.438 Y125.032 E0.01676
G1 X116.589 Y173.183 E2.13755
G1 X117.123 Y173.183 E0.01676
G1 X68.972 Y125.032 E2.13755
G1 X69.506 Y125.032 E0.01676
G1 X117.657 Y173.183 E2.13755
G1 X118.191 Y173.183 E0.01676
G1 X70.040 Y125.032 E2.13755
G1 X70.574 Y125.032 E0.01676
G1 X118.725 Y173.183 E2.13755
G1 X119.259 Y173.183 E0.01676
G1 X71.108 Y125.032 E2.13755
G1 X71.642 Y125.032 E0.01676
G1 X119.793 Y173.183 E2.13755
G1 X120.327 Y173.183 E0.01676
G1 X72.176 Y125.032 E2.13755
G1 X72.710 Y125.032 E0.01676
G1 X120.861 Y173.183 E2.13755
G1 X121.394 Y173.183 E0.01676
G1 X73.243 Y125.032 E2.13755
G1 X73.777 Y125.032 E0.01676
G1 X121.928 Y173.183 E2.13755
G1 X122.120 Y173.183 E0.00603
G1 X122.120 Y172.841 E0.01073
G1 X74.311 Y125.032 E2.12237
G1 X74.845 Y125.032 E0.01676
G1 X122.120 Y172.307 E2.09867
G1 X122.120 Y171.773 E0.01676
G1 X75.379 Y125.032 E2.07497
M73 Q1 S193
M73 P1 R189
G1 X75.913 Y125.032 E0.01676
G1 X122.120 Y171.239 E2.05127
G1 X122.120 Y170.705 E0.01676
G1 X76.447 Y125.032 E2.02757
G1 X76.981 Y125.032 E0.01676
G1 X122.120 Y170.172 E2.00387
G1 X122.120 Y169.638 E0.01676
G1 X77.515 Y125.032 E1.98017
G1 X78.048 Y125.032 E0.01676
G1 X122.120 Y169.104 E1.95647
G1 X122.120 Y168.570 E0.01676
G1 X78.582 Y125.032 E1.93277
G1 X79.116 Y125.032 E0.01676
G1 X122.290 Y168.206 E1.91660
M204 S1000
G1 F8640.000
G1 X119.963 Y165.878 E-0.76000
G1 E-0.04000 F2100.00000
G1 Z0.800 F10800.000
G1 X122.290 Y161.265
G1 Z0.200
G1 E0.80000 F2100.00000
M204 S500
G1 F1200.000
G1 X121.878 Y160.854 E0.01827
G1 X121.255 Y160.764 E0.01979
G1 X122.120 Y161.629 E0.03843
G1 X122.120 Y162.163 E0.01676
G1 X120.631 Y160.674 E0.06613
G1 X120.395 Y160.640 E0.00749
G1 X119.956 Y160.533 E0.01417
G1 X122.120 Y162.697 E0.09609
G1 X122.120 Y163.231 E0.01676
G1 X119.250 Y160.361 E0.12742
G1 X118.544 Y160.189 E0.02281
G1 X122.120 Y163.765 E0.15876
G1 X122.120 Y164.299 E0.01676
G1 X117.750 Y159.928 E0.19401
G1 X116.931 Y159.644 E0.02720
G1 X122.120 Y164.833 E0.23035
G1 X122.120 Y165.367 E0.01676
G1 X116.043 Y159.290 E0.26977
G1 X115.054 Y158.834 E0.03420
G1 X122.120 Y165.900 E0.31370
G1 X122.120 Y166.434 E0.01676
G1 X113.913 Y158.227 E0.36433
G1 X112.803 Y157.580 E0.04035
G1 X112.547 Y157.395 E0.00989
G1 X122.120 Y166.968 E0.42496
G1 X122.120 Y167.502 E0.01676
G1 X79.650 Y125.032 E1.88537
G1 X80.184 Y125.032 E0.01676
G1 X106.850 Y151.698 E1.18379
