; generated by PrusaSlicer 2.2.0+ on 2020-11-08 at 16:09:19 UTC

; 

; external perimeters extrusion width = 0.60mm
; perimeters extrusion width = 0.50mm
; infill extrusion width = 0.50mm
; solid infill extrusion width = 0.50mm
; top infill extrusion width = 0.45mm
; first layer extrusion width = 0.42mm

M73 P0 R284
M73 Q0 S290
M201 X1000 Y1000 Z200 E5000 ; sets maximum accelerations, mm/sec^2
M203 X200 Y200 Z12 E120 ; sets maximum feedrates, mm/sec
M204 P1250 R1250 T1250 ; sets acceleration (P, T) and retract acceleration (R), mm/sec^2
M205 X8.00 Y8.00 Z0.40 E4.50 ; sets the jerk limits, mm/sec
M205 S0 T0 ; sets the minimum extruding and travel feed rate, mm/sec
M107
M862.3 P "MK3S" ; printer model check
M862.1 P0.4 ; nozzle diameter check
M115 U3.9.0 ; tell printer latest fw version
G90 ; use absolute coordinates
M83 ; extruder relative mode
M104 S230 ; set extruder temp
M140 S60 ; set bed temp
M190 S60 ; wait for bed temp
M109 S230 ; wait for extruder temp
G28 W ; home all without mesh bed level
G80 ; mesh bed leveling
G1 Y-3.0 F1000.0 ; go outside print area
G92 E0.0
G1 X60.0 E9.0 F1000.0 ; intro line
M73 Q0 S290
M73 P0 R284
G1 X100.0 E12.5 F1000.0 ; intro line
G92 E0.0
M221 S95
G21 ; set units to millimeters
G90 ; use absolute coordinates
M83 ; use relative distances for extrusion
M900 K0.06 ; Filament gcode LA 1.5
M900 K30 ; Filament gcode LA 1.0
;BEFORE_LAYER_CHANGE
G92 E0.0
;0.2


G1 E-0.80000 F2100.00000
G1 Z0.600 F10800.000
;AFTER_LAYER_CHANGE
;0.2
G1 X30.143 Y32.615
G1 Z0.200
G1 E0.80000 F2100.00000
M204 S500
G1 F1200.000
G1 X30.896 Y32.491 E0.02390
G1 X219.096 Y32.487 E5.90088
G1 X219.998 Y32.665 E0.02884
G1 X220.768 Y33.175 E0.02896
G1 X221.284 Y33.936 E0.02884
G1 X221.473 Y34.840 E0.02896
G1 X221.477 Y175.147 E4.39921
G1 X221.411 Y175.686 E0.01704
G1 X221.225 Y176.197 E0.01704
G1 X220.927 Y176.652 E0.01704
G1 X220.534 Y177.027 E0.01704
G1 X219.857 Y177.385 E0.02402
G1 X219.104 Y177.509 E0.02390
G1 X30.897 Y177.513 E5.90112
G1 X30.353 Y177.448 E0.01716
G1 X29.843 Y177.262 E0.01704
G1 X29.384 Y176.963 E0.01716
G1 X29.009 Y176.570 E0.01704
G1 X28.652 Y175.896 E0.02390
G1 X28.527 Y175.144 E0.02390
G1 X28.523 Y34.861 E4.39849
G1 X28.588 Y34.317 E0.01716
G1 X28.774 Y33.806 E0.01704
G1 X29.073 Y33.348 E0.01716
G1 X29.466 Y32.973 E0.01704
G1 X30.090 Y32.643 E0.02214
M204 S1000
G1 F8640.000
G1 X30.896 Y32.491 E-0.18921
G1 X33.368 Y32.491 E-0.57079
G1 E-0.04000 F2100.00000
G1 Z0.800 F10800.000
G1 X32.598 Y107.534
G1 Z0.200
G1 E0.80000 F2100.00000
M204 S500
G1 F1200.000
G1 X45.323 Y107.534 E0.39898
G1 X45.612 Y109.428 E0.06008
G1 X46.109 Y111.356 E0.06244
G1 X46.797 Y113.230 E0.06257
G1 X47.670 Y115.026 E0.06264
G1 X48.720 Y116.731 E0.06278
G1 X49.938 Y118.328 E0.06296
G1 X51.308 Y119.800 E0.06306
G1 X52.820 Y121.133 E0.06320
G1 X54.459 Y122.316 E0.06338
G1 X56.208 Y123.336 E0.06349
G1 X58.052 Y124.184 E0.06363
G1 X59.972 Y124.853 E0.06373
G1 X61.949 Y125.335 E0.06382
G1 X63.966 Y125.625 E0.06388
G1 X65.982 Y125.722 E0.06329
G1 X89.022 Y125.722 E0.72239
G1 X91.038 Y125.625 E0.06329
G1 X93.055 Y125.335 E0.06388
G1 X95.032 Y124.853 E0.06382
G1 X96.952 Y124.184 E0.06373
G1 X98.796 Y123.336 E0.06363
G1 X100.545 Y122.316 E0.06349
G1 X102.184 Y121.133 E0.06338
G1 X103.696 Y119.800 E0.06320
G1 X105.066 Y118.328 E0.06306
G1 X106.284 Y116.731 E0.06296
G1 X107.334 Y115.026 E0.06278
G1 X108.207 Y113.230 E0.06264
G1 X108.895 Y111.356 E0.06257
G1 X109.392 Y109.428 E0.06244
G1 X109.681 Y107.534 E0.06008
G1 X122.406 Y107.534 E0.39898
G1 X122.406 Y120.356 E0.40205
G1 X120.450 Y120.638 E0.06195
G1 X118.473 Y121.120 E0.06381
G1 X116.552 Y121.788 E0.06376
G1 X114.709 Y122.637 E0.06362
G1 X112.959 Y123.657 E0.06352
G1 X111.321 Y124.840 E0.06335
G1 X109.809 Y126.173 E0.06322
G1 X108.437 Y127.645 E0.06307
G1 X107.221 Y129.242 E0.06293
G1 X106.170 Y130.946 E0.06279
G1 X105.297 Y132.743 E0.06265
G1 X104.609 Y134.616 E0.06254
G1 X104.112 Y136.545 E0.06248
G1 X103.812 Y138.513 E0.06240
G1 X103.711 Y140.500 E0.06240
G1 X103.812 Y142.487 E0.06240
G1 X104.112 Y144.455 E0.06240
G1 X104.609 Y146.384 E0.06248
G1 X105.297 Y148.257 E0.06254
G1 X106.170 Y150.054 E0.06265
G1 X107.221 Y151.758 E0.06279
G1 X108.437 Y153.355 E0.06293
G1 X109.809 Y154.827 E0.06307
G1 X111.321 Y156.160 E0.06322
G1 X112.959 Y157.343 E0.06335
G1 X114.709 Y158.363 E0.06352
G1 X116.552 Y159.212 E0.06362
G1 X118.473 Y159.880 E0.06376
G1 X120.450 Y160.362 E0.06381
G1 X122.406 Y160.644 E0.06195
G1 X122.406 Y173.466 E0.40205
G1 X109.533 Y173.466 E0.40364
G1 X109.392 Y172.545 E0.02922
G1 X108.895 Y170.616 E0.06248
G1 X108.207 Y168.743 E0.06254
G1 X107.334 Y166.947 E0.06264
G1 X106.284 Y165.242 E0.06278
G1 X105.066 Y163.645 E0.06296
G1 X103.696 Y162.173 E0.06306
G1 X102.184 Y160.840 E0.06320
G1 X100.545 Y159.657 E0.06338
G1 X98.796 Y158.637 E0.06349
G1 X96.952 Y157.788 E0.06365
G1 X95.032 Y157.120 E0.06373
G1 X93.055 Y156.638 E0.06381
G1 X91.038 Y156.348 E0.06388
G1 X89.022 Y156.251 E0.06329
G1 X65.982 Y156.251 E0.72239
G1 X63.966 Y156.348 E0.06329
G1 X61.949 Y156.638 E0.06388
G1 X59.972 Y157.120 E0.06381
G1 X58.052 Y157.788 E0.06373
G1 X56.208 Y158.637 E0.06365
G1 X54.459 Y159.657 E0.06349
G1 X52.820 Y160.840 E0.06338
G1 X51.308 Y162.173 E0.06320
G1 X49.938 Y163.645 E0.06306
G1 X48.720 Y165.242 E0.06296
G1 X47.670 Y166.947 E0.06278
G1 X46.797 Y168.743 E0.06264
G1 X46.109 Y170.616 E0.06254
G1 X45.612 Y172.545 E0.06248
G1 X45.471 Y173.466 E0.02922
G1 X32.598 Y173.466 E0.40364
G1 X32.598 Y160.644 E0.40205
G1 X34.554 Y160.362 E0.06195
G1 X36.531 Y159.880 E0.06381
G1 X38.452 Y159.212 E0.06376
G1 X40.295 Y158.363 E0.06362
G1 X42.045 Y157.343 E0.06352
G1 X43.683 Y156.160 E0.06335
G1 X45.195 Y154.827 E0.06322
G1 X46.567 Y153.355 E0.06307
G1 X47.783 Y151.758 E0.06293
G1 X48.834 Y150.054 E0.06279
G1 X49.707 Y148.257 E0.06265
G1 X50.395 Y146.384 E0.06254
G1 X50.892 Y144.455 E0.06248
G1 X51.192 Y142.487 E0.06240
G1 X51.292 Y140.500 E0.06239
G1 X51.192 Y138.513 E0.06239
G1 X50.892 Y136.545 E0.06240
G1 X50.395 Y134.616 E0.06248
G1 X49.707 Y132.743 E0.06254
G1 X48.834 Y130.946 E0.06265
G1 X47.783 Y129.242 E0.06279
G1 X46.567 Y127.645 E0.06293
G1 X45.195 Y126.173 E0.06307
G1 X43.683 Y124.840 E0.06322
G1 X42.045 Y123.657 E0.06335
G1 X40.295 Y122.637 E0.06352
G1 X38.452 Y121.788 E0.06362
G1 X36.531 Y121.120 E0.06376
G1 X34.554 Y120.638 E0.06381
G1 X32.598 Y120.356 E0.06195
G1 X32.598 Y107.594 E0.40017
M204 S1000
G1 X32.221 Y107.156 F10800.000
M204 S500
G1 F1200.000
G1 X45.674 Y107.156 E0.42181
G1 X45.688 Y107.422 E0.00835
G1 X45.982 Y109.352 E0.06121
G1 X46.469 Y111.244 E0.06126
G1 X47.144 Y113.082 E0.06138
G1 X48.001 Y114.845 E0.06146
G1 X49.032 Y116.517 E0.06160
G1 X50.226 Y118.085 E0.06179
G1 X51.572 Y119.529 E0.06190
G1 X53.056 Y120.838 E0.06204
G1 X54.665 Y121.999 E0.06223
G1 X56.383 Y123.001 E0.06234
G1 X58.194 Y123.834 E0.06249
G1 X60.079 Y124.491 E0.06259
G1 X62.021 Y124.964 E0.06268
G1 X64.002 Y125.250 E0.06275
G1 X65.991 Y125.345 E0.06245
M73 Q0 S289
G1 X89.013 Y125.345 E0.72183
M73 P0 R283
G1 X91.002 Y125.250 E0.06245
G1 X92.983 Y124.964 E0.06275
G1 X94.925 Y124.491 E0.06268
G1 X96.810 Y123.834 E0.06259
G1 X98.621 Y123.001 E0.06249
G1 X100.339 Y121.999 E0.06234
G1 X101.948 Y120.838 E0.06223
G1 X103.432 Y119.529 E0.06204
G1 X104.778 Y118.085 E0.06190
G1 X105.972 Y116.517 E0.06179
G1 X107.003 Y114.845 E0.06160
G1 X107.860 Y113.082 E0.06146
G1 X108.535 Y111.244 E0.06138
G1 X109.022 Y109.352 E0.06126
G1 X109.316 Y107.422 E0.06121
G1 X109.330 Y107.156 E0.00835
G1 X122.783 Y107.156 E0.42182
G1 X122.783 Y120.710 E0.42496
G1 X122.502 Y120.723 E0.00883
G1 X120.522 Y121.009 E0.06272
G1 X118.580 Y121.482 E0.06268
G1 X116.694 Y122.138 E0.06262
G1 X114.884 Y122.972 E0.06248
G1 X113.165 Y123.974 E0.06237
G1 X111.557 Y125.135 E0.06220
G1 X110.072 Y126.444 E0.06206
G1 X108.726 Y127.888 E0.06190
G1 X107.533 Y129.456 E0.06177
G1 X106.501 Y131.128 E0.06161
G1 X105.644 Y132.891 E0.06146
G1 X104.969 Y134.728 E0.06135
G1 X104.482 Y136.621 E0.06129
G1 X104.188 Y138.551 E0.06121
G1 X104.088 Y140.500 E0.06120
G1 X104.188 Y142.449 E0.06120
G1 X104.482 Y144.379 E0.06121
G1 X104.969 Y146.272 E0.06129
G1 X105.644 Y148.109 E0.06135
G1 X106.501 Y149.872 E0.06146
G1 X107.533 Y151.544 E0.06161
G1 X108.726 Y153.112 E0.06177
G1 X110.072 Y154.556 E0.06190
G1 X111.557 Y155.865 E0.06206
G1 X113.165 Y157.026 E0.06220
G1 X114.884 Y158.028 E0.06237
G1 X116.694 Y158.862 E0.06248
G1 X118.580 Y159.518 E0.06262
G1 X120.522 Y159.991 E0.06268
G1 X122.502 Y160.277 E0.06272
G1 X122.783 Y160.290 E0.00883
G1 X122.783 Y173.844 E0.42496
G1 X109.209 Y173.844 E0.42562
G1 X109.022 Y172.621 E0.03878
G1 X108.535 Y170.728 E0.06129
G1 X107.860 Y168.891 E0.06135
G1 X107.003 Y167.128 E0.06146
G1 X105.972 Y165.456 E0.06160
G1 X104.778 Y163.888 E0.06179
G1 X103.432 Y162.444 E0.06190
G1 X101.948 Y161.135 E0.06204
G1 X100.339 Y159.974 E0.06223
G1 X98.621 Y158.972 E0.06234
G1 X96.810 Y158.138 E0.06251
G1 X94.925 Y157.482 E0.06259
G1 X92.983 Y157.009 E0.06268
G1 X91.002 Y156.723 E0.06275
G1 X89.013 Y156.628 E0.06245
G1 X65.991 Y156.628 E0.72183
G1 X64.002 Y156.723 E0.06245
G1 X62.021 Y157.009 E0.06275
G1 X60.079 Y157.482 E0.06268
G1 X58.194 Y158.138 E0.06259
G1 X56.383 Y158.972 E0.06251
G1 X54.665 Y159.974 E0.06234
G1 X53.056 Y161.135 E0.06223
G1 X51.572 Y162.444 E0.06204
G1 X50.226 Y163.888 E0.06190
G1 X49.032 Y165.456 E0.06179
G1 X48.001 Y167.128 E0.06160
G1 X47.144 Y168.891 E0.06146
G1 X46.469 Y170.728 E0.06135
G1 X45.982 Y172.621 E0.06129
G1 X45.795 Y173.844 E0.03878
G1 X32.221 Y173.844 E0.42562
G1 X32.221 Y160.290 E0.42496
G1 X32.502 Y160.277 E0.00883
G1 X34.482 Y159.991 E0.06272
G1 X36.424 Y159.518 E0.06268
G1 X38.310 Y158.862 E0.06262
G1 X40.120 Y158.028 E0.06248
G1 X41.839 Y157.026 E0.06237
G1 X43.447 Y155.865 E0.06220
G1 X44.932 Y154.556 E0.06206
G1 X46.278 Y153.112 E0.06190
G1 X47.471 Y151.544 E0.06177
G1 X48.503 Y149.872 E0.06161
G1 X49.360 Y148.109 E0.06146
G1 X50.035 Y146.272 E0.06135
G1 X50.522 Y144.379 E0.06129
G1 X50.816 Y142.449 E0.06121
G1 X50.915 Y140.500 E0.06120
G1 X50.816 Y138.551 E0.06120
G1 X50.522 Y136.621 E0.06121
G1 X50.035 Y134.728 E0.06129
G1 X49.360 Y132.891 E0.06135
G1 X48.503 Y131.128 E0.06146
G1 X47.471 Y129.456 E0.06161
G1 X46.278 Y127.888 E0.06177
G1 X44.932 Y126.444 E0.06190
G1 X43.447 Y125.135 E0.06206
G1 X41.839 Y123.974 E0.06220
G1 X40.120 Y122.972 E0.06237
G1 X38.310 Y122.138 E0.06248
G1 X36.424 Y121.482 E0.06262
G1 X34.482 Y121.009 E0.06268
G1 X32.502 Y120.723 E0.06272
G1 X32.221 Y120.710 E0.00883
G1 X32.221 Y107.216 E0.42308
M204 S1000
G1 X32.569 Y107.354 F10800.000
G1 F8640.000
G1 X35.512 Y107.202 E-0.76000
G1 E-0.04000 F2100.00000
G1 Z0.800 F10800.000
G1 X45.330 Y108.328
G1 Z0.200
G1 E0.80000 F2100.00000
M204 S500
G1 F1200.000
G1 X44.818 Y107.816 E0.02270
G1 X44.284 Y107.816 E0.01676
G1 X45.223 Y108.755 E0.04168
G1 X45.319 Y109.385 E0.02000
G1 X43.751 Y107.816 E0.06964
G1 X43.217 Y107.816 E0.01676
G1 X45.490 Y110.090 E0.10094
G1 X45.676 Y110.809 E0.02331
G1 X42.683 Y107.816 E0.13286
G1 X42.149 Y107.816 E0.01676
G1 X45.876 Y111.543 E0.16546
G1 X46.186 Y112.387 E0.02823
G1 X41.615 Y107.816 E0.20293
G1 X41.081 Y107.816 E0.01676
G1 X46.496 Y113.231 E0.24040
G1 X46.976 Y114.245 E0.03521
G1 X40.547 Y107.816 E0.28540
G1 X40.013 Y107.816 E0.01676
G1 X47.522 Y115.325 E0.33334
G1 X48.379 Y116.715 E0.05126
G1 X39.479 Y107.816 E0.39507
G1 X38.946 Y107.816 E0.01676
G1 X87.097 Y155.968 E2.13763
G1 X86.563 Y155.968 E0.01676
G1 X38.412 Y107.816 E2.13763
G1 X37.878 Y107.816 E0.01676
G1 X86.030 Y155.968 E2.13763
G1 X85.496 Y155.968 E0.01676
G1 X37.344 Y107.816 E2.13763
G1 X36.810 Y107.816 E0.01676
G1 X84.962 Y155.968 E2.13763
G1 X84.428 Y155.968 E0.01676
G1 X36.276 Y107.816 E2.13763
G1 X35.742 Y107.816 E0.01676
G1 X83.894 Y155.968 E2.13763
G1 X83.360 Y155.968 E0.01676
G1 X35.208 Y107.816 E2.13763
G1 X34.674 Y107.816 E0.01676
G1 X82.826 Y155.968 E2.13763
G1 X82.292 Y155.968 E0.01676
G1 X34.140 Y107.816 E2.13763
G1 X33.607 Y107.816 E0.01676
G1 X81.758 Y155.968 E2.13763
G1 X81.225 Y155.968 E0.01676
G1 X33.073 Y107.816 E2.13763
M73 Q0 S288
M73 P0 R282
G1 X32.881 Y107.816 E0.00602
G1 X32.881 Y108.158 E0.01074
G1 X80.691 Y155.968 E2.12245
G1 X80.157 Y155.968 E0.01676
G1 X32.881 Y108.692 E2.09875
G1 X32.881 Y109.226 E0.01676
G1 X79.623 Y155.968 E2.07504
G1 X79.089 Y155.968 E0.01676
G1 X32.881 Y109.760 E2.05134
G1 X32.881 Y110.294 E0.01676
G1 X78.555 Y155.968 E2.02764
G1 X78.021 Y155.968 E0.01676
G1 X32.881 Y110.828 E2.00394
G1 X32.881 Y111.362 E0.01676
G1 X77.487 Y155.968 E1.98024
G1 X76.953 Y155.968 E0.01676
G1 X32.881 Y111.896 E1.95654
G1 X32.881 Y112.430 E0.01676
G1 X76.419 Y155.968 E1.93283
G1 X75.886 Y155.968 E0.01676
G1 X32.881 Y112.963 E1.90913
G1 X32.881 Y113.497 E0.01676
G1 X75.352 Y155.968 E1.88543
G1 X74.818 Y155.968 E0.01676
G1 X48.152 Y129.303 E1.18378
G1 X49.011 Y130.695 E0.05136
G1 X74.284 Y155.968 E1.12196
G1 X73.750 Y155.968 E0.01676
G1 X49.545 Y131.763 E1.07454
G1 X49.968 Y132.633 E0.03034
G1 X50.018 Y132.770 E0.00461
G1 X73.216 Y155.968 E1.02983
G1 X72.682 Y155.968 E0.01676
G1 X50.329 Y133.615 E0.99235
G1 X50.639 Y134.459 E0.02824
G1 X72.148 Y155.968 E0.95487
G1 X71.614 Y155.968 E0.01676
G1 X50.835 Y135.189 E0.92248
G1 X51.020 Y135.908 E0.02331
G1 X71.081 Y155.968 E0.89056
G1 X70.547 Y155.968 E0.01676
G1 X51.188 Y136.609 E0.85940
G1 X51.284 Y137.239 E0.02000
G1 X70.013 Y155.968 E0.83143
G1 X69.479 Y155.968 E0.01676
G1 X51.380 Y137.869 E0.80347
G1 X51.474 Y138.498 E0.01994
G1 X68.945 Y155.968 E0.77558
G1 X68.411 Y155.968 E0.01676
G1 X51.503 Y139.060 E0.75062
G1 X51.531 Y139.622 E0.01767
G1 X67.877 Y155.968 E0.72566
G1 X67.343 Y155.968 E0.01676
G1 X51.559 Y140.184 E0.70070
G1 X51.575 Y140.500 E0.00993
G1 X51.564 Y140.723 E0.00700
G1 X66.809 Y155.968 E0.67680
G1 X66.275 Y155.968 E0.01676
G1 X51.538 Y141.231 E0.65423
M73 Q1 S287
M73 P1 R281
G1 X51.513 Y141.739 E0.01598
G1 X65.752 Y155.979 E0.63214
G1 X65.243 Y156.003 E0.01601
G1 X51.487 Y142.248 E0.61066
G1 X51.440 Y142.735 E0.01536
G1 X64.733 Y156.028 E0.59012
G1 X64.224 Y156.052 E0.01601
G1 X51.370 Y143.198 E0.57064
G1 X51.299 Y143.661 E0.01471
G1 X63.733 Y156.095 E0.55200
G1 X63.267 Y156.163 E0.01480
G1 X51.229 Y144.125 E0.53442
G1 X51.152 Y144.581 E0.01454
G1 X62.800 Y156.230 E0.51712
G1 X62.333 Y156.297 E0.01480
G1 X51.042 Y145.006 E0.50126
G1 X50.933 Y145.431 E0.01376
G1 X61.869 Y156.367 E0.48550
G1 X61.440 Y156.471 E0.01387
G1 X50.824 Y145.855 E0.47129
G1 X50.714 Y146.280 E0.01376
G1 X61.011 Y156.576 E0.45709
G1 X60.581 Y156.681 E0.01387
G1 X50.586 Y146.685 E0.44372
G1 X50.443 Y147.076 E0.01306
G1 X60.152 Y156.785 E0.43104
G1 X59.736 Y156.903 E0.01358
G1 X50.299 Y147.466 E0.41893
G1 X50.155 Y147.857 E0.01306
G1 X59.340 Y157.041 E0.40772
G1 X58.944 Y157.179 E0.01316
G1 X50.012 Y148.247 E0.39651
G1 X49.847 Y148.616 E0.01269
G1 X58.548 Y157.316 E0.38625
G1 X58.151 Y157.454 E0.01316
G1 X49.672 Y148.975 E0.37642
G1 X49.498 Y149.334 E0.01254
G1 X57.770 Y157.607 E0.36724
G1 X57.404 Y157.775 E0.01263
G1 X49.323 Y149.694 E0.35876
G1 X49.148 Y150.053 E0.01254
G1 X57.039 Y157.943 E0.35029
G1 X56.673 Y158.112 E0.01263
G1 X48.956 Y150.394 E0.34260
G1 X48.752 Y150.724 E0.01218
G1 X56.308 Y158.280 E0.33541
G1 X55.953 Y158.459 E0.01248
G1 X48.549 Y151.055 E0.32869
G1 X48.345 Y151.385 E0.01218
G1 X55.615 Y158.655 E0.32276
G1 X55.278 Y158.852 E0.01225
G1 X48.141 Y151.715 E0.31684
G1 X47.927 Y152.035 E0.01208
G1 X54.941 Y159.049 E0.31137
G1 X54.604 Y159.246 E0.01225
G1 X47.696 Y152.338 E0.30665
G1 X47.466 Y152.641 E0.01196
G1 X54.270 Y159.445 E0.30207
G1 X53.960 Y159.669 E0.01200
G1 X47.235 Y152.944 E0.29855
G1 X47.004 Y153.247 E0.01196
G1 X53.650 Y159.893 E0.29503
G1 X53.339 Y160.117 E0.01200
G1 X46.772 Y153.549 E0.29156
G1 X46.514 Y153.826 E0.01186
G1 X53.029 Y160.341 E0.28922
G1 X52.719 Y160.564 E0.01200
G1 X46.257 Y154.102 E0.28688
G1 X46.000 Y154.379 E0.01186
G1 X52.429 Y160.808 E0.28543
G1 X52.145 Y161.058 E0.01187
G1 X45.742 Y154.655 E0.28427
G1 X45.485 Y154.931 E0.01186
G1 X51.862 Y161.308 E0.28310
G1 X51.578 Y161.559 E0.01187
G1 X45.210 Y155.191 E0.28269
G1 X44.926 Y155.441 E0.01187
G1 X51.294 Y161.809 E0.28269
G1 X51.020 Y162.068 E0.01186
