; generated by PrusaSlicer 2.2.0+ on 2020-11-08 at 16:09:22 UTC

; 

; external perimeters extrusion width = 0.60mm
; perimeters extrusion width = 0.50mm
; infill extrusion width = 0.50mm
; solid infill extrusion width = 0.50mm
; top infill extrusion width = 0.45mm
; first layer extrusion width = 0.42mm

M73 P0 R111
M73 Q0 S112
M201 X1000 Y1000 Z200 E5000 ; sets maximum accelerations, mm/sec^2
M203 X200 Y200 Z12 E120 ; sets maximum feedrates, mm/sec
M204 P1250 R1250 T1250 ; sets acceleration (P, T) and retract acceleration (R), mm/sec^2
M205 X8.00 Y8.00 Z0.40 E4.50 ; sets the jerk limits, mm/sec
M205 S0 T0 ; sets the minimum extruding and travel feed rate, mm/sec
M107
M862.3 P "MK3S" ; printer model check
M862.1 P0.4 ; nozzle diameter check
M115 U3.9.0 ; tell printer latest fw version
G90 ; use absolute coordinates
M83 ; extruder relative mode
M104 S230 ; set extruder temp
M140 S60 ; set bed temp
M190 S60 ; wait for bed temp
M109 S230 ; wait for extruder temp
G28 W ; home all without mesh bed level
G80 ; mesh bed leveling
G1 Y-3.0 F1000.0 ; go outside print area
G92 E0.0
G1 X60.0 E9.0 F1000.0 ; intro line
M73 Q0 S111
M73 P0 R111
G1 X100.0 E12.5 F1000.0 ; intro line
G92 E0.0
M221 S95
G21 ; set units to millimeters
G90 ; use absolute coordinates
M83 ; use relative distances for extrusion
M900 K0.06 ; Filament gcode LA 1.5
M900 K30 ; Filament gcode LA 1.0
;BEFORE_LAYER_CHANGE
G92 E0.0
;0.2


G1 E-0.80000 F2100.00000
G1 Z0.600 F10800.000
;AFTER_LAYER_CHANGE
;0.2
G1 X91.280 Y39.614
G1 Z0.200
G1 E0.80000 F2100.00000
M204 S500
G1 F1200.000
G1 X91.775 Y39.194 E0.02036
G1 X92.366 Y38.924 E0.02036
G1 X93.003 Y38.823 E0.02024
G1 X156.954 Y38.823 E2.00513
G1 X157.856 Y39.002 E0.02884
G1 X158.620 Y39.508 E0.02872
G1 X159.135 Y40.265 E0.02872
G1 X159.327 Y41.161 E0.02872
G1 X159.327 Y168.794 E4.00184
G1 X159.265 Y169.330 E0.01692
G1 X159.083 Y169.838 E0.01692
G1 X158.720 Y170.376 E0.02036
G1 X158.225 Y170.796 E0.02036
G1 X157.634 Y171.066 E0.02036
G1 X156.989 Y171.167 E0.02048
G1 X94.024 Y171.177 E1.97422
G1 X92.752 Y171.148 E0.03989
G1 X92.001 Y170.923 E0.02461
G1 X91.460 Y170.557 E0.02048
G1 X91.037 Y170.054 E0.02060
G1 X90.768 Y169.455 E0.02060
G1 X90.673 Y168.809 E0.02048
G1 X90.673 Y41.196 E4.00120
G1 X90.735 Y40.660 E0.01692
G1 X90.917 Y40.152 E0.01692
G1 X91.246 Y39.663 E0.01848
M204 S1000
G1 F8640.000
G1 X91.775 Y39.194 E-0.16331
G1 X92.366 Y38.924 E-0.14993
G1 X93.003 Y38.823 E-0.14905
G1 X94.293 Y38.823 E-0.29771
G1 E-0.04000 F2100.00000
G1 Z0.800 F10800.000
G1 X93.806 Y152.278
G1 Z0.200
G1 E0.80000 F2100.00000
M204 S500
G1 F1200.000
G1 X94.501 Y152.355 E0.02194
G1 X95.031 Y152.384 E0.01663
G1 X96.045 Y152.389 E0.03181
G1 X154.462 Y152.389 E1.83162
G1 X155.492 Y152.355 E0.03233
G1 X156.194 Y152.278 E0.02214
G1 X156.163 Y153.332 E0.03304
G1 X156.163 Y168.003 E0.46001
G1 X93.837 Y168.003 E1.95418
G1 X93.837 Y153.332 E0.46001
G1 X93.809 Y152.338 E0.03116
M204 S1000
G1 F8640.000
G1 X94.501 Y152.355 E-0.15979
G1 X95.031 Y152.384 E-0.12248
G1 X96.045 Y152.389 E-0.23425
G1 X97.100 Y152.389 E-0.24349
G1 E-0.04000 F2100.00000
G1 Z0.800 F10800.000
G1 X93.804 Y49.123
G1 Z0.200
G1 E0.80000 F2100.00000
M204 S500
G1 F1200.000
G1 X93.836 Y48.188 E0.02934
G1 X93.837 Y41.987 E0.19442
G1 X156.163 Y41.987 E1.95419
G1 X156.163 Y47.182 E0.16289
G1 X156.170 Y48.694 E0.04739
G1 X156.194 Y49.123 E0.01347
G1 X155.492 Y49.046 E0.02213
G1 X154.462 Y49.012 E0.03233
G1 X96.045 Y49.012 E1.83162
G1 X95.031 Y49.017 E0.03181
G1 X94.501 Y49.046 E0.01663
G1 X93.864 Y49.116 E0.02010
M204 S1000
G1 X93.905 Y49.491 F10800.000
M204 S500
G1 F1200.000
G1 X94.532 Y49.422 E0.01978
G1 X95.042 Y49.394 E0.01602
G1 X96.046 Y49.389 E0.03148
G1 X154.456 Y49.389 E1.83139
G1 X155.466 Y49.422 E0.03168
G1 X156.261 Y49.509 E0.02510
G1 X156.261 Y65.096 E0.48870
G1 X156.227 Y66.097 E0.03140
G1 X156.146 Y66.685 E0.01864
G1 X156.227 Y67.274 E0.01864
G1 X156.261 Y68.275 E0.03140
G1 X156.261 Y81.599 E0.41776
G1 X156.256 Y82.592 E0.03112
G1 X156.227 Y83.099 E0.01592
G1 X156.144 Y83.700 E0.01904
G1 X156.227 Y84.304 E0.01911
G1 X156.261 Y85.305 E0.03140
G1 X156.256 Y99.622 E0.44888
G1 X156.227 Y100.129 E0.01592
G1 X156.148 Y100.700 E0.01809
G1 X156.227 Y101.274 E0.01817
G1 X156.261 Y102.275 E0.03140
G1 X156.261 Y115.599 E0.41776
G1 X156.256 Y116.592 E0.03112
G1 X156.227 Y117.099 E0.01592
G1 X156.144 Y117.700 E0.01904
G1 X156.227 Y118.304 E0.01911
G1 X156.261 Y119.305 E0.03140
G1 X156.256 Y133.622 E0.44888
G1 X156.227 Y134.129 E0.01592
G1 X156.146 Y134.715 E0.01856
G1 X156.227 Y135.304 E0.01864
G1 X156.261 Y136.305 E0.03140
G1 X156.261 Y151.892 E0.48870
G1 X155.466 Y151.979 E0.02510
G1 X154.456 Y152.012 E0.03168
G1 X96.046 Y152.012 E1.83139
G1 X95.042 Y152.007 E0.03148
G1 X94.532 Y151.979 E0.01602
G1 X93.739 Y151.892 E0.02503
G1 X93.739 Y136.305 E0.48870
G1 X93.773 Y135.304 E0.03140
G1 X93.854 Y134.715 E0.01864
G1 X93.773 Y134.127 E0.01864
G1 X93.739 Y133.126 E0.03140
G1 X93.739 Y119.802 E0.41776
G1 X93.744 Y118.809 E0.03112
G1 X93.773 Y118.302 E0.01592
G1 X93.856 Y117.700 E0.01904
G1 X93.773 Y117.097 E0.01911
G1 X93.739 Y116.096 E0.03140
G1 X93.744 Y101.779 E0.44888
G1 X93.773 Y101.272 E0.01592
G1 X93.852 Y100.700 E0.01809
G1 X93.773 Y100.127 E0.01817
G1 X93.739 Y99.126 E0.03140
G1 X93.739 Y85.802 E0.41776
G1 X93.744 Y84.809 E0.03112
G1 X93.773 Y84.302 E0.01592
G1 X93.856 Y83.700 E0.01904
G1 X93.773 Y83.097 E0.01911
G1 X93.739 Y82.096 E0.03140
G1 X93.744 Y67.779 E0.44888
G1 X93.773 Y67.272 E0.01592
G1 X93.854 Y66.685 E0.01856
G1 X93.773 Y66.097 E0.01864
G1 X93.739 Y65.096 E0.03140
G1 X93.739 Y49.509 E0.48870
G1 X93.845 Y49.498 E0.00337
M204 S1000
G1 X93.877 Y49.092 F10800.000
G1 F8640.000
G1 X94.532 Y49.422 E-0.15949
G1 X95.042 Y49.394 E-0.11796
G1 X96.046 Y49.389 E-0.23186
G1 X97.132 Y49.389 E-0.25069
G1 E-0.04000 F2100.00000
G1 Z0.800 F10800.000
G1 X93.460 Y41.610
G1 Z0.200
G1 E0.80000 F2100.00000
M204 S500
G1 F1200.000
G1 X156.540 Y41.610 E1.97783
M73 Q0 S110
M73 P0 R110
G1 X156.547 Y48.682 E0.22175
G1 X156.576 Y49.193 E0.01603
G1 X156.635 Y49.686 E0.01558
G1 X156.639 Y50.172 E0.01523
G1 X156.639 Y151.343 E3.17215
G1 X156.624 Y151.830 E0.01526
G1 X156.568 Y152.328 E0.01573
G1 X156.540 Y153.337 E0.03164
G1 X156.540 Y168.380 E0.47167
G1 X93.460 Y168.380 E1.97783
G1 X93.460 Y153.337 E0.47167
G1 X93.432 Y152.328 E0.03164
G1 X93.376 Y151.830 E0.01573
G1 X93.361 Y151.343 E0.01526
G1 X93.361 Y50.172 E3.17215
G1 X93.365 Y49.686 E0.01523
G1 X93.425 Y49.190 E0.01565
G1 X93.459 Y48.181 E0.03166
G1 X93.460 Y41.670 E0.20415
M204 S1000
G1 X93.806 Y41.811 F10800.000
G1 F8640.000
G1 X96.751 Y41.667 E-0.76000
G1 E-0.04000 F2100.00000
G1 Z0.800 F10800.000
G1 X93.947 Y48.258
G1 Z0.200
G1 E0.80000 F2100.00000
M204 S500
G1 F1200.000
G1 X94.456 Y48.767 E0.02265
G1 X94.962 Y48.738 E0.01598
G1 X94.119 Y47.895 E0.03755
G1 X94.119 Y47.359 E0.01687
G1 X95.492 Y48.732 E0.06115
G1 X96.025 Y48.729 E0.01678
G1 X94.119 Y46.824 E0.08488
G1 X94.119 Y46.288 E0.01687
G1 X96.560 Y48.729 E0.10873
G1 X97.096 Y48.729 E0.01687
G1 X94.119 Y45.752 E0.13259
G1 X94.119 Y45.217 E0.01687
G1 X97.632 Y48.729 E0.15645
G1 X98.168 Y48.729 E0.01687
G1 X94.120 Y44.681 E0.18030
G1 X94.120 Y44.146 E0.01687
G1 X98.703 Y48.729 E0.20416
G1 X99.239 Y48.729 E0.01687
G1 X94.120 Y43.610 E0.22802
G1 X94.120 Y43.074 E0.01687
G1 X99.775 Y48.729 E0.25188
G1 X100.310 Y48.729 E0.01687
G1 X94.120 Y42.539 E0.27573
G1 X94.120 Y42.270 E0.00847
G1 X94.387 Y42.270 E0.00840
G1 X100.846 Y48.729 E0.28771
G1 X101.382 Y48.729 E0.01687
G1 X94.922 Y42.270 E0.28771
G1 X95.458 Y42.270 E0.01687
G1 X101.917 Y48.729 E0.28771
G1 X102.453 Y48.729 E0.01687
G1 X95.994 Y42.270 E0.28771
G1 X96.529 Y42.270 E0.01687
G1 X102.989 Y48.729 E0.28771
G1 X103.524 Y48.729 E0.01687
G1 X97.065 Y42.270 E0.28771
G1 X97.601 Y42.270 E0.01687
G1 X104.060 Y48.729 E0.28771
G1 X104.596 Y48.729 E0.01687
G1 X98.136 Y42.270 E0.28771
G1 X98.672 Y42.270 E0.01687
G1 X105.131 Y48.729 E0.28771
G1 X105.667 Y48.729 E0.01687
G1 X99.208 Y42.270 E0.28771
G1 X99.743 Y42.270 E0.01687
G1 X106.203 Y48.729 E0.28771
G1 X106.738 Y48.729 E0.01687
G1 X100.279 Y42.270 E0.28771
G1 X100.815 Y42.270 E0.01687
G1 X107.274 Y48.729 E0.28771
G1 X107.810 Y48.729 E0.01687
G1 X101.350 Y42.270 E0.28771
G1 X101.886 Y42.270 E0.01687
G1 X108.345 Y48.729 E0.28771
G1 X108.881 Y48.729 E0.01687
G1 X102.422 Y42.270 E0.28771
G1 X102.957 Y42.270 E0.01687
G1 X109.417 Y48.729 E0.28771
G1 X109.952 Y48.729 E0.01687
G1 X103.493 Y42.270 E0.28771
G1 X104.029 Y42.270 E0.01687
G1 X110.488 Y48.729 E0.28771
G1 X111.024 Y48.729 E0.01687
G1 X104.564 Y42.270 E0.28771
G1 X105.100 Y42.270 E0.01687
G1 X111.559 Y48.729 E0.28771
G1 X112.095 Y48.729 E0.01687
G1 X105.636 Y42.270 E0.28771
G1 X106.171 Y42.270 E0.01687
G1 X112.631 Y48.729 E0.28771
G1 X113.167 Y48.729 E0.01687
G1 X106.707 Y42.270 E0.28771
G1 X107.243 Y42.270 E0.01687
G1 X113.702 Y48.729 E0.28771
G1 X114.238 Y48.729 E0.01687
G1 X107.778 Y42.270 E0.28771
G1 X108.314 Y42.270 E0.01687
G1 X114.774 Y48.729 E0.28771
G1 X115.309 Y48.729 E0.01687
G1 X108.850 Y42.270 E0.28771
G1 X109.386 Y42.270 E0.01687
G1 X115.845 Y48.729 E0.28771
G1 X116.381 Y48.729 E0.01687
G1 X109.921 Y42.270 E0.28771
G1 X110.457 Y42.270 E0.01687
G1 X116.916 Y48.729 E0.28771
G1 X117.452 Y48.729 E0.01687
G1 X110.993 Y42.270 E0.28771
G1 X111.528 Y42.270 E0.01687
G1 X117.988 Y48.729 E0.28771
G1 X118.523 Y48.729 E0.01687
G1 X112.064 Y42.270 E0.28771
G1 X112.600 Y42.270 E0.01687
G1 X119.059 Y48.729 E0.28771
G1 X119.595 Y48.729 E0.01687
G1 X113.135 Y42.270 E0.28771
G1 X113.671 Y42.270 E0.01687
G1 X120.130 Y48.729 E0.28771
G1 X120.666 Y48.729 E0.01687
G1 X114.207 Y42.270 E0.28771
G1 X114.742 Y42.270 E0.01687
G1 X121.202 Y48.729 E0.28771
G1 X121.737 Y48.729 E0.01687
G1 X115.278 Y42.270 E0.28771
G1 X115.814 Y42.270 E0.01687
G1 X122.273 Y48.729 E0.28771
G1 X122.809 Y48.729 E0.01687
G1 X116.349 Y42.270 E0.28771
G1 X116.885 Y42.270 E0.01687
G1 X123.344 Y48.729 E0.28771
G1 X123.880 Y48.729 E0.01687
G1 X117.421 Y42.270 E0.28771
G1 X117.956 Y42.270 E0.01687
G1 X124.416 Y48.729 E0.28771
G1 X124.951 Y48.729 E0.01687
G1 X118.492 Y42.270 E0.28771
G1 X119.028 Y42.270 E0.01687
G1 X125.487 Y48.729 E0.28771
G1 X126.023 Y48.729 E0.01687
G1 X119.563 Y42.270 E0.28771
G1 X120.099 Y42.270 E0.01687
G1 X126.558 Y48.729 E0.28771
G1 X127.094 Y48.729 E0.01687
G1 X120.635 Y42.270 E0.28772
G1 X121.170 Y42.270 E0.01687
G1 X127.630 Y48.729 E0.28772
G1 X128.166 Y48.729 E0.01687
G1 X121.706 Y42.270 E0.28772
G1 X122.242 Y42.270 E0.01687
G1 X128.701 Y48.729 E0.28772
G1 X129.237 Y48.729 E0.01687
G1 X122.777 Y42.270 E0.28772
G1 X123.313 Y42.270 E0.01687
G1 X129.773 Y48.729 E0.28772
G1 X130.308 Y48.729 E0.01687
G1 X123.849 Y42.270 E0.28772
G1 X124.384 Y42.270 E0.01687
G1 X130.844 Y48.729 E0.28772
G1 X131.380 Y48.729 E0.01687
G1 X124.920 Y42.270 E0.28772
G1 X125.456 Y42.270 E0.01687
G1 X131.915 Y48.729 E0.28772
G1 X132.451 Y48.729 E0.01687
G1 X125.991 Y42.270 E0.28772
G1 X126.527 Y42.270 E0.01687
G1 X132.987 Y48.729 E0.28772
G1 X133.522 Y48.729 E0.01687
G1 X127.063 Y42.270 E0.28772
G1 X127.598 Y42.270 E0.01687
G1 X134.058 Y48.729 E0.28772
G1 X134.594 Y48.729 E0.01687
G1 X128.134 Y42.270 E0.28772
G1 X128.670 Y42.270 E0.01687
G1 X135.129 Y48.729 E0.28772
G1 X135.665 Y48.729 E0.01687
G1 X129.206 Y42.270 E0.28772
G1 X129.741 Y42.270 E0.01687
G1 X136.201 Y48.729 E0.28772
G1 X136.736 Y48.729 E0.01687
G1 X130.277 Y42.270 E0.28772
G1 X130.813 Y42.270 E0.01687
G1 X137.272 Y48.729 E0.28772
G1 X137.808 Y48.729 E0.01687
G1 X131.348 Y42.270 E0.28772
G1 X131.884 Y42.270 E0.01687
G1 X138.343 Y48.729 E0.28772
G1 X138.879 Y48.729 E0.01687
G1 X132.420 Y42.270 E0.28772
G1 X132.955 Y42.270 E0.01687
G1 X139.415 Y48.729 E0.28772
G1 X139.950 Y48.729 E0.01687
G1 X133.491 Y42.270 E0.28772
G1 X134.027 Y42.270 E0.01687
G1 X140.486 Y48.729 E0.28772
G1 X141.022 Y48.729 E0.01687
G1 X134.562 Y42.270 E0.28772
G1 X135.098 Y42.270 E0.01687
G1 X141.557 Y48.729 E0.28772
G1 X142.093 Y48.729 E0.01687
G1 X135.634 Y42.270 E0.28772
G1 X136.169 Y42.270 E0.01687
G1 X142.629 Y48.729 E0.28772
G1 X143.165 Y48.729 E0.01687
G1 X136.705 Y42.270 E0.28772
M73 Q1 S109
M73 P1 R109
G1 X137.241 Y42.270 E0.01687
G1 X143.700 Y48.729 E0.28772
G1 X144.236 Y48.729 E0.01687
G1 X137.776 Y42.270 E0.28772
G1 X138.312 Y42.270 E0.01687
G1 X144.772 Y48.729 E0.28772
G1 X145.307 Y48.729 E0.01687
G1 X138.848 Y42.270 E0.28772
G1 X139.383 Y42.270 E0.01687
G1 X145.843 Y48.729 E0.28772
G1 X146.379 Y48.729 E0.01687
G1 X139.919 Y42.270 E0.28772
G1 X140.455 Y42.270 E0.01687
G1 X146.914 Y48.729 E0.28772
G1 X147.450 Y48.729 E0.01687
G1 X140.990 Y42.270 E0.28772
G1 X141.526 Y42.270 E0.01687
G1 X147.986 Y48.729 E0.28772
G1 X148.521 Y48.729 E0.01687
G1 X142.062 Y42.270 E0.28772
G1 X142.597 Y42.270 E0.01687
G1 X149.057 Y48.729 E0.28772
G1 X149.593 Y48.729 E0.01687
G1 X143.133 Y42.270 E0.28772
G1 X143.669 Y42.270 E0.01687
G1 X150.128 Y48.729 E0.28772
G1 X150.664 Y48.729 E0.01687
G1 X144.204 Y42.270 E0.28772
G1 X144.740 Y42.270 E0.01687
G1 X151.200 Y48.729 E0.28772
G1 X151.735 Y48.729 E0.01687
G1 X145.276 Y42.270 E0.28772
G1 X145.811 Y42.270 E0.01687
G1 X152.271 Y48.729 E0.28772
G1 X152.807 Y48.729 E0.01687
G1 X146.347 Y42.270 E0.28772
G1 X146.883 Y42.270 E0.01687
G1 X153.342 Y48.729 E0.28772
G1 X153.878 Y48.729 E0.01687
G1 X147.418 Y42.270 E0.28772
G1 X147.954 Y42.270 E0.01687
G1 X154.414 Y48.729 E0.28772
G1 X154.966 Y48.746 E0.01739
G1 X148.490 Y42.270 E0.28844
G1 X149.026 Y42.270 E0.01687
G1 X155.520 Y48.764 E0.28927
G1 X155.893 Y48.805 E0.01183
G1 X155.887 Y48.596 E0.00660
G1 X149.561 Y42.270 E0.28176
G1 X150.097 Y42.270 E0.01687
G1 X155.884 Y48.057 E0.25778
G1 X155.882 Y47.519 E0.01695
G1 X150.633 Y42.270 E0.23381
G1 X151.168 Y42.270 E0.01687
G1 X155.880 Y46.982 E0.20988
G1 X155.880 Y46.446 E0.01687
G1 X151.704 Y42.270 E0.18602
G1 X152.240 Y42.270 E0.01687
G1 X155.880 Y45.910 E0.16216
G1 X155.880 Y45.375 E0.01687
G1 X152.775 Y42.270 E0.13830
G1 X153.311 Y42.270 E0.01687
G1 X155.880 Y44.839 E0.11444
G1 X155.880 Y44.303 E0.01687
G1 X153.847 Y42.270 E0.09058
G1 X154.382 Y42.270 E0.01687
G1 X155.880 Y43.768 E0.06672
G1 X155.880 Y43.232 E0.01687
G1 X154.918 Y42.270 E0.04286
G1 X155.454 Y42.270 E0.01687
G1 X156.050 Y42.866 E0.02656
M204 S1000
G1 F8640.000
G1 X155.454 Y42.270 E-0.19468
G1 X154.918 Y42.270 E-0.12369
G1 X155.880 Y43.232 E-0.31420
G1 X155.880 Y43.768 E-0.12369
G1 X155.869 Y43.756 E-0.00374
G1 E-0.04000 F2100.00000
G1 Z0.800 F10800.000
G1 X156.427 Y66.204
G1 Z0.200
G1 E0.80000 F2100.00000
M204 S500
G1 F1200.000
G1 X156.394 Y66.685 E0.00327
G1 X156.427 Y67.167 E0.00327
M204 S1000
G1 F8640.000
G1 X156.394 Y66.685 E-0.11139
G1 X156.427 Y66.204 E-0.11139
G1 E-0.57722 F2100.00000
G1 Z0.800 F10800.000
G1 X156.427 Y83.204
G1 Z0.200
G1 E0.80000 F2100.00000
M204 S500
G1 F1200.000
G1 X156.393 Y83.700 E0.00342
G1 X156.427 Y84.197 E0.00342
M204 S1000
G1 F8640.000
G1 X156.393 Y83.700 E-0.11486
G1 X156.427 Y83.204 E-0.11486
G1 E-0.57028 F2100.00000
G1 Z0.800 F10800.000
G1 X156.427 Y100.234
G1 Z0.200
G1 E0.80000 F2100.00000
M204 S500
G1 F1200.000
G1 X156.395 Y100.700 E0.00313
G1 X156.427 Y101.167 E0.00313
M204 S1000
G1 F8640.000
G1 X156.395 Y100.700 E-0.10792
G1 X156.427 Y100.234 E-0.10792
G1 E-0.58416 F2100.00000
G1 Z0.800 F10800.000
G1 X156.427 Y117.204
G1 Z0.200
G1 E0.80000 F2100.00000
M204 S500
G1 F1200.000
G1 X156.393 Y117.700 E0.00342
G1 X156.427 Y118.197 E0.00342
M204 S1000
G1 F8640.000
G1 X156.393 Y117.700 E-0.11486
G1 X156.427 Y117.204 E-0.11486
G1 E-0.57028 F2100.00000
G1 Z0.800 F10800.000
G1 X156.427 Y134.234
G1 Z0.200
G1 E0.80000 F2100.00000
M204 S500
G1 F1200.000
G1 X156.394 Y134.715 E0.00327
G1 X156.427 Y135.197 E0.00327
M204 S1000
G1 F8640.000
G1 X156.394 Y134.715 E-0.11139
G1 X156.427 Y134.234 E-0.11139
G1 E-0.57722 F2100.00000
G1 Z0.800 F10800.000
G1 X156.055 Y153.148
G1 Z0.200
G1 E0.80000 F2100.00000
M204 S500
G1 F1200.000
G1 X155.542 Y152.634 E0.02287
G1 X155.025 Y152.653 E0.01629
G1 X155.880 Y153.509 E0.03811
G1 X155.880 Y154.045 E0.01688
G1 X154.506 Y152.670 E0.06123
G1 X153.972 Y152.672 E0.01684
G1 X155.880 Y154.580 E0.08504
G1 X155.880 Y155.116 E0.01688
G1 X153.436 Y152.672 E0.10891
G1 X152.900 Y152.672 E0.01688
