; generated by PrusaSlicer 2.2.0+ on 2020-11-08 at 16:09:20 UTC

; 

; external perimeters extrusion width = 0.60mm
; perimeters extrusion width = 0.50mm
; infill extrusion width = 0.50mm
; solid infill extrusion width = 0.50mm
; top infill extrusion width = 0.45mm
; first layer extrusion width = 0.42mm

M73 P0 R119
M73 Q0 S119
M201 X1000 Y1000 Z200 E5000 ; sets maximum accelerations, mm/sec^2
M203 X200 Y200 Z12 E120 ; sets maximum feedrates, mm/sec
M204 P1250 R1250 T1250 ; sets acceleration (P, T) and retract acceleration (R), mm/sec^2
M205 X8.00 Y8.00 Z0.40 E4.50 ; sets the jerk limits, mm/sec
M205 S0 T0 ; sets the minimum extruding and travel feed rate, mm/sec
M107
M862.3 P "MK3S" ; printer model check
M862.1 P0.4 ; nozzle diameter check
M115 U3.9.0 ; tell printer latest fw version
G90 ; use absolute coordinates
M83 ; extruder relative mode
M104 S230 ; set extruder temp
M140 S60 ; set bed temp
M190 S60 ; wait for bed temp
M109 S230 ; wait for extruder temp
G28 W ; home all without mesh bed level
G80 ; mesh bed leveling
G1 Y-3.0 F1000.0 ; go outside print area
G92 E0.0
G1 X60.0 E9.0 F1000.0 ; intro line
M73 Q0 S119
M73 P0 R118
G1 X100.0 E12.5 F1000.0 ; intro line
G92 E0.0
M221 S95
G21 ; set units to millimeters
G90 ; use absolute coordinates
M83 ; use relative distances for extrusion
M900 K0.06 ; Filament gcode LA 1.5
M900 K30 ; Filament gcode LA 1.0
;BEFORE_LAYER_CHANGE
G92 E0.0
;0.2


G1 E-0.80000 F2100.00000
G1 Z0.600 F10800.000
;AFTER_LAYER_CHANGE
;0.2
G1 X91.280 Y39.614
G1 Z0.200
G1 E0.80000 F2100.00000
M204 S500
G1 F1200.000
G1 X91.775 Y39.194 E0.02036
G1 X92.366 Y38.924 E0.02036
G1 X93.003 Y38.823 E0.02024
G1 X156.954 Y38.823 E2.00513
G1 X157.856 Y39.002 E0.02884
G1 X158.620 Y39.508 E0.02872
G1 X159.135 Y40.265 E0.02872
G1 X159.327 Y41.161 E0.02872
G1 X159.327 Y168.794 E4.00184
G1 X159.265 Y169.330 E0.01692
G1 X159.083 Y169.838 E0.01692
G1 X158.720 Y170.376 E0.02036
G1 X158.225 Y170.796 E0.02036
G1 X157.634 Y171.066 E0.02036
G1 X156.989 Y171.167 E0.02048
G1 X94.024 Y171.177 E1.97422
G1 X92.752 Y171.148 E0.03989
G1 X92.001 Y170.923 E0.02461
G1 X91.457 Y170.554 E0.02060
G1 X91.037 Y170.054 E0.02048
G1 X90.769 Y169.459 E0.02048
G1 X90.673 Y168.809 E0.02060
G1 X90.673 Y41.196 E4.00120
G1 X90.735 Y40.660 E0.01692
G1 X90.917 Y40.152 E0.01692
G1 X91.246 Y39.663 E0.01848
M204 S1000
G1 F8640.000
G1 X91.775 Y39.194 E-0.16331
G1 X92.366 Y38.924 E-0.14993
G1 X93.003 Y38.823 E-0.14905
G1 X94.293 Y38.823 E-0.29771
G1 E-0.04000 F2100.00000
G1 Z0.800 F10800.000
G1 X93.806 Y152.278
G1 Z0.200
G1 E0.80000 F2100.00000
M204 S500
G1 F1200.000
G1 X94.501 Y152.355 E0.02194
G1 X95.031 Y152.384 E0.01663
G1 X96.045 Y152.389 E0.03181
G1 X154.462 Y152.389 E1.83162
G1 X155.492 Y152.355 E0.03233
G1 X156.194 Y152.278 E0.02214
G1 X156.163 Y153.332 E0.03304
G1 X156.163 Y168.003 E0.46001
G1 X93.837 Y168.003 E1.95418
G1 X93.837 Y153.332 E0.46001
G1 X93.809 Y152.338 E0.03116
M204 S1000
G1 F8640.000
G1 X94.501 Y152.355 E-0.15979
G1 X95.031 Y152.384 E-0.12248
G1 X96.045 Y152.389 E-0.23425
G1 X97.100 Y152.389 E-0.24349
G1 E-0.04000 F2100.00000
G1 Z0.800 F10800.000
G1 X93.804 Y49.122
G1 Z0.200
G1 E0.80000 F2100.00000
M204 S500
G1 F1200.000
G1 X93.836 Y48.188 E0.02931
G1 X93.837 Y41.987 E0.19442
G1 X156.163 Y41.987 E1.95419
G1 X156.163 Y47.182 E0.16289
G1 X156.170 Y48.694 E0.04739
G1 X156.194 Y49.122 E0.01344
G1 X155.492 Y49.045 E0.02213
G1 X154.462 Y49.011 E0.03233
G1 X96.045 Y49.011 E1.83162
G1 X95.031 Y49.016 E0.03181
G1 X94.501 Y49.045 E0.01663
G1 X93.864 Y49.115 E0.02010
M204 S1000
G1 X93.905 Y49.490 F10800.000
M204 S500
G1 F1200.000
G1 X94.532 Y49.421 E0.01978
G1 X95.042 Y49.393 E0.01602
G1 X96.046 Y49.388 E0.03148
G1 X154.456 Y49.388 E1.83139
G1 X155.466 Y49.421 E0.03168
G1 X156.261 Y49.508 E0.02510
G1 X156.261 Y65.095 E0.48870
G1 X156.227 Y66.096 E0.03140
G1 X156.146 Y66.685 E0.01864
G1 X156.227 Y67.274 E0.01864
G1 X156.261 Y68.275 E0.03140
G1 X156.261 Y81.599 E0.41778
G1 X156.256 Y82.592 E0.03113
G1 X156.227 Y83.099 E0.01593
G1 X156.144 Y83.700 E0.01902
G1 X156.227 Y84.303 E0.01910
G1 X156.261 Y85.304 E0.03140
G1 X156.256 Y99.621 E0.44888
G1 X156.227 Y100.128 E0.01592
G1 X156.148 Y100.700 E0.01809
G1 X156.227 Y101.274 E0.01817
G1 X156.261 Y102.275 E0.03140
G1 X156.261 Y115.599 E0.41778
G1 X156.256 Y116.592 E0.03113
G1 X156.227 Y117.099 E0.01593
G1 X156.144 Y117.700 E0.01902
G1 X156.227 Y118.304 E0.01910
G1 X156.261 Y119.305 E0.03140
G1 X156.256 Y133.622 E0.44891
G1 X156.227 Y134.129 E0.01593
G1 X156.146 Y134.715 E0.01855
G1 X156.227 Y135.304 E0.01863
G1 X156.261 Y136.305 E0.03140
G1 X156.261 Y151.892 E0.48872
G1 X155.466 Y151.979 E0.02510
G1 X154.456 Y152.012 E0.03168
G1 X96.046 Y152.012 E1.83139
G1 X95.042 Y152.007 E0.03148
G1 X94.532 Y151.979 E0.01602
G1 X93.739 Y151.892 E0.02503
G1 X93.739 Y136.305 E0.48872
G1 X93.773 Y135.304 E0.03140
G1 X93.854 Y134.715 E0.01863
G1 X93.773 Y134.126 E0.01863
G1 X93.739 Y133.125 E0.03140
G1 X93.739 Y119.801 E0.41778
G1 X93.744 Y118.808 E0.03113
G1 X93.773 Y118.301 E0.01593
G1 X93.856 Y117.700 E0.01902
G1 X93.773 Y117.096 E0.01910
G1 X93.739 Y116.095 E0.03140
G1 X93.744 Y101.778 E0.44891
G1 X93.773 Y101.271 E0.01593
G1 X93.852 Y100.700 E0.01809
G1 X93.773 Y100.126 E0.01817
G1 X93.739 Y99.125 E0.03140
G1 X93.739 Y85.801 E0.41776
G1 X93.744 Y84.808 E0.03112
G1 X93.773 Y84.301 E0.01592
G1 X93.856 Y83.700 E0.01902
G1 X93.773 Y83.097 E0.01910
G1 X93.739 Y82.095 E0.03140
G1 X93.744 Y67.778 E0.44891
G1 X93.773 Y67.271 E0.01593
G1 X93.854 Y66.685 E0.01856
G1 X93.773 Y66.096 E0.01864
G1 X93.739 Y65.095 E0.03140
G1 X93.739 Y49.508 E0.48870
G1 X93.845 Y49.497 E0.00337
M204 S1000
G1 X93.877 Y49.091 F10800.000
G1 F8640.000
G1 X94.532 Y49.421 E-0.15951
G1 X95.042 Y49.393 E-0.11796
G1 X96.046 Y49.388 E-0.23186
G1 X97.132 Y49.388 E-0.25067
G1 E-0.04000 F2100.00000
G1 Z0.800 F10800.000
G1 X93.460 Y41.610
G1 Z0.200
G1 E0.80000 F2100.00000
M204 S500
G1 F1200.000
G1 X156.540 Y41.610 E1.97783
M73 Q0 S118
M73 P0 R117
G1 X156.547 Y48.682 E0.22175
G1 X156.576 Y49.193 E0.01603
G1 X156.635 Y49.686 E0.01558
G1 X156.639 Y50.172 E0.01524
G1 X156.639 Y151.343 E3.17215
G1 X156.624 Y151.830 E0.01526
G1 X156.568 Y152.328 E0.01573
G1 X156.540 Y153.337 E0.03164
G1 X156.540 Y168.380 E0.47167
G1 X93.460 Y168.380 E1.97783
G1 X93.460 Y153.337 E0.47167
G1 X93.432 Y152.328 E0.03164
G1 X93.376 Y151.830 E0.01573
G1 X93.361 Y151.343 E0.01526
G1 X93.361 Y50.172 E3.17215
G1 X93.365 Y49.686 E0.01524
G1 X93.425 Y49.190 E0.01565
G1 X93.459 Y48.181 E0.03166
G1 X93.460 Y41.670 E0.20415
M204 S1000
G1 X93.806 Y41.811 F10800.000
G1 F8640.000
G1 X96.751 Y41.667 E-0.76000
G1 E-0.04000 F2100.00000
G1 Z0.800 F10800.000
G1 X93.947 Y48.258
G1 Z0.200
G1 E0.80000 F2100.00000
M204 S500
G1 F1200.000
G1 X94.455 Y48.766 E0.02264
G1 X94.962 Y48.737 E0.01598
G1 X94.119 Y47.894 E0.03755
G1 X94.119 Y47.358 E0.01687
G1 X95.492 Y48.731 E0.06114
G1 X96.025 Y48.728 E0.01678
G1 X94.119 Y46.823 E0.08487
G1 X94.119 Y46.287 E0.01687
G1 X96.560 Y48.728 E0.10873
G1 X97.096 Y48.728 E0.01687
G1 X94.119 Y45.752 E0.13258
G1 X94.119 Y45.216 E0.01687
G1 X97.632 Y48.728 E0.15644
G1 X98.167 Y48.728 E0.01687
G1 X94.120 Y44.680 E0.18030
G1 X94.120 Y44.145 E0.01687
G1 X98.703 Y48.728 E0.20415
G1 X99.239 Y48.728 E0.01687
G1 X94.120 Y43.609 E0.22801
G1 X94.120 Y43.073 E0.01687
G1 X99.774 Y48.728 E0.25187
G1 X100.310 Y48.728 E0.01687
G1 X94.120 Y42.538 E0.27572
G1 X94.120 Y42.270 E0.00844
G1 X94.387 Y42.270 E0.00843
G1 X100.846 Y48.728 E0.28766
G1 X101.381 Y48.728 E0.01687
G1 X94.923 Y42.270 E0.28766
G1 X95.459 Y42.270 E0.01687
G1 X101.917 Y48.728 E0.28766
G1 X102.453 Y48.728 E0.01687
G1 X95.994 Y42.270 E0.28766
G1 X96.530 Y42.270 E0.01687
G1 X102.988 Y48.728 E0.28766
G1 X103.524 Y48.728 E0.01687
G1 X97.066 Y42.270 E0.28766
G1 X97.601 Y42.270 E0.01687
G1 X104.060 Y48.728 E0.28766
G1 X104.595 Y48.728 E0.01687
G1 X98.137 Y42.270 E0.28766
G1 X98.673 Y42.270 E0.01687
G1 X105.131 Y48.728 E0.28766
G1 X105.667 Y48.728 E0.01687
G1 X99.208 Y42.270 E0.28766
G1 X99.744 Y42.270 E0.01687
G1 X106.202 Y48.728 E0.28766
G1 X106.738 Y48.728 E0.01687
G1 X100.280 Y42.270 E0.28766
G1 X100.815 Y42.270 E0.01687
G1 X107.274 Y48.728 E0.28766
G1 X107.809 Y48.728 E0.01687
G1 X101.351 Y42.270 E0.28766
G1 X101.887 Y42.270 E0.01687
G1 X108.345 Y48.728 E0.28766
G1 X108.881 Y48.728 E0.01687
G1 X102.422 Y42.270 E0.28766
G1 X102.958 Y42.270 E0.01687
G1 X109.416 Y48.728 E0.28766
G1 X109.952 Y48.728 E0.01687
G1 X103.494 Y42.270 E0.28766
G1 X104.029 Y42.270 E0.01687
G1 X110.488 Y48.728 E0.28766
G1 X111.023 Y48.728 E0.01687
G1 X104.565 Y42.270 E0.28766
G1 X105.101 Y42.270 E0.01687
G1 X111.559 Y48.728 E0.28766
G1 X112.095 Y48.728 E0.01687
G1 X105.636 Y42.270 E0.28766
G1 X106.172 Y42.270 E0.01687
G1 X112.631 Y48.728 E0.28766
G1 X113.166 Y48.728 E0.01687
G1 X106.708 Y42.270 E0.28766
G1 X107.243 Y42.270 E0.01687
G1 X113.702 Y48.728 E0.28766
G1 X114.238 Y48.728 E0.01687
G1 X107.779 Y42.270 E0.28766
G1 X108.315 Y42.270 E0.01687
G1 X114.773 Y48.728 E0.28766
G1 X115.309 Y48.728 E0.01687
G1 X108.850 Y42.270 E0.28766
G1 X109.386 Y42.270 E0.01687
G1 X115.845 Y48.728 E0.28766
G1 X116.380 Y48.728 E0.01687
G1 X109.922 Y42.270 E0.28766
G1 X110.457 Y42.270 E0.01687
G1 X116.916 Y48.728 E0.28766
G1 X117.452 Y48.728 E0.01687
G1 X110.993 Y42.270 E0.28766
G1 X111.529 Y42.270 E0.01687
G1 X117.987 Y48.728 E0.28767
G1 X118.523 Y48.728 E0.01687
G1 X112.064 Y42.270 E0.28767
G1 X112.600 Y42.270 E0.01687
G1 X119.059 Y48.728 E0.28767
G1 X119.594 Y48.728 E0.01687
G1 X113.136 Y42.270 E0.28767
G1 X113.671 Y42.270 E0.01687
G1 X120.130 Y48.728 E0.28767
G1 X120.666 Y48.728 E0.01687
G1 X114.207 Y42.270 E0.28767
G1 X114.743 Y42.270 E0.01687
G1 X121.201 Y48.728 E0.28767
G1 X121.737 Y48.728 E0.01687
G1 X115.278 Y42.270 E0.28767
G1 X115.814 Y42.270 E0.01687
G1 X122.273 Y48.728 E0.28767
G1 X122.808 Y48.728 E0.01687
G1 X116.350 Y42.270 E0.28767
G1 X116.885 Y42.270 E0.01687
G1 X123.344 Y48.728 E0.28767
G1 X123.880 Y48.728 E0.01687
G1 X117.421 Y42.270 E0.28767
G1 X117.957 Y42.270 E0.01687
G1 X124.415 Y48.728 E0.28767
G1 X124.951 Y48.728 E0.01687
G1 X118.492 Y42.270 E0.28767
G1 X119.028 Y42.270 E0.01687
G1 X125.487 Y48.728 E0.28767
G1 X126.022 Y48.728 E0.01687
G1 X119.564 Y42.270 E0.28767
G1 X120.099 Y42.270 E0.01687
G1 X126.558 Y48.728 E0.28767
G1 X127.094 Y48.728 E0.01687
G1 X120.635 Y42.270 E0.28767
G1 X121.171 Y42.270 E0.01687
G1 X127.629 Y48.728 E0.28767
G1 X128.165 Y48.728 E0.01687
G1 X121.707 Y42.270 E0.28767
G1 X122.242 Y42.270 E0.01687
G1 X128.701 Y48.728 E0.28767
G1 X129.236 Y48.728 E0.01687
G1 X122.778 Y42.270 E0.28767
G1 X123.314 Y42.270 E0.01687
G1 X129.772 Y48.728 E0.28767
G1 X130.308 Y48.728 E0.01687
G1 X123.849 Y42.270 E0.28767
G1 X124.385 Y42.270 E0.01687
G1 X130.843 Y48.728 E0.28767
G1 X131.379 Y48.728 E0.01687
G1 X124.921 Y42.270 E0.28767
G1 X125.456 Y42.270 E0.01687
G1 X131.915 Y48.728 E0.28767
G1 X132.450 Y48.728 E0.01687
G1 X125.992 Y42.270 E0.28767
G1 X126.528 Y42.270 E0.01687
G1 X132.986 Y48.728 E0.28767
G1 X133.522 Y48.728 E0.01687
G1 X127.063 Y42.270 E0.28767
G1 X127.599 Y42.270 E0.01687
G1 X134.057 Y48.728 E0.28767
G1 X134.593 Y48.728 E0.01687
G1 X128.135 Y42.270 E0.28767
G1 X128.670 Y42.270 E0.01687
G1 X135.129 Y48.728 E0.28767
G1 X135.664 Y48.728 E0.01687
G1 X129.206 Y42.270 E0.28767
G1 X129.742 Y42.270 E0.01687
G1 X136.200 Y48.728 E0.28767
G1 X136.736 Y48.728 E0.01687
G1 X130.277 Y42.270 E0.28767
G1 X130.813 Y42.270 E0.01687
G1 X137.271 Y48.728 E0.28767
G1 X137.807 Y48.728 E0.01687
G1 X131.349 Y42.270 E0.28767
G1 X131.884 Y42.270 E0.01687
G1 X138.343 Y48.728 E0.28767
G1 X138.878 Y48.728 E0.01687
G1 X132.420 Y42.270 E0.28767
G1 X132.956 Y42.270 E0.01687
G1 X139.414 Y48.728 E0.28767
G1 X139.950 Y48.728 E0.01687
G1 X133.491 Y42.270 E0.28767
G1 X134.027 Y42.270 E0.01687
G1 X140.485 Y48.728 E0.28767
G1 X141.021 Y48.728 E0.01687
G1 X134.563 Y42.270 E0.28767
G1 X135.098 Y42.270 E0.01687
G1 X141.557 Y48.728 E0.28767
G1 X142.092 Y48.728 E0.01687
G1 X135.634 Y42.270 E0.28767
G1 X136.170 Y42.270 E0.01687
G1 X142.628 Y48.728 E0.28767
G1 X143.164 Y48.728 E0.01687
G1 X136.705 Y42.270 E0.28767
M73 Q1 S117
M73 P1 R116
G1 X137.241 Y42.270 E0.01687
G1 X143.699 Y48.728 E0.28767
G1 X144.235 Y48.728 E0.01687
G1 X137.777 Y42.270 E0.28767
G1 X138.312 Y42.270 E0.01687
G1 X144.771 Y48.728 E0.28767
G1 X145.306 Y48.728 E0.01687
G1 X138.848 Y42.270 E0.28767
G1 X139.384 Y42.270 E0.01687
G1 X145.842 Y48.728 E0.28767
G1 X146.378 Y48.728 E0.01687
G1 X139.919 Y42.270 E0.28767
G1 X140.455 Y42.270 E0.01687
G1 X146.913 Y48.728 E0.28767
G1 X147.449 Y48.728 E0.01687
G1 X140.991 Y42.270 E0.28767
G1 X141.526 Y42.270 E0.01687
G1 X147.985 Y48.728 E0.28767
G1 X148.521 Y48.728 E0.01687
G1 X142.062 Y42.270 E0.28767
G1 X142.598 Y42.270 E0.01687
G1 X149.056 Y48.728 E0.28767
G1 X149.592 Y48.728 E0.01687
G1 X143.133 Y42.270 E0.28767
G1 X143.669 Y42.270 E0.01687
G1 X150.128 Y48.728 E0.28767
G1 X150.663 Y48.728 E0.01687
G1 X144.205 Y42.270 E0.28767
G1 X144.740 Y42.270 E0.01687
G1 X151.199 Y48.728 E0.28767
G1 X151.735 Y48.728 E0.01687
G1 X145.276 Y42.270 E0.28767
G1 X145.812 Y42.270 E0.01687
G1 X152.270 Y48.728 E0.28767
G1 X152.806 Y48.728 E0.01687
G1 X146.347 Y42.270 E0.28767
G1 X146.883 Y42.270 E0.01687
G1 X153.342 Y48.728 E0.28767
G1 X153.877 Y48.728 E0.01687
G1 X147.419 Y42.270 E0.28767
G1 X147.954 Y42.270 E0.01687
G1 X154.413 Y48.729 E0.28767
G1 X154.965 Y48.745 E0.01739
G1 X148.490 Y42.270 E0.28839
G1 X149.026 Y42.270 E0.01687
G1 X155.519 Y48.763 E0.28922
G1 X155.893 Y48.804 E0.01186
G1 X155.887 Y48.596 E0.00657
G1 X149.561 Y42.270 E0.28175
G1 X150.097 Y42.270 E0.01687
G1 X155.884 Y48.057 E0.25778
G1 X155.882 Y47.519 E0.01695
G1 X150.633 Y42.270 E0.23380
G1 X151.168 Y42.270 E0.01687
G1 X155.880 Y46.982 E0.20987
G1 X155.880 Y46.446 E0.01687
G1 X151.704 Y42.270 E0.18601
G1 X152.240 Y42.270 E0.01687
G1 X155.880 Y45.910 E0.16215
G1 X155.880 Y45.375 E0.01687
G1 X152.775 Y42.270 E0.13829
G1 X153.311 Y42.270 E0.01687
G1 X155.880 Y44.839 E0.11443
G1 X155.880 Y44.303 E0.01687
G1 X153.847 Y42.270 E0.09057
G1 X154.382 Y42.270 E0.01687
G1 X155.880 Y43.768 E0.06672
G1 X155.880 Y43.232 E0.01687
G1 X154.918 Y42.270 E0.04286
G1 X155.454 Y42.270 E0.01687
G1 X156.050 Y42.866 E0.02655
M204 S1000
G1 F8640.000
G1 X155.454 Y42.270 E-0.19468
G1 X154.918 Y42.270 E-0.12369
G1 X155.880 Y43.232 E-0.31419
G1 X155.880 Y43.768 E-0.12369
G1 X155.869 Y43.756 E-0.00375
G1 E-0.04000 F2100.00000
G1 Z0.800 F10800.000
G1 X156.427 Y66.203
G1 Z0.200
G1 E0.80000 F2100.00000
M204 S500
G1 F1200.000
G1 X156.394 Y66.685 E0.00327
G1 X156.427 Y67.166 E0.00327
M204 S1000
G1 F8640.000
G1 X156.394 Y66.685 E-0.11140
G1 X156.427 Y66.203 E-0.11139
G1 E-0.57722 F2100.00000
G1 Z0.800 F10800.000
G1 X156.427 Y83.204
G1 Z0.200
G1 E0.80000 F2100.00000
M204 S500
G1 F1200.000
G1 X156.393 Y83.700 E0.00341
G1 X156.427 Y84.196 E0.00341
M204 S1000
G1 F8640.000
G1 X156.393 Y83.700 E-0.11475
G1 X156.427 Y83.204 E-0.11475
G1 E-0.57050 F2100.00000
G1 Z0.800 F10800.000
G1 X156.427 Y100.233
G1 Z0.200
G1 E0.80000 F2100.00000
M204 S500
G1 F1200.000
G1 X156.395 Y100.700 E0.00313
G1 X156.427 Y101.166 E0.00313
M204 S1000
G1 F8640.000
G1 X156.395 Y100.700 E-0.10792
G1 X156.427 Y100.233 E-0.10792
G1 E-0.58416 F2100.00000
G1 Z0.800 F10800.000
G1 X156.427 Y117.204
G1 Z0.200
G1 E0.80000 F2100.00000
M204 S500
G1 F1200.000
G1 X156.393 Y117.700 E0.00341
G1 X156.427 Y118.196 E0.00341
M204 S1000
G1 F8640.000
G1 X156.393 Y117.700 E-0.11475
G1 X156.427 Y117.204 E-0.11475
G1 E-0.57049 F2100.00000
G1 Z0.800 F10800.000
G1 X156.427 Y134.234
G1 Z0.200
G1 E0.80000 F2100.00000
M204 S500
G1 F1200.000
G1 X156.394 Y134.715 E0.00327
G1 X156.427 Y135.196 E0.00327
M204 S1000
G1 F8640.000
G1 X156.394 Y134.715 E-0.11128
G1 X156.427 Y134.234 E-0.11128
G1 E-0.57744 F2100.00000
G1 Z0.800 F10800.000
G1 X156.055 Y153.148
G1 Z0.200
G1 E0.80000 F2100.00000
M204 S500
G1 F1200.000
G1 X155.542 Y152.634 E0.02287
G1 X155.025 Y152.653 E0.01629
G1 X155.880 Y153.509 E0.03811
G1 X155.880 Y154.045 E0.01688
G1 X154.506 Y152.670 E0.06123
G1 X153.972 Y152.672 E0.01684
G1 X155.880 Y154.580 E0.08504
G1 X155.880 Y155.116 E0.01688
G1 X153.436 Y152.672 E0.10891
G1 X152.900 Y152.672 E0.01688
