; generated by PrusaSlicer 2.2.0+ on 2020-11-08 at 16:09:24 UTC

; 

; external perimeters extrusion width = 0.60mm
; perimeters extrusion width = 0.50mm
; infill extrusion width = 0.50mm
; solid infill extrusion width = 0.50mm
; top infill extrusion width = 0.45mm
; first layer extrusion width = 0.42mm

M73 P0 R91
M73 Q0 S91
M201 X1000 Y1000 Z200 E5000 ; sets maximum accelerations, mm/sec^2
M203 X200 Y200 Z12 E120 ; sets maximum feedrates, mm/sec
M204 P1250 R1250 T1250 ; sets acceleration (P, T) and retract acceleration (R), mm/sec^2
M205 X8.00 Y8.00 Z0.40 E4.50 ; sets the jerk limits, mm/sec
M205 S0 T0 ; sets the minimum extruding and travel feed rate, mm/sec
M107
M862.3 P "MK3S" ; printer model check
M862.1 P0.4 ; nozzle diameter check
M115 U3.9.0 ; tell printer latest fw version
G90 ; use absolute coordinates
M83 ; extruder relative mode
M104 S230 ; set extruder temp
M140 S60 ; set bed temp
M190 S60 ; wait for bed temp
M109 S230 ; wait for extruder temp
G28 W ; home all without mesh bed level
G80 ; mesh bed leveling
G1 Y-3.0 F1000.0 ; go outside print area
G92 E0.0
G1 X60.0 E9.0 F1000.0 ; intro line
M73 Q0 S91
M73 P0 R91
G1 X100.0 E12.5 F1000.0 ; intro line
G92 E0.0
M221 S95
G21 ; set units to millimeters
G90 ; use absolute coordinates
M83 ; use relative distances for extrusion
M900 K0.06 ; Filament gcode LA 1.5
M900 K30 ; Filament gcode LA 1.0
;BEFORE_LAYER_CHANGE
G92 E0.0
;0.2


G1 E-0.80000 F2100.00000
G1 Z0.600 F10800.000
;AFTER_LAYER_CHANGE
;0.2
G1 X59.582 Y71.309
G1 Z0.200
G1 E0.80000 F2100.00000
M204 S500
G1 F1200.000
G1 X60.103 Y70.941 E0.02000
G1 X60.633 Y70.742 E0.01775
G1 X61.195 Y70.673 E0.01775
G1 X188.794 Y70.673 E4.00077
G1 X189.696 Y70.852 E0.02884
G1 X190.460 Y71.358 E0.02872
G1 X190.975 Y72.115 E0.02872
G1 X191.167 Y73.011 E0.02872
G1 X191.167 Y136.997 E2.00624
G1 X191.069 Y137.627 E0.02000
G1 X190.808 Y138.206 E0.01989
G1 X190.404 Y138.695 E0.01989
G1 X189.886 Y139.060 E0.01989
G1 X189.356 Y139.259 E0.01775
G1 X188.794 Y139.327 E0.01775
G1 X61.181 Y139.327 E4.00120
G1 X60.546 Y139.235 E0.02012
G1 X59.958 Y138.977 E0.02012
G1 X59.461 Y138.571 E0.02012
G1 X59.091 Y138.047 E0.02012
G1 X58.892 Y137.521 E0.01763
G1 X58.823 Y136.959 E0.01775
G1 X58.823 Y73.016 E2.00489
G1 X58.918 Y72.385 E0.02000
G1 X59.177 Y71.802 E0.02000
G1 X59.544 Y71.355 E0.01812
M204 S1000
G1 F8640.000
G1 X60.103 Y70.941 E-0.16071
G1 X60.633 Y70.742 E-0.13074
G1 X61.195 Y70.673 E-0.13074
G1 X62.658 Y70.673 E-0.33782
G1 E-0.04000 F2100.00000
G1 Z0.800 F10800.000
G1 X172.278 Y73.806
G1 Z0.200
G1 E0.80000 F2100.00000
M204 S500
G1 F1200.000
G1 X173.332 Y73.837 E0.03304
G1 X188.003 Y73.837 E0.46001
G1 X188.003 Y136.163 E1.95418
G1 X173.332 Y136.163 E0.46001
G1 X172.278 Y136.194 E0.03304
G1 X172.355 Y135.499 E0.02194
G1 X172.384 Y134.969 E0.01663
G1 X172.389 Y133.955 E0.03181
G1 X172.389 Y75.538 E1.83162
G1 X172.355 Y74.508 E0.03233
G1 X172.285 Y73.865 E0.02026
M204 S1000
G1 X171.910 Y73.906 F10800.000
M204 S500
G1 F1200.000
G1 X171.979 Y74.534 E0.01981
G1 X172.012 Y75.544 E0.03168
G1 X172.012 Y133.954 E1.83139
G1 X172.007 Y134.958 E0.03148
G1 X171.979 Y135.468 E0.01602
G1 X171.892 Y136.261 E0.02503
G1 X156.305 Y136.261 E0.48872
G1 X155.304 Y136.227 E0.03140
G1 X154.715 Y136.146 E0.01863
G1 X154.126 Y136.227 E0.01863
G1 X153.125 Y136.261 E0.03140
G1 X139.801 Y136.261 E0.41778
G1 X138.808 Y136.256 E0.03113
G1 X138.301 Y136.227 E0.01593
G1 X137.700 Y136.144 E0.01902
G1 X137.096 Y136.227 E0.01910
G1 X136.095 Y136.261 E0.03140
G1 X121.778 Y136.256 E0.44891
G1 X121.271 Y136.227 E0.01593
G1 X120.700 Y136.149 E0.01807
G1 X120.126 Y136.227 E0.01815
G1 X119.125 Y136.261 E0.03141
G1 X105.800 Y136.261 E0.41781
G1 X104.807 Y136.256 E0.03113
G1 X104.300 Y136.227 E0.01593
G1 X103.700 Y136.145 E0.01899
G1 X103.097 Y136.227 E0.01907
G1 X102.096 Y136.261 E0.03141
G1 X87.778 Y136.256 E0.44894
G1 X87.271 Y136.227 E0.01593
G1 X86.685 Y136.146 E0.01855
G1 X86.096 Y136.227 E0.01863
G1 X85.095 Y136.261 E0.03141
G1 X69.507 Y136.261 E0.48875
G1 X69.420 Y135.466 E0.02510
G1 X69.387 Y134.456 E0.03168
G1 X69.387 Y76.046 E1.83139
G1 X69.392 Y75.042 E0.03148
G1 X69.420 Y74.532 E0.01602
G1 X69.507 Y73.739 E0.02503
G1 X85.095 Y73.739 E0.48875
G1 X86.096 Y73.773 E0.03141
G1 X86.685 Y73.854 E0.01863
G1 X87.271 Y73.773 E0.01855
G1 X87.778 Y73.744 E0.01593
G1 X102.096 Y73.739 E0.44894
G1 X103.097 Y73.773 E0.03141
G1 X103.700 Y73.855 E0.01907
G1 X104.300 Y73.773 E0.01899
G1 X104.807 Y73.744 E0.01593
G1 X105.800 Y73.739 E0.03113
G1 X119.125 Y73.739 E0.41781
G1 X120.126 Y73.773 E0.03141
G1 X120.700 Y73.851 E0.01815
G1 X121.271 Y73.773 E0.01807
G1 X121.778 Y73.744 E0.01593
G1 X136.095 Y73.739 E0.44891
G1 X137.096 Y73.773 E0.03140
G1 X137.700 Y73.856 E0.01910
G1 X138.301 Y73.773 E0.01902
G1 X138.808 Y73.744 E0.01593
G1 X139.801 Y73.739 E0.03113
G1 X153.125 Y73.739 E0.41778
G1 X154.126 Y73.773 E0.03140
G1 X154.715 Y73.854 E0.01863
G1 X155.301 Y73.773 E0.01855
G1 X155.808 Y73.744 E0.01593
G1 X171.892 Y73.739 E0.50429
G1 X171.904 Y73.847 E0.00341
M204 S1000
G1 X172.309 Y73.879 F10800.000
G1 F8640.000
G1 X171.979 Y74.534 E-0.15972
G1 X172.012 Y75.544 E-0.23330
G1 X172.012 Y77.133 E-0.36698
G1 E-0.04000 F2100.00000
G1 Z0.800 F10800.000
G1 X69.121 Y73.804
G1 Z0.200
G1 E0.80000 F2100.00000
M204 S500
G1 F1200.000
G1 X69.044 Y74.501 E0.02198
G1 X69.015 Y75.031 E0.01663
G1 X69.010 Y76.045 E0.03181
G1 X69.010 Y134.462 E1.83162
G1 X69.044 Y135.492 E0.03233
G1 X69.121 Y136.196 E0.02219
G1 X68.188 Y136.164 E0.02927
G1 X61.987 Y136.163 E0.19442
G1 X61.987 Y73.837 E1.95419
G1 X68.188 Y73.836 E0.19442
G1 X69.061 Y73.806 E0.02739
M204 S1000
G1 F8640.000
G1 X69.044 Y74.501 E-0.16050
G1 X69.015 Y75.031 E-0.12248
G1 X69.010 Y76.045 E-0.23425
G1 X69.010 Y77.097 E-0.24277
G1 E-0.04000 F2100.00000
G1 Z0.800 F10800.000
G1 X61.610 Y73.460
G1 Z0.200
G1 E0.80000 F2100.00000
M204 S500
G1 F1200.000
G1 X68.181 Y73.459 E0.20604
G1 X69.190 Y73.424 E0.03166
G1 X69.686 Y73.365 E0.01565
G1 X70.172 Y73.361 E0.01524
G1 X171.343 Y73.361 E3.17215
M73 Q1 S90
M73 P1 R90
G1 X171.830 Y73.376 E0.01526
G1 X172.328 Y73.432 E0.01573
G1 X173.337 Y73.460 E0.03164
G1 X188.380 Y73.460 E0.47167
G1 X188.380 Y136.540 E1.97783
G1 X173.337 Y136.540 E0.47167
G1 X172.328 Y136.568 E0.03164
G1 X171.830 Y136.624 E0.01573
G1 X171.343 Y136.639 E0.01526
G1 X70.172 Y136.639 E3.17215
G1 X69.686 Y136.635 E0.01524
G1 X69.190 Y136.576 E0.01565
G1 X68.181 Y136.541 E0.03166
G1 X61.610 Y136.540 E0.20604
G1 X61.610 Y73.520 E1.97595
M204 S1000
G1 X61.963 Y73.648 F10800.000
G1 F8640.000
G1 X64.901 Y73.490 E-0.76000
G1 E-0.04000 F2100.00000
G1 Z0.800 F10800.000
G1 X68.925 Y74.615
G1 Z0.200
G1 E0.80000 F2100.00000
M204 S500
G1 F1200.000
G1 X68.421 Y74.111 E0.02245
G1 X67.893 Y74.119 E0.01662
G1 X68.736 Y74.962 E0.03754
G1 X68.730 Y75.492 E0.01669
G1 X67.358 Y74.119 E0.06114
G1 X66.822 Y74.119 E0.01687
G1 X68.727 Y76.025 E0.08487
G1 X68.727 Y76.560 E0.01687
G1 X66.286 Y74.119 E0.10872
G1 X65.751 Y74.119 E0.01687
G1 X68.727 Y77.096 E0.13257
G1 X68.727 Y77.632 E0.01687
G1 X65.215 Y74.119 E0.15643
G1 X64.679 Y74.119 E0.01687
G1 X68.727 Y78.167 E0.18029
G1 X68.727 Y78.703 E0.01687
G1 X64.144 Y74.120 E0.20414
G1 X63.608 Y74.120 E0.01687
G1 X68.727 Y79.239 E0.22800
G1 X68.727 Y79.774 E0.01687
G1 X63.073 Y74.120 E0.25186
G1 X62.537 Y74.120 E0.01687
G1 X68.727 Y80.310 E0.27571
G1 X68.727 Y80.846 E0.01687
G1 X62.270 Y74.388 E0.28761
G1 X62.270 Y74.924 E0.01687
G1 X68.727 Y81.381 E0.28761
G1 X68.727 Y81.917 E0.01687
G1 X62.270 Y75.460 E0.28761
G1 X62.270 Y75.995 E0.01687
G1 X68.727 Y82.453 E0.28761
G1 X68.727 Y82.988 E0.01687
G1 X62.270 Y76.531 E0.28761
G1 X62.270 Y77.067 E0.01687
G1 X68.727 Y83.524 E0.28761
G1 X68.727 Y84.060 E0.01687
G1 X62.270 Y77.602 E0.28761
G1 X62.270 Y78.138 E0.01687
G1 X68.727 Y84.595 E0.28761
G1 X68.727 Y85.131 E0.01687
G1 X62.270 Y78.673 E0.28761
G1 X62.270 Y79.209 E0.01687
G1 X68.727 Y85.667 E0.28761
G1 X68.727 Y86.202 E0.01687
G1 X62.270 Y79.745 E0.28761
G1 X62.270 Y80.280 E0.01687
G1 X68.727 Y86.738 E0.28761
G1 X68.727 Y87.274 E0.01687
G1 X62.270 Y80.816 E0.28762
G1 X62.270 Y81.352 E0.01687
G1 X68.727 Y87.809 E0.28762
G1 X68.727 Y88.345 E0.01687
G1 X62.270 Y81.887 E0.28762
G1 X62.270 Y82.423 E0.01687
G1 X68.727 Y88.881 E0.28762
G1 X68.727 Y89.416 E0.01687
G1 X62.270 Y82.959 E0.28762
G1 X62.270 Y83.494 E0.01687
G1 X68.727 Y89.952 E0.28762
G1 X68.727 Y90.488 E0.01687
G1 X62.270 Y84.030 E0.28762
G1 X62.270 Y84.566 E0.01687
G1 X68.727 Y91.023 E0.28762
G1 X68.727 Y91.559 E0.01687
G1 X62.270 Y85.101 E0.28762
G1 X62.270 Y85.637 E0.01687
G1 X68.727 Y92.095 E0.28762
G1 X68.727 Y92.630 E0.01687
G1 X62.270 Y86.173 E0.28762
G1 X62.270 Y86.708 E0.01687
G1 X68.727 Y93.166 E0.28762
G1 X68.727 Y93.702 E0.01687
G1 X62.270 Y87.244 E0.28762
G1 X62.270 Y87.780 E0.01687
G1 X68.727 Y94.237 E0.28762
G1 X68.727 Y94.773 E0.01687
G1 X62.270 Y88.315 E0.28762
G1 X62.270 Y88.851 E0.01687
G1 X68.727 Y95.309 E0.28762
G1 X68.727 Y95.844 E0.01687
G1 X62.270 Y89.387 E0.28762
G1 X62.270 Y89.922 E0.01687
G1 X68.727 Y96.380 E0.28762
G1 X68.727 Y96.916 E0.01687
G1 X62.270 Y90.458 E0.28762
G1 X62.270 Y90.994 E0.01687
G1 X68.727 Y97.451 E0.28762
G1 X68.727 Y97.987 E0.01687
G1 X62.270 Y91.529 E0.28762
G1 X62.270 Y92.065 E0.01687
G1 X68.727 Y98.523 E0.28762
G1 X68.727 Y99.058 E0.01687
G1 X62.270 Y92.601 E0.28762
G1 X62.270 Y93.136 E0.01687
G1 X68.727 Y99.594 E0.28762
G1 X68.727 Y100.130 E0.01687
G1 X62.270 Y93.672 E0.28762
G1 X62.270 Y94.208 E0.01687
G1 X68.727 Y100.665 E0.28762
G1 X68.727 Y101.201 E0.01687
G1 X62.270 Y94.743 E0.28762
G1 X62.270 Y95.279 E0.01687
G1 X68.727 Y101.737 E0.28762
G1 X68.727 Y102.272 E0.01687
G1 X62.270 Y95.815 E0.28762
G1 X62.270 Y96.350 E0.01687
G1 X68.727 Y102.808 E0.28762
G1 X68.727 Y103.344 E0.01687
G1 X62.270 Y96.886 E0.28762
G1 X62.270 Y97.422 E0.01687
G1 X68.727 Y103.879 E0.28762
G1 X68.727 Y104.415 E0.01687
G1 X62.270 Y97.957 E0.28762
G1 X62.270 Y98.493 E0.01687
G1 X68.727 Y104.951 E0.28762
G1 X68.727 Y105.486 E0.01687
G1 X62.270 Y99.029 E0.28762
G1 X62.270 Y99.564 E0.01687
G1 X68.727 Y106.022 E0.28762
G1 X68.727 Y106.558 E0.01687
G1 X62.270 Y100.100 E0.28762
G1 X62.270 Y100.636 E0.01687
G1 X68.727 Y107.093 E0.28762
G1 X68.727 Y107.629 E0.01687
G1 X62.270 Y101.171 E0.28762
G1 X62.270 Y101.707 E0.01687
G1 X68.727 Y108.165 E0.28762
G1 X68.727 Y108.700 E0.01687
G1 X62.270 Y102.243 E0.28762
G1 X62.270 Y102.778 E0.01687
G1 X68.727 Y109.236 E0.28762
G1 X68.727 Y109.772 E0.01687
G1 X62.270 Y103.314 E0.28762
G1 X62.270 Y103.850 E0.01687
G1 X68.727 Y110.307 E0.28762
G1 X68.727 Y110.843 E0.01687
G1 X62.270 Y104.385 E0.28762
G1 X62.270 Y104.921 E0.01687
G1 X68.727 Y111.379 E0.28762
G1 X68.727 Y111.914 E0.01687
G1 X62.270 Y105.457 E0.28762
G1 X62.270 Y105.992 E0.01687
G1 X68.727 Y112.450 E0.28762
G1 X68.727 Y112.986 E0.01687
G1 X62.270 Y106.528 E0.28762
G1 X62.270 Y107.064 E0.01687
G1 X68.727 Y113.521 E0.28762
G1 X68.727 Y114.057 E0.01687
G1 X62.270 Y107.599 E0.28762
G1 X62.270 Y108.135 E0.01687
G1 X68.727 Y114.592 E0.28762
G1 X68.727 Y115.128 E0.01687
G1 X62.270 Y108.671 E0.28762
G1 X62.270 Y109.206 E0.01687
G1 X68.727 Y115.664 E0.28762
G1 X68.727 Y116.199 E0.01687
G1 X62.270 Y109.742 E0.28762
G1 X62.270 Y110.278 E0.01687
G1 X68.727 Y116.735 E0.28762
G1 X68.727 Y117.271 E0.01687
G1 X62.270 Y110.813 E0.28762
G1 X62.270 Y111.349 E0.01687
G1 X68.727 Y117.806 E0.28762
G1 X68.727 Y118.342 E0.01687
G1 X62.270 Y111.885 E0.28762
G1 X62.270 Y112.420 E0.01687
G1 X68.727 Y118.878 E0.28762
G1 X68.727 Y119.413 E0.01687
G1 X62.270 Y112.956 E0.28762
G1 X62.270 Y113.492 E0.01687
G1 X68.727 Y119.949 E0.28762
G1 X68.727 Y120.485 E0.01687
G1 X62.270 Y114.027 E0.28762
G1 X62.270 Y114.563 E0.01687
G1 X68.727 Y121.020 E0.28762
G1 X68.727 Y121.556 E0.01687
G1 X62.270 Y115.099 E0.28762
G1 X62.270 Y115.634 E0.01687
G1 X68.727 Y122.092 E0.28762
G1 X68.727 Y122.627 E0.01687
G1 X62.270 Y116.170 E0.28762
G1 X62.270 Y116.706 E0.01687
G1 X68.727 Y123.163 E0.28762
G1 X68.727 Y123.699 E0.01687
G1 X62.270 Y117.241 E0.28762
G1 X62.270 Y117.777 E0.01687
G1 X68.727 Y124.234 E0.28762
G1 X68.727 Y124.770 E0.01687
G1 X62.270 Y118.313 E0.28762
G1 X62.270 Y118.848 E0.01687
G1 X68.727 Y125.306 E0.28762
G1 X68.727 Y125.841 E0.01687
G1 X62.270 Y119.384 E0.28763
M73 Q2 S89
M73 P2 R89
G1 X62.270 Y119.920 E0.01687
G1 X68.727 Y126.377 E0.28763
G1 X68.727 Y126.913 E0.01687
G1 X62.270 Y120.455 E0.28763
G1 X62.270 Y120.991 E0.01687
G1 X68.727 Y127.448 E0.28763
G1 X68.727 Y127.984 E0.01687
G1 X62.270 Y121.527 E0.28763
G1 X62.270 Y122.062 E0.01687
G1 X68.727 Y128.520 E0.28763
G1 X68.727 Y129.055 E0.01687
G1 X62.270 Y122.598 E0.28763
G1 X62.270 Y123.134 E0.01687
G1 X68.727 Y129.591 E0.28763
G1 X68.727 Y130.127 E0.01687
G1 X62.270 Y123.669 E0.28763
G1 X62.270 Y124.205 E0.01687
G1 X68.727 Y130.662 E0.28763
G1 X68.728 Y131.198 E0.01687
G1 X62.270 Y124.741 E0.28763
G1 X62.270 Y125.276 E0.01687
G1 X68.728 Y131.734 E0.28763
G1 X68.728 Y132.269 E0.01687
G1 X62.270 Y125.812 E0.28763
G1 X62.270 Y126.348 E0.01687
G1 X68.728 Y132.805 E0.28763
G1 X68.728 Y133.341 E0.01687
G1 X62.270 Y126.883 E0.28763
G1 X62.270 Y127.419 E0.01687
G1 X68.728 Y133.876 E0.28763
G1 X68.728 Y134.412 E0.01687
G1 X62.270 Y127.955 E0.28763
G1 X62.270 Y128.490 E0.01687
G1 X68.744 Y134.964 E0.28835
G1 X68.762 Y135.518 E0.01746
G1 X62.270 Y129.026 E0.28916
G1 X62.270 Y129.561 E0.01687
G1 X68.603 Y135.895 E0.28210
G1 X68.054 Y135.881 E0.01732
G1 X62.270 Y130.097 E0.25761
G1 X62.270 Y130.633 E0.01687
G1 X67.518 Y135.881 E0.23375
G1 X66.982 Y135.881 E0.01687
G1 X62.270 Y131.168 E0.20989
G1 X62.270 Y131.704 E0.01687
G1 X66.446 Y135.881 E0.18603
G1 X65.911 Y135.881 E0.01687
G1 X62.270 Y132.240 E0.16216
G1 X62.270 Y132.775 E0.01687
G1 X65.375 Y135.881 E0.13830
G1 X64.839 Y135.881 E0.01687
G1 X62.270 Y133.311 E0.11444
G1 X62.270 Y133.847 E0.01687
G1 X64.304 Y135.880 E0.09058
G1 X63.768 Y135.880 E0.01687
G1 X62.270 Y134.382 E0.06672
G1 X62.270 Y134.918 E0.01687
G1 X63.232 Y135.880 E0.04286
G1 X62.696 Y135.880 E0.01687
G1 X62.100 Y135.284 E0.02655
M204 S1000
G1 F8640.000
G1 X62.696 Y135.880 E-0.19468
G1 X63.232 Y135.880 E-0.12370
G1 X62.270 Y134.918 E-0.31421
G1 X62.270 Y134.382 E-0.12369
G1 X62.281 Y134.394 E-0.00373
G1 E-0.04000 F2100.00000
G1 Z0.800 F10800.000
G1 X86.204 Y136.427
G1 Z0.200
G1 E0.80000 F2100.00000
M204 S500
G1 F1200.000
G1 X86.685 Y136.394 E0.00327
G1 X87.166 Y136.427 E0.00327
M204 S1000
G1 F8640.000
G1 X86.685 Y136.394 E-0.11129
G1 X86.204 Y136.427 E-0.11129
G1 E-0.57743 F2100.00000
G1 Z0.800 F10800.000
G1 X103.205 Y136.427
G1 Z0.200
G1 E0.80000 F2100.00000
M204 S500
G1 F1200.000
G1 X103.700 Y136.393 E0.00340
G1 X104.195 Y136.427 E0.00340
M204 S1000
G1 F8640.000
G1 X103.700 Y136.393 E-0.11453
G1 X103.205 Y136.427 E-0.11453
G1 E-0.57094 F2100.00000
G1 Z0.800 F10800.000
G1 X120.234 Y136.427
G1 Z0.200
G1 E0.80000 F2100.00000
M204 S500
G1 F1200.000
G1 X120.700 Y136.395 E0.00313
G1 X121.166 Y136.427 E0.00313
M204 S1000
G1 F8640.000
G1 X120.700 Y136.395 E-0.10781
G1 X120.234 Y136.427 E-0.10781
G1 E-0.58438 F2100.00000
G1 Z0.800 F10800.000
G1 X137.204 Y136.427
G1 Z0.200
G1 E0.80000 F2100.00000
M204 S500
G1 F1200.000
G1 X137.700 Y136.393 E0.00341
G1 X138.196 Y136.427 E0.00341
M204 S1000
G1 F8640.000
G1 X137.700 Y136.393 E-0.11475
G1 X137.204 Y136.427 E-0.11475
G1 E-0.57049 F2100.00000
G1 Z0.800 F10800.000
G1 X154.234 Y136.427
G1 Z0.200
G1 E0.80000 F2100.00000
M204 S500
G1 F1200.000
G1 X154.715 Y136.394 E0.00327
G1 X155.196 Y136.427 E0.00327
M204 S1000
G1 F8640.000
G1 X154.715 Y136.394 E-0.11128
G1 X154.234 Y136.427 E-0.11128
G1 E-0.57744 F2100.00000
G1 Z0.800 F10800.000
G1 X172.474 Y135.384
G1 Z0.200
G1 E0.80000 F2100.00000
M204 S500
G1 F1200.000
G1 X172.981 Y135.891 E0.02259
G1 X173.507 Y135.880 E0.01656
G1 X172.663 Y135.037 E0.03758
G1 X172.669 Y134.507 E0.01670
G1 X174.043 Y135.880 E0.06120
G1 X174.578 Y135.880 E0.01688
G1 X172.672 Y133.974 E0.08494
G1 X172.672 Y133.438 E0.01688
G1 X175.114 Y135.880 E0.10881
G1 X175.650 Y135.880 E0.01688
G1 X172.672 Y132.902 E0.13268
G1 X172.672 Y132.366 E0.01688
G1 X176.186 Y135.880 E0.15655
G1 X176.721 Y135.880 E0.01688
G1 X172.672 Y131.831 E0.18042
