; generated by PrusaSlicer 2.2.0+ on 2020-11-08 at 16:09:27 UTC

; 

; external perimeters extrusion width = 0.60mm
; perimeters extrusion width = 0.50mm
; infill extrusion width = 0.50mm
; solid infill extrusion width = 0.50mm
; top infill extrusion width = 0.45mm
; first layer extrusion width = 0.42mm

M73 P0 R160
M73 Q0 S161
M201 X1000 Y1000 Z200 E5000 ; sets maximum accelerations, mm/sec^2
M203 X200 Y200 Z12 E120 ; sets maximum feedrates, mm/sec
M204 P1250 R1250 T1250 ; sets acceleration (P, T) and retract acceleration (R), mm/sec^2
M205 X8.00 Y8.00 Z0.40 E4.50 ; sets the jerk limits, mm/sec
M205 S0 T0 ; sets the minimum extruding and travel feed rate, mm/sec
M107
M862.3 P "MK3S" ; printer model check
M862.1 P0.4 ; nozzle diameter check
M115 U3.9.0 ; tell printer latest fw version
G90 ; use absolute coordinates
M83 ; extruder relative mode
M104 S230 ; set extruder temp
M140 S60 ; set bed temp
M190 S60 ; wait for bed temp
M109 S230 ; wait for extruder temp
G28 W ; home all without mesh bed level
G80 ; mesh bed leveling
G1 Y-3.0 F1000.0 ; go outside print area
G92 E0.0
G1 X60.0 E9.0 F1000.0 ; intro line
M73 Q0 S161
M73 P0 R160
G1 X100.0 E12.5 F1000.0 ; intro line
G92 E0.0
M221 S95
G21 ; set units to millimeters
G90 ; use absolute coordinates
M83 ; use relative distances for extrusion
M900 K0.06 ; Filament gcode LA 1.5
M900 K30 ; Filament gcode LA 1.0
;BEFORE_LAYER_CHANGE
G92 E0.0
;0.2


G1 E-0.80000 F2100.00000
G1 Z0.600 F10800.000
;AFTER_LAYER_CHANGE
;0.2
G1 X91.170 Y39.647
G1 Z0.200
G1 E0.80000 F2100.00000
M204 S500
G1 F1200.000
G1 X91.686 Y39.222 E0.02095
G1 X92.468 Y38.880 E0.02676
G1 X93.124 Y38.773 E0.02083
G1 X157.079 Y38.773 E2.00527
G1 X157.981 Y38.952 E0.02884
G1 X158.745 Y39.458 E0.02872
G1 X159.260 Y40.215 E0.02872
G1 X159.452 Y41.111 E0.02872
G1 X159.452 Y168.754 E4.00216
G1 X159.389 Y169.294 E0.01704
G1 X159.207 Y169.802 E0.01692
G1 X158.820 Y170.365 E0.02142
G1 X158.237 Y170.848 E0.02374
G1 X157.641 Y171.124 E0.02060
G1 X156.992 Y171.227 E0.02060
G1 X92.917 Y171.227 E2.00902
G1 X92.381 Y171.164 E0.01692
G1 X91.873 Y170.982 E0.01692
G1 X91.330 Y170.613 E0.02060
G1 X90.911 Y170.112 E0.02048
G1 X90.643 Y169.516 E0.02048
G1 X90.548 Y168.870 E0.02048
G1 X90.548 Y41.246 E4.00156
G1 X90.611 Y40.706 E0.01704
G1 X90.793 Y40.198 E0.01692
G1 X91.136 Y39.696 E0.01907
M204 S1000
G1 F8640.000
G1 X91.686 Y39.222 E-0.16763
G1 X92.468 Y38.880 E-0.19708
G1 X93.124 Y38.773 E-0.15341
G1 X94.171 Y38.773 E-0.24188
G1 E-0.04000 F2100.00000
G1 Z0.800 F10800.000
G1 X93.765 Y49.339
G1 Z0.200
G1 E0.80000 F2100.00000
M204 S500
G1 F1200.000
G1 X154.581 Y49.339 E1.90684
G1 X155.591 Y49.372 E0.03168
G1 X156.386 Y49.459 E0.02510
G1 X156.386 Y65.046 E0.48869
G1 X156.352 Y66.047 E0.03140
G1 X156.271 Y66.635 E0.01864
G1 X156.352 Y67.224 E0.01864
G1 X156.386 Y68.225 E0.03140
G1 X156.386 Y81.549 E0.41776
G1 X156.381 Y82.542 E0.03112
G1 X156.352 Y83.049 E0.01592
G1 X156.269 Y83.650 E0.01902
G1 X156.352 Y84.254 E0.01910
G1 X156.386 Y85.255 E0.03140
G1 X156.381 Y99.572 E0.44891
G1 X156.352 Y100.079 E0.01593
G1 X156.273 Y100.650 E0.01809
G1 X156.352 Y101.224 E0.01817
G1 X156.386 Y102.225 E0.03140
G1 X156.386 Y115.549 E0.41776
G1 X156.381 Y116.542 E0.03112
G1 X156.352 Y117.049 E0.01592
G1 X156.269 Y117.650 E0.01904
G1 X156.352 Y118.254 E0.01911
G1 X156.386 Y119.255 E0.03140
G1 X156.381 Y133.572 E0.44888
G1 X156.352 Y134.079 E0.01592
G1 X156.271 Y134.665 E0.01855
G1 X156.352 Y135.254 E0.01863
G1 X156.386 Y136.255 E0.03140
G1 X156.386 Y151.842 E0.48872
G1 X155.591 Y151.929 E0.02510
G1 X154.581 Y151.962 E0.03168
G1 X93.765 Y151.962 E1.90684
G1 X93.766 Y136.256 E0.49245
G1 X93.776 Y135.751 E0.01584
G1 X93.834 Y135.232 E0.01637
G1 X93.988 Y134.665 E0.01842
G1 X93.834 Y134.098 E0.01842
G1 X93.776 Y133.579 E0.01637
G1 X93.766 Y133.074 E0.01584
G1 X93.765 Y119.751 E0.41773
G1 X93.776 Y118.753 E0.03131
G1 X93.834 Y118.233 E0.01640
G1 X93.992 Y117.650 E0.01892
G1 X93.834 Y117.068 E0.01892
G1 X93.776 Y116.549 E0.01637
G1 X93.766 Y116.044 E0.01584
G1 X93.776 Y101.723 E0.44904
G1 X93.834 Y101.203 E0.01640
G1 X93.984 Y100.650 E0.01794
G1 X93.834 Y100.098 E0.01795
G1 X93.776 Y99.579 E0.01637
G1 X93.766 Y99.074 E0.01584
G1 X93.765 Y85.750 E0.41776
G1 X93.776 Y84.752 E0.03131
G1 X93.834 Y84.232 E0.01640
G1 X93.992 Y83.650 E0.01890
G1 X93.834 Y83.068 E0.01890
G1 X93.776 Y82.549 E0.01637
G1 X93.766 Y82.044 E0.01584
G1 X93.776 Y67.723 E0.44904
G1 X93.834 Y67.203 E0.01640
G1 X93.988 Y66.635 E0.01843
G1 X93.834 Y66.068 E0.01843
G1 X93.776 Y65.549 E0.01637
G1 X93.766 Y65.044 E0.01584
G1 X93.765 Y49.399 E0.49054
M204 S1000
G1 X93.765 Y48.939 F10800.000
G1 X93.765 Y48.962
M204 S500
G1 F1200.000
G1 X93.712 Y48.962 E0.00166
G1 X93.712 Y42.037 E0.21712
G1 X93.962 Y42.037 E0.00784
G1 X93.962 Y41.937 E0.00314
G1 X156.288 Y41.937 E1.95418
G1 X156.288 Y47.133 E0.16290
G1 X156.295 Y48.644 E0.04740
G1 X156.319 Y49.073 E0.01345
G1 X155.617 Y48.996 E0.02213
G1 X154.587 Y48.962 E0.03233
G1 X93.825 Y48.962 E1.90515
M204 S1000
G1 F8640.000
G1 X93.712 Y48.962 E-0.02607
G1 X93.712 Y45.783 E-0.73393
G1 E-0.04000 F2100.00000
G1 Z0.800 F10800.000
G1 X93.826 Y152.339
G1 Z0.200
G1 E0.80000 F2100.00000
M204 S500
G1 F1200.000
G1 X154.587 Y152.339 E1.90513
G1 X155.617 Y152.305 E0.03233
G1 X156.320 Y152.228 E0.02216
G1 X156.288 Y153.290 E0.03332
G1 X156.288 Y167.963 E0.46005
G1 X156.163 Y167.963 E0.00392
G1 X156.163 Y168.063 E0.00314
G1 X93.712 Y168.063 E1.95810
G1 X93.712 Y152.339 E0.49301
G1 X93.766 Y152.339 E0.00168
M204 S1000
G1 F8640.000
G1 X97.057 Y152.339 E-0.76000
G1 E-0.04000 F2100.00000
G1 Z0.800 F10800.000
G1 X93.335 Y168.440
G1 Z0.200
G1 E0.80000 F2100.00000
M204 S500
G1 F1200.000
G1 X93.335 Y41.660 E3.97510
M73 Q0 S160
M73 P0 R159
G1 X93.585 Y41.660 E0.00784
G1 X93.585 Y41.560 E0.00314
G1 X156.665 Y41.560 E1.97783
G1 X156.672 Y48.633 E0.22177
G1 X156.701 Y49.143 E0.01603
G1 X156.760 Y49.637 E0.01558
G1 X156.764 Y50.123 E0.01524
G1 X156.764 Y151.301 E3.17239
G1 X156.748 Y151.788 E0.01527
G1 X156.693 Y152.287 E0.01574
G1 X156.665 Y153.296 E0.03163
G1 X156.665 Y168.340 E0.47171
G1 X156.540 Y168.340 E0.00392
G1 X156.540 Y168.440 E0.00314
G1 X93.395 Y168.440 E1.97987
M204 S1000
G1 X93.535 Y168.093 F10800.000
G1 F8640.000
G1 X93.393 Y165.149 E-0.76000
G1 E-0.04000 F2100.00000
G1 Z0.800 F10800.000
G1 X94.589 Y167.950
G1 Z0.200
G1 E0.80000 F2100.00000
M204 S500
G1 F1200.000
G1 X93.995 Y167.355 E0.02643
G1 X93.995 Y166.821 E0.01680
G1 X94.954 Y167.780 E0.04265
G1 X95.489 Y167.780 E0.01680
G1 X93.995 Y166.286 E0.06641
G1 X93.995 Y165.752 E0.01680
G1 X96.023 Y167.780 E0.09017
G1 X96.558 Y167.780 E0.01680
G1 X93.995 Y165.217 E0.11393
G1 X93.995 Y164.682 E0.01680
G1 X97.093 Y167.780 E0.13769
G1 X97.627 Y167.780 E0.01680
G1 X93.995 Y164.148 E0.16146
G1 X93.995 Y163.613 E0.01680
G1 X98.162 Y167.780 E0.18522
G1 X98.696 Y167.780 E0.01680
G1 X93.995 Y163.079 E0.20898
G1 X93.995 Y162.544 E0.01680
G1 X99.231 Y167.780 E0.23274
G1 X99.765 Y167.780 E0.01680
G1 X93.995 Y162.010 E0.25651
G1 X93.995 Y161.475 E0.01680
G1 X100.300 Y167.780 E0.28027
G1 X100.835 Y167.780 E0.01680
G1 X93.995 Y160.940 E0.30403
G1 X93.995 Y160.406 E0.01680
G1 X101.369 Y167.780 E0.32779
G1 X101.904 Y167.780 E0.01680
G1 X93.995 Y159.871 E0.35155
G1 X93.995 Y159.337 E0.01680
G1 X102.438 Y167.780 E0.37532
G1 X102.973 Y167.780 E0.01680
G1 X93.995 Y158.802 E0.39908
G1 X93.995 Y158.267 E0.01680
G1 X103.508 Y167.780 E0.42284
G1 X104.042 Y167.780 E0.01680
G1 X93.995 Y157.733 E0.44660
G1 X93.995 Y157.198 E0.01680
G1 X104.577 Y167.780 E0.47036
G1 X105.111 Y167.780 E0.01680
G1 X93.995 Y156.664 E0.49413
G1 X93.995 Y156.129 E0.01680
G1 X105.646 Y167.780 E0.51789
G1 X106.180 Y167.780 E0.01680
G1 X93.995 Y155.595 E0.54165
G1 X93.995 Y155.060 E0.01680
G1 X106.715 Y167.780 E0.56541
G1 X107.250 Y167.780 E0.01680
G1 X93.995 Y154.525 E0.58917
G1 X93.995 Y153.991 E0.01680
G1 X107.784 Y167.780 E0.61294
G1 X108.319 Y167.780 E0.01680
G1 X93.995 Y153.456 E0.63670
G1 X93.995 Y152.922 E0.01680
G1 X108.853 Y167.780 E0.66046
G1 X109.388 Y167.780 E0.01680
G1 X94.230 Y152.622 E0.67379
G1 X94.764 Y152.622 E0.01680
G1 X109.922 Y167.780 E0.67379
G1 X110.457 Y167.780 E0.01680
G1 X95.299 Y152.622 E0.67379
G1 X95.833 Y152.622 E0.01680
G1 X110.992 Y167.780 E0.67379
G1 X111.526 Y167.780 E0.01680
G1 X96.368 Y152.622 E0.67379
G1 X96.902 Y152.622 E0.01680
G1 X112.061 Y167.780 E0.67379
G1 X112.595 Y167.780 E0.01680
G1 X97.437 Y152.622 E0.67379
G1 X97.972 Y152.622 E0.01680
G1 X113.130 Y167.780 E0.67379
G1 X113.664 Y167.780 E0.01680
G1 X98.506 Y152.622 E0.67379
G1 X99.041 Y152.622 E0.01680
G1 X114.199 Y167.780 E0.67379
G1 X114.734 Y167.780 E0.01680
G1 X99.575 Y152.622 E0.67379
G1 X100.110 Y152.622 E0.01680
G1 X115.268 Y167.780 E0.67379
G1 X115.803 Y167.780 E0.01680
G1 X100.644 Y152.622 E0.67379
G1 X101.179 Y152.622 E0.01680
G1 X116.337 Y167.780 E0.67379
G1 X116.872 Y167.780 E0.01680
G1 X101.714 Y152.622 E0.67379
G1 X102.248 Y152.622 E0.01680
G1 X117.407 Y167.780 E0.67379
G1 X117.941 Y167.780 E0.01680
G1 X102.783 Y152.622 E0.67379
G1 X103.317 Y152.622 E0.01680
G1 X118.476 Y167.780 E0.67379
G1 X119.010 Y167.780 E0.01680
G1 X103.852 Y152.622 E0.67379
G1 X104.386 Y152.622 E0.01680
G1 X119.545 Y167.780 E0.67379
G1 X120.079 Y167.780 E0.01680
G1 X104.921 Y152.622 E0.67379
G1 X105.456 Y152.622 E0.01680
G1 X120.614 Y167.780 E0.67379
G1 X121.149 Y167.780 E0.01680
G1 X105.990 Y152.622 E0.67379
G1 X106.525 Y152.622 E0.01680
G1 X121.683 Y167.780 E0.67379
G1 X122.218 Y167.780 E0.01680
G1 X107.059 Y152.622 E0.67379
G1 X107.594 Y152.622 E0.01680
G1 X122.752 Y167.780 E0.67379
G1 X123.287 Y167.780 E0.01680
G1 X108.128 Y152.622 E0.67379
G1 X108.663 Y152.622 E0.01680
G1 X123.821 Y167.780 E0.67379
M73 Q1 S159
M73 P1 R158
G1 X124.356 Y167.780 E0.01680
G1 X109.198 Y152.622 E0.67379
G1 X109.732 Y152.622 E0.01680
G1 X124.891 Y167.780 E0.67379
G1 X125.425 Y167.780 E0.01680
G1 X110.267 Y152.622 E0.67379
G1 X110.801 Y152.622 E0.01680
G1 X125.960 Y167.780 E0.67379
G1 X126.494 Y167.780 E0.01680
G1 X111.336 Y152.622 E0.67379
G1 X111.871 Y152.622 E0.01680
G1 X127.029 Y167.780 E0.67379
G1 X127.563 Y167.780 E0.01680
G1 X112.405 Y152.622 E0.67379
G1 X112.940 Y152.622 E0.01680
G1 X128.098 Y167.780 E0.67379
G1 X128.633 Y167.780 E0.01680
G1 X113.474 Y152.622 E0.67379
G1 X114.009 Y152.622 E0.01680
G1 X129.167 Y167.780 E0.67380
G1 X129.702 Y167.780 E0.01680
G1 X114.543 Y152.622 E0.67380
G1 X115.078 Y152.622 E0.01680
G1 X130.236 Y167.780 E0.67380
G1 X130.771 Y167.780 E0.01680
G1 X115.613 Y152.622 E0.67380
G1 X116.147 Y152.622 E0.01680
G1 X131.306 Y167.780 E0.67380
G1 X131.840 Y167.780 E0.01680
G1 X116.682 Y152.622 E0.67380
G1 X117.216 Y152.622 E0.01680
G1 X132.375 Y167.780 E0.67380
G1 X132.909 Y167.780 E0.01680
G1 X117.751 Y152.622 E0.67380
G1 X118.285 Y152.622 E0.01680
G1 X133.444 Y167.780 E0.67380
G1 X133.978 Y167.780 E0.01680
G1 X118.820 Y152.622 E0.67380
G1 X119.355 Y152.622 E0.01680
G1 X134.513 Y167.780 E0.67380
G1 X135.048 Y167.780 E0.01680
G1 X119.889 Y152.622 E0.67380
G1 X120.424 Y152.622 E0.01680
G1 X135.582 Y167.780 E0.67380
G1 X136.117 Y167.780 E0.01680
G1 X120.958 Y152.622 E0.67380
G1 X121.493 Y152.622 E0.01680
G1 X136.651 Y167.780 E0.67380
G1 X137.186 Y167.780 E0.01680
G1 X122.027 Y152.622 E0.67380
G1 X122.562 Y152.622 E0.01680
G1 X137.720 Y167.780 E0.67380
G1 X138.255 Y167.780 E0.01680
G1 X123.097 Y152.622 E0.67380
G1 X123.631 Y152.622 E0.01680
G1 X138.790 Y167.780 E0.67380
G1 X139.324 Y167.780 E0.01680
G1 X124.166 Y152.622 E0.67380
G1 X124.700 Y152.622 E0.01680
G1 X139.859 Y167.780 E0.67380
G1 X140.393 Y167.780 E0.01680
G1 X125.235 Y152.622 E0.67380
G1 X125.769 Y152.622 E0.01680
G1 X140.928 Y167.780 E0.67380
G1 X141.462 Y167.780 E0.01680
G1 X126.304 Y152.622 E0.67380
G1 X126.839 Y152.622 E0.01680
G1 X141.997 Y167.780 E0.67380
G1 X142.532 Y167.780 E0.01680
G1 X127.373 Y152.622 E0.67380
G1 X127.908 Y152.622 E0.01680
G1 X143.066 Y167.780 E0.67380
G1 X143.601 Y167.780 E0.01680
G1 X128.442 Y152.622 E0.67380
G1 X128.977 Y152.622 E0.01680
G1 X144.135 Y167.780 E0.67380
G1 X144.670 Y167.780 E0.01680
G1 X129.511 Y152.622 E0.67380
G1 X130.046 Y152.622 E0.01680
G1 X145.205 Y167.780 E0.67380
G1 X145.739 Y167.780 E0.01680
G1 X130.581 Y152.622 E0.67380
G1 X131.115 Y152.622 E0.01680
G1 X146.274 Y167.780 E0.67380
G1 X146.808 Y167.780 E0.01680
G1 X131.650 Y152.622 E0.67380
G1 X132.184 Y152.622 E0.01680
G1 X147.343 Y167.780 E0.67380
G1 X147.877 Y167.780 E0.01680
G1 X132.719 Y152.622 E0.67380
G1 X133.253 Y152.622 E0.01680
G1 X148.412 Y167.780 E0.67380
G1 X148.947 Y167.780 E0.01680
G1 X133.788 Y152.622 E0.67380
G1 X134.323 Y152.622 E0.01680
G1 X149.481 Y167.780 E0.67380
G1 X150.016 Y167.780 E0.01680
G1 X134.857 Y152.622 E0.67380
G1 X135.392 Y152.622 E0.01680
G1 X150.550 Y167.780 E0.67380
G1 X151.085 Y167.780 E0.01680
G1 X135.926 Y152.622 E0.67380
G1 X136.461 Y152.622 E0.01680
G1 X151.619 Y167.780 E0.67380
G1 X152.154 Y167.780 E0.01680
G1 X136.995 Y152.622 E0.67380
G1 X137.530 Y152.622 E0.01680
G1 X152.689 Y167.780 E0.67380
M73 Q1 S158
M73 P1 R157
G1 X153.223 Y167.780 E0.01680
G1 X138.065 Y152.622 E0.67380
G1 X138.599 Y152.622 E0.01680
G1 X153.758 Y167.780 E0.67380
G1 X154.292 Y167.780 E0.01680
G1 X139.134 Y152.622 E0.67380
G1 X139.668 Y152.622 E0.01680
G1 X154.827 Y167.780 E0.67380
G1 X155.361 Y167.780 E0.01680
G1 X140.203 Y152.622 E0.67380
G1 X140.738 Y152.622 E0.01680
G1 X155.880 Y167.764 E0.67309
G1 X155.880 Y167.680 E0.00264
G1 X156.005 Y167.680 E0.00393
G1 X156.005 Y167.355 E0.01023
G1 X141.272 Y152.622 E0.65489
G1 X141.807 Y152.622 E0.01680
G1 X156.005 Y166.820 E0.63113
G1 X156.005 Y166.286 E0.01680
G1 X142.341 Y152.622 E0.60737
G1 X142.876 Y152.622 E0.01680
G1 X156.005 Y165.751 E0.58360
G1 X156.005 Y165.216 E0.01680
G1 X143.410 Y152.622 E0.55984
G1 X143.945 Y152.622 E0.01680
G1 X156.005 Y164.682 E0.53608
G1 X156.005 Y164.147 E0.01680
G1 X144.480 Y152.622 E0.51232
G1 X145.014 Y152.622 E0.01680
G1 X156.005 Y163.613 E0.48856
G1 X156.005 Y163.078 E0.01680
G1 X145.549 Y152.622 E0.46480
G1 X146.083 Y152.622 E0.01680
G1 X156.005 Y162.544 E0.44104
G1 X156.005 Y162.009 E0.01680
G1 X146.618 Y152.622 E0.41727
G1 X147.152 Y152.622 E0.01680
G1 X156.005 Y161.474 E0.39351
G1 X156.005 Y160.940 E0.01680
G1 X147.687 Y152.622 E0.36975
G1 X148.222 Y152.622 E0.01680
G1 X156.005 Y160.405 E0.34599
G1 X156.005 Y159.871 E0.01680
G1 X148.756 Y152.622 E0.32223
G1 X149.291 Y152.622 E0.01680
G1 X156.005 Y159.336 E0.29847
G1 X156.005 Y158.802 E0.01680
G1 X149.825 Y152.622 E0.27470
G1 X150.360 Y152.622 E0.01680
G1 X156.005 Y158.267 E0.25094
G1 X156.005 Y157.732 E0.01680
G1 X150.894 Y152.622 E0.22718
G1 X151.429 Y152.622 E0.01680
G1 X156.005 Y157.198 E0.20342
G1 X156.005 Y156.663 E0.01680
G1 X151.964 Y152.622 E0.17966
G1 X152.498 Y152.622 E0.01680
G1 X156.005 Y156.129 E0.15590
G1 X156.005 Y155.594 E0.01680
G1 X153.033 Y152.622 E0.13214
G1 X153.567 Y152.622 E0.01680
G1 X156.005 Y155.060 E0.10837
G1 X156.005 Y154.525 E0.01680
G1 X154.102 Y152.622 E0.08461
G1 X154.635 Y152.620 E0.01676
G1 X156.005 Y153.990 E0.06091
G1 X156.005 Y153.456 E0.01680
G1 X155.153 Y152.603 E0.03790
G1 X155.668 Y152.584 E0.01621
G1 X156.180 Y153.096 E0.02276
M204 S1000
G1 F8640.000
G1 X155.668 Y152.584 E-0.16722
G1 X155.153 Y152.603 E-0.11911
G1 X156.005 Y153.456 E-0.27841
G1 X156.005 Y153.990 E-0.12343
G1 X155.785 Y153.770 E-0.07183
G1 E-0.04000 F2100.00000
G1 Z0.800 F10800.000
G1 X156.552 Y135.146
G1 Z0.200
G1 E0.80000 F2100.00000
M204 S500
G1 F1200.000
G1 X156.519 Y134.665 E0.00327
G1 X156.552 Y134.184 E0.00327
M204 S1000
G1 F8640.000
G1 X156.519 Y134.665 E-0.11128
G1 X156.552 Y135.146 E-0.11128
G1 E-0.57744 F2100.00000
G1 Z0.800 F10800.000
G1 X156.552 Y118.147
G1 Z0.200
G1 E0.80000 F2100.00000
M204 S500
G1 F1200.000
G1 X156.518 Y117.650 E0.00342
G1 X156.552 Y117.154 E0.00342
M204 S1000
G1 F8640.000
G1 X156.518 Y117.650 E-0.11486
G1 X156.552 Y118.147 E-0.11486
G1 E-0.57028 F2100.00000
G1 Z0.800 F10800.000
G1 X156.552 Y101.117
G1 Z0.200
G1 E0.80000 F2100.00000
M204 S500
G1 F1200.000
G1 X156.520 Y100.650 E0.00313
G1 X156.552 Y100.184 E0.00313
M204 S1000
G1 F8640.000
G1 X156.520 Y100.650 E-0.10792
G1 X156.552 Y101.117 E-0.10792
