; generated by PrusaSlicer 2.2.0+ on 2020-11-08 at 16:09:29 UTC

; 

; external perimeters extrusion width = 0.60mm
; perimeters extrusion width = 0.50mm
; infill extrusion width = 0.50mm
; solid infill extrusion width = 0.50mm
; top infill extrusion width = 0.45mm
; first layer extrusion width = 0.42mm

M73 P0 R197
M73 Q0 S201
M201 X1000 Y1000 Z200 E5000 ; sets maximum accelerations, mm/sec^2
M203 X200 Y200 Z12 E120 ; sets maximum feedrates, mm/sec
M204 P1250 R1250 T1250 ; sets acceleration (P, T) and retract acceleration (R), mm/sec^2
M205 X8.00 Y8.00 Z0.40 E4.50 ; sets the jerk limits, mm/sec
M205 S0 T0 ; sets the minimum extruding and travel feed rate, mm/sec
M107
M862.3 P "MK3S" ; printer model check
M862.1 P0.4 ; nozzle diameter check
M115 U3.9.0 ; tell printer latest fw version
G90 ; use absolute coordinates
M83 ; extruder relative mode
M104 S230 ; set extruder temp
M140 S60 ; set bed temp
M190 S60 ; wait for bed temp
M109 S230 ; wait for extruder temp
G28 W ; home all without mesh bed level
G80 ; mesh bed leveling
G1 Y-3.0 F1000.0 ; go outside print area
G92 E0.0
G1 X60.0 E9.0 F1000.0 ; intro line
M73 Q0 S201
M73 P0 R197
G1 X100.0 E12.5 F1000.0 ; intro line
G92 E0.0
M221 S95
G21 ; set units to millimeters
G90 ; use absolute coordinates
M83 ; use relative distances for extrusion
M900 K0.06 ; Filament gcode LA 1.5
M900 K30 ; Filament gcode LA 1.0
;BEFORE_LAYER_CHANGE
G92 E0.0
;0.2


G1 E-0.80000 F2100.00000
G1 Z0.600 F10800.000
;AFTER_LAYER_CHANGE
;0.2
G1 X45.398 Y81.089
G1 Z0.200
G1 E0.80000 F2100.00000
M204 S500
G1 F1200.000
G1 X45.945 Y80.277 E0.03072
G1 X46.709 Y79.674 E0.03050
G1 X47.788 Y79.207 E0.03686
G1 X49.054 Y78.922 E0.04072
G1 X50.893 Y78.788 E0.05779
G1 X199.104 Y78.788 E4.64705
G1 X200.380 Y78.850 E0.04006
G1 X201.569 Y79.037 E0.03773
G1 X202.645 Y79.361 E0.03524
G1 X203.276 Y79.665 E0.02196
G1 X203.932 Y80.152 E0.02562
G1 X204.414 Y80.739 E0.02381
G1 X204.686 Y81.312 E0.01989
G1 X204.838 Y82.059 E0.02390
G1 X204.838 Y127.926 E1.43812
G1 X204.601 Y128.914 E0.03188
G1 X204.052 Y129.726 E0.03072
G1 X203.291 Y130.326 E0.03038
G1 X202.212 Y130.793 E0.03686
G1 X200.946 Y131.078 E0.04072
G1 X199.107 Y131.212 E0.05779
G1 X50.870 Y131.212 E4.64789
G1 X48.964 Y131.064 E0.05994
G1 X47.886 Y130.823 E0.03462
G1 X47.197 Y130.573 E0.02299
G1 X46.598 Y130.257 E0.02125
G1 X46.021 Y129.803 E0.02301
G1 X45.572 Y129.238 E0.02262
G1 X45.316 Y128.695 E0.01882
G1 X45.158 Y127.808 E0.02826
G1 X45.161 Y82.082 E1.43371
G1 X45.384 Y81.148 E0.03012
M204 S1000
G1 F8640.000
G1 X45.945 Y80.277 E-0.23924
G1 X46.709 Y79.674 E-0.22462
G1 X47.788 Y79.207 E-0.27144
G1 X47.892 Y79.184 E-0.02470
G1 E-0.04000 F2100.00000
G1 Z0.800 F10800.000
G1 X50.221 Y82.614
G1 Z0.200
G1 E0.80000 F2100.00000
M204 S500
G1 F1200.000
G1 X50.536 Y82.554 E0.01005
G1 X50.917 Y82.536 E0.01196
G1 X199.180 Y82.538 E4.64870
G1 X199.471 Y82.554 E0.00911
G1 X199.779 Y82.603 E0.00979
G1 X199.779 Y127.386 E1.40416
G1 X199.464 Y127.446 E0.01005
G1 X199.083 Y127.464 E0.01196
G1 X50.917 Y127.464 E4.64565
G1 X50.527 Y127.445 E0.01222
G1 X50.222 Y127.398 E0.00969
G1 X50.221 Y82.674 E1.40228
M204 S1000
G1 X49.844 Y82.333 F10800.000
M204 S500
G1 F1200.000
G1 X49.984 Y82.275 E0.00476
G1 X50.492 Y82.179 E0.01621
G1 X50.908 Y82.159 E0.01306
G1 X199.191 Y82.161 E4.64931
G1 X199.510 Y82.179 E0.01003
G1 X199.870 Y82.235 E0.01143
G1 X200.156 Y82.329 E0.00943
G1 X200.156 Y127.667 E1.42154
G1 X200.016 Y127.725 E0.00476
G1 X199.508 Y127.821 E0.01621
G1 X199.092 Y127.841 E0.01306
G1 X50.908 Y127.841 E4.64622
M73 Q0 S200
M73 P0 R196
G1 X50.489 Y127.821 E0.01314
G1 X50.130 Y127.765 E0.01141
G1 X49.845 Y127.665 E0.00945
G1 X49.844 Y82.393 E1.41946
M204 S1000
G1 X49.991 Y82.372 F10800.000
G1 F8640.000
G1 X49.984 Y82.275 E-0.04237
G1 X50.492 Y82.179 E-0.11935
G1 X50.908 Y82.159 E-0.09616
G1 X53.082 Y82.159 E-0.50211
G1 E-0.04000 F2100.00000
G1 Z0.800 F10800.000
G1 X199.666 Y83.466
G1 Z0.200
G1 E0.80000 F2100.00000
M204 S500
G1 F1200.000
G1 X199.021 Y82.821 E0.02867
G1 X198.487 Y82.821 E0.01679
G1 X199.496 Y83.831 E0.04488
G1 X199.496 Y84.365 E0.01679
G1 X197.952 Y82.821 E0.06863
G1 X197.418 Y82.821 E0.01679
G1 X199.496 Y84.900 E0.09238
G1 X199.496 Y85.434 E0.01679
G1 X196.883 Y82.821 E0.11613
G1 X196.349 Y82.821 E0.01679
G1 X199.496 Y85.969 E0.13988
G1 X199.496 Y86.503 E0.01679
G1 X195.814 Y82.821 E0.16363
G1 X195.280 Y82.821 E0.01679
G1 X199.496 Y87.038 E0.18738
G1 X199.496 Y87.572 E0.01679
G1 X194.745 Y82.821 E0.21113
G1 X194.211 Y82.821 E0.01679
G1 X199.496 Y88.107 E0.23488
G1 X199.496 Y88.641 E0.01679
G1 X193.676 Y82.821 E0.25863
G1 X193.142 Y82.821 E0.01679
G1 X199.496 Y89.175 E0.28238
G1 X199.496 Y89.710 E0.01679
G1 X192.608 Y82.821 E0.30613
G1 X192.073 Y82.821 E0.01679
G1 X199.496 Y90.244 E0.32988
G1 X199.496 Y90.779 E0.01679
G1 X191.539 Y82.821 E0.35363
G1 X191.004 Y82.821 E0.01679
G1 X199.496 Y91.313 E0.37738
G1 X199.496 Y91.848 E0.01679
G1 X190.470 Y82.821 E0.40113
G1 X189.935 Y82.821 E0.01679
G1 X199.496 Y92.382 E0.42488
G1 X199.496 Y92.916 E0.01679
G1 X189.401 Y82.821 E0.44863
G1 X188.866 Y82.821 E0.01679
G1 X199.496 Y93.451 E0.47238
G1 X199.496 Y93.985 E0.01679
G1 X188.332 Y82.821 E0.49613
G1 X187.798 Y82.821 E0.01679
G1 X199.496 Y94.520 E0.51988
G1 X199.496 Y95.054 E0.01679
G1 X187.263 Y82.821 E0.54363
G1 X186.729 Y82.821 E0.01679
G1 X199.496 Y95.589 E0.56738
G1 X199.496 Y96.123 E0.01679
G1 X186.194 Y82.821 E0.59113
G1 X185.660 Y82.821 E0.01679
G1 X199.496 Y96.658 E0.61488
G1 X199.496 Y97.192 E0.01679
G1 X185.125 Y82.821 E0.63863
G1 X184.591 Y82.821 E0.01679
G1 X199.496 Y97.726 E0.66238
G1 X199.496 Y98.261 E0.01679
G1 X184.056 Y82.821 E0.68613
G1 X183.522 Y82.821 E0.01679
G1 X199.496 Y98.795 E0.70988
G1 X199.496 Y99.330 E0.01679
G1 X182.988 Y82.821 E0.73363
G1 X182.453 Y82.821 E0.01679
G1 X199.496 Y99.864 E0.75738
G1 X199.496 Y100.399 E0.01679
G1 X181.919 Y82.821 E0.78113
G1 X181.384 Y82.821 E0.01679
G1 X199.496 Y100.933 E0.80489
G1 X199.496 Y101.468 E0.01679
G1 X180.850 Y82.821 E0.82864
G1 X180.315 Y82.821 E0.01679
G1 X199.496 Y102.002 E0.85239
G1 X199.496 Y102.536 E0.01679
G1 X179.781 Y82.821 E0.87614
G1 X179.246 Y82.821 E0.01679
G1 X199.496 Y103.071 E0.89989
G1 X199.496 Y103.605 E0.01679
G1 X178.712 Y82.821 E0.92364
G1 X178.177 Y82.821 E0.01679
G1 X199.496 Y104.140 E0.94739
G1 X199.496 Y104.674 E0.01679
G1 X177.643 Y82.821 E0.97114
G1 X177.109 Y82.821 E0.01679
G1 X199.496 Y105.209 E0.99489
G1 X199.496 Y105.743 E0.01679
G1 X176.574 Y82.821 E1.01864
G1 X176.040 Y82.821 E0.01679
G1 X199.496 Y106.277 E1.04239
G1 X199.496 Y106.812 E0.01679
G1 X175.505 Y82.821 E1.06614
G1 X174.971 Y82.821 E0.01679
G1 X199.496 Y107.346 E1.08989
G1 X199.496 Y107.881 E0.01679
G1 X174.436 Y82.821 E1.11364
G1 X173.902 Y82.821 E0.01679
G1 X199.496 Y108.415 E1.13739
G1 X199.496 Y108.950 E0.01679
G1 X173.367 Y82.821 E1.16114
G1 X172.833 Y82.821 E0.01679
G1 X199.496 Y109.484 E1.18489
G1 X199.496 Y110.019 E0.01679
G1 X172.299 Y82.821 E1.20864
G1 X171.764 Y82.821 E0.01679
G1 X199.496 Y110.553 E1.23239
G1 X199.496 Y111.087 E0.01679
G1 X171.230 Y82.821 E1.25614
M73 Q1 S199
M73 P1 R195
G1 X170.695 Y82.821 E0.01679
G1 X199.496 Y111.622 E1.27989
G1 X199.496 Y112.156 E0.01679
G1 X170.161 Y82.821 E1.30364
G1 X169.626 Y82.821 E0.01679
G1 X199.496 Y112.691 E1.32739
G1 X199.496 Y113.225 E0.01679
G1 X169.092 Y82.821 E1.35114
G1 X168.557 Y82.821 E0.01679
G1 X199.496 Y113.760 E1.37489
G1 X199.496 Y114.294 E0.01679
G1 X168.023 Y82.821 E1.39864
G1 X167.488 Y82.821 E0.01679
G1 X199.496 Y114.829 E1.42239
G1 X199.496 Y115.363 E0.01679
G1 X166.954 Y82.821 E1.44614
G1 X166.420 Y82.821 E0.01679
G1 X199.496 Y115.897 E1.46989
G1 X199.496 Y116.432 E0.01679
G1 X165.885 Y82.821 E1.49364
G1 X165.351 Y82.821 E0.01679
G1 X199.496 Y116.966 E1.51739
G1 X199.496 Y117.501 E0.01679
G1 X164.816 Y82.821 E1.54114
G1 X164.282 Y82.821 E0.01679
G1 X199.496 Y118.035 E1.56490
G1 X199.496 Y118.570 E0.01679
G1 X163.747 Y82.821 E1.58865
G1 X163.213 Y82.821 E0.01679
G1 X199.496 Y119.104 E1.61240
G1 X199.496 Y119.638 E0.01679
G1 X162.678 Y82.821 E1.63615
G1 X162.144 Y82.821 E0.01679
G1 X199.496 Y120.173 E1.65990
G1 X199.496 Y120.707 E0.01679
G1 X161.610 Y82.821 E1.68365
G1 X161.075 Y82.821 E0.01679
G1 X199.496 Y121.242 E1.70740
G1 X199.496 Y121.776 E0.01679
G1 X160.541 Y82.821 E1.73115
G1 X160.006 Y82.821 E0.01679
G1 X199.496 Y122.311 E1.75490
G1 X199.496 Y122.845 E0.01679
G1 X159.472 Y82.820 E1.77865
G1 X158.937 Y82.820 E0.01679
G1 X199.496 Y123.380 E1.80240
G1 X199.496 Y123.914 E0.01679
G1 X158.403 Y82.820 E1.82615
M73 Q1 S198
M73 P1 R194
G1 X157.868 Y82.820 E0.01679
G1 X199.496 Y124.448 E1.84990
G1 X199.496 Y124.983 E0.01679
G1 X157.334 Y82.820 E1.87365
G1 X156.799 Y82.820 E0.01679
G1 X199.496 Y125.517 E1.89740
G1 X199.496 Y126.052 E0.01679
G1 X156.265 Y82.820 E1.92115
G1 X155.731 Y82.820 E0.01679
G1 X199.496 Y126.586 E1.94490
G1 X199.496 Y127.121 E0.01679
G1 X155.196 Y82.820 E1.96865
G1 X154.662 Y82.820 E0.01679
G1 X199.023 Y127.181 E1.97135
G1 X198.488 Y127.181 E0.01679
G1 X154.127 Y82.820 E1.97135
G1 X153.593 Y82.820 E0.01679
G1 X197.954 Y127.181 E1.97135
G1 X197.419 Y127.181 E0.01679
G1 X153.058 Y82.820 E1.97135
G1 X152.524 Y82.820 E0.01679
G1 X196.885 Y127.181 E1.97135
G1 X196.351 Y127.181 E0.01679
G1 X151.989 Y82.820 E1.97135
G1 X151.455 Y82.820 E0.01679
G1 X195.816 Y127.181 E1.97136
G1 X195.282 Y127.181 E0.01679
G1 X150.921 Y82.820 E1.97136
G1 X150.386 Y82.820 E0.01679
G1 X194.747 Y127.181 E1.97136
G1 X194.213 Y127.181 E0.01679
G1 X149.852 Y82.820 E1.97136
G1 X149.317 Y82.820 E0.01679
G1 X193.678 Y127.181 E1.97136
G1 X193.144 Y127.181 E0.01679
G1 X148.783 Y82.820 E1.97136
G1 X148.248 Y82.820 E0.01679
G1 X192.609 Y127.181 E1.97136
G1 X192.075 Y127.181 E0.01679
G1 X147.714 Y82.820 E1.97136
M73 Q2 S197
M73 P2 R193
G1 X147.179 Y82.820 E0.01679
G1 X191.541 Y127.181 E1.97136
G1 X191.006 Y127.181 E0.01679
G1 X146.645 Y82.820 E1.97136
G1 X146.111 Y82.820 E0.01679
G1 X190.472 Y127.181 E1.97136
G1 X189.937 Y127.181 E0.01679
G1 X145.576 Y82.820 E1.97136
G1 X145.042 Y82.820 E0.01679
G1 X189.403 Y127.181 E1.97136
G1 X188.868 Y127.181 E0.01679
G1 X144.507 Y82.820 E1.97136
G1 X143.973 Y82.820 E0.01679
G1 X188.334 Y127.181 E1.97136
G1 X187.799 Y127.181 E0.01679
G1 X143.438 Y82.820 E1.97136
G1 X142.904 Y82.820 E0.01679
G1 X187.265 Y127.181 E1.97136
G1 X186.731 Y127.181 E0.01679
G1 X142.369 Y82.820 E1.97136
G1 X141.835 Y82.820 E0.01679
G1 X186.196 Y127.181 E1.97136
G1 X185.662 Y127.181 E0.01679
G1 X141.300 Y82.820 E1.97136
G1 X140.766 Y82.820 E0.01679
G1 X185.127 Y127.181 E1.97136
G1 X184.593 Y127.181 E0.01679
G1 X140.232 Y82.820 E1.97136
G1 X139.697 Y82.820 E0.01679
G1 X184.058 Y127.181 E1.97136
G1 X183.524 Y127.181 E0.01679
G1 X139.163 Y82.820 E1.97137
G1 X138.628 Y82.820 E0.01679
G1 X182.990 Y127.181 E1.97137
G1 X182.455 Y127.181 E0.01679
G1 X138.094 Y82.820 E1.97137
G1 X137.559 Y82.820 E0.01679
G1 X181.921 Y127.181 E1.97137
M73 Q2 S196
M73 P2 R192
G1 X181.386 Y127.181 E0.01679
G1 X137.025 Y82.820 E1.97137
G1 X136.490 Y82.820 E0.01679
G1 X180.852 Y127.181 E1.97137
G1 X180.317 Y127.181 E0.01679
G1 X135.956 Y82.820 E1.97137
G1 X135.422 Y82.820 E0.01679
G1 X179.783 Y127.181 E1.97137
G1 X179.248 Y127.181 E0.01679
G1 X134.887 Y82.820 E1.97137
G1 X134.353 Y82.820 E0.01679
G1 X178.714 Y127.181 E1.97137
G1 X178.180 Y127.181 E0.01679
G1 X133.818 Y82.820 E1.97137
G1 X133.284 Y82.820 E0.01679
G1 X177.645 Y127.181 E1.97137
G1 X177.111 Y127.181 E0.01679
G1 X132.749 Y82.820 E1.97137
G1 X132.215 Y82.820 E0.01679
G1 X176.576 Y127.181 E1.97137
G1 X176.042 Y127.181 E0.01679
G1 X131.680 Y82.820 E1.97137
G1 X131.146 Y82.820 E0.01679
G1 X175.507 Y127.181 E1.97137
G1 X174.973 Y127.181 E0.01679
G1 X130.611 Y82.820 E1.97137
G1 X130.077 Y82.820 E0.01679
G1 X174.438 Y127.181 E1.97137
G1 X173.904 Y127.181 E0.01679
G1 X129.543 Y82.820 E1.97137
G1 X129.008 Y82.820 E0.01679
G1 X173.370 Y127.181 E1.97137
G1 X172.835 Y127.181 E0.01679
G1 X128.474 Y82.820 E1.97137
G1 X127.939 Y82.820 E0.01679
G1 X172.301 Y127.181 E1.97137
G1 X171.766 Y127.181 E0.01679
G1 X127.405 Y82.820 E1.97137
M73 Q3 S195
M73 P3 R191
G1 X126.870 Y82.820 E0.01679
G1 X171.232 Y127.181 E1.97137
G1 X170.697 Y127.181 E0.01679
G1 X126.336 Y82.820 E1.97138
G1 X125.801 Y82.820 E0.01679
G1 X170.163 Y127.181 E1.97138
G1 X169.629 Y127.181 E0.01679
G1 X125.267 Y82.820 E1.97138
G1 X124.733 Y82.820 E0.01679
G1 X169.094 Y127.181 E1.97138
G1 X168.560 Y127.181 E0.01679
G1 X124.198 Y82.820 E1.97138
G1 X123.664 Y82.820 E0.01679
G1 X168.025 Y127.181 E1.97138
G1 X167.491 Y127.181 E0.01679
G1 X123.129 Y82.820 E1.97138
G1 X122.595 Y82.820 E0.01679
G1 X166.956 Y127.181 E1.97138
G1 X166.422 Y127.181 E0.01679
G1 X122.060 Y82.820 E1.97138
G1 X121.526 Y82.820 E0.01679
G1 X165.887 Y127.181 E1.97138
G1 X165.353 Y127.181 E0.01679
G1 X120.991 Y82.820 E1.97138
G1 X120.457 Y82.820 E0.01679
G1 X164.819 Y127.181 E1.97138
G1 X164.284 Y127.181 E0.01679
G1 X119.922 Y82.820 E1.97138
G1 X119.388 Y82.820 E0.01679
G1 X163.750 Y127.181 E1.97138
G1 X163.215 Y127.181 E0.01679
G1 X118.854 Y82.820 E1.97138
G1 X118.319 Y82.820 E0.01679
G1 X162.681 Y127.181 E1.97138
G1 X162.146 Y127.181 E0.01679
G1 X117.785 Y82.820 E1.97138
G1 X117.250 Y82.820 E0.01679
G1 X161.612 Y127.181 E1.97138
M73 Q3 S194
M73 P3 R190
G1 X161.077 Y127.181 E0.01679
G1 X116.716 Y82.820 E1.97138
G1 X116.181 Y82.820 E0.01679
G1 X160.543 Y127.181 E1.97138
G1 X160.009 Y127.181 E0.01679
G1 X115.647 Y82.820 E1.97138
G1 X115.112 Y82.820 E0.01679
G1 X159.474 Y127.181 E1.97138
G1 X158.940 Y127.181 E0.01679
G1 X114.578 Y82.820 E1.97138
G1 X114.044 Y82.820 E0.01679
G1 X158.405 Y127.181 E1.97138
G1 X157.871 Y127.181 E0.01679
G1 X113.509 Y82.820 E1.97139
G1 X112.975 Y82.820 E0.01679
G1 X157.336 Y127.181 E1.97139
G1 X156.802 Y127.181 E0.01679
G1 X112.440 Y82.820 E1.97139
G1 X111.906 Y82.820 E0.01679
G1 X156.268 Y127.181 E1.97139
G1 X155.733 Y127.181 E0.01679
G1 X111.371 Y82.820 E1.97139
G1 X110.837 Y82.820 E0.01679
G1 X155.199 Y127.181 E1.97139
G1 X154.664 Y127.181 E0.01679
G1 X110.302 Y82.820 E1.97139
G1 X109.768 Y82.820 E0.01679
G1 X154.130 Y127.181 E1.97139
G1 X153.595 Y127.181 E0.01679
G1 X109.234 Y82.820 E1.97139
G1 X108.699 Y82.820 E0.01679
G1 X153.061 Y127.181 E1.97139
G1 X152.526 Y127.181 E0.01679
G1 X108.165 Y82.820 E1.97139
G1 X107.630 Y82.820 E0.01679
G1 X151.992 Y127.181 E1.97139
G1 X151.458 Y127.181 E0.01679
G1 X107.096 Y82.820 E1.97139
M73 Q4 S193
M73 P4 R189
G1 X106.561 Y82.820 E0.01679
G1 X150.923 Y127.181 E1.97139
G1 X150.389 Y127.181 E0.01679
G1 X106.027 Y82.820 E1.97139
G1 X105.492 Y82.820 E0.01679
G1 X149.854 Y127.181 E1.97139
G1 X149.320 Y127.181 E0.01679
G1 X104.958 Y82.820 E1.97139
G1 X104.423 Y82.820 E0.01679
G1 X148.785 Y127.181 E1.97139
G1 X148.251 Y127.181 E0.01679
G1 X103.889 Y82.820 E1.97139
G1 X103.355 Y82.819 E0.01679
G1 X147.716 Y127.181 E1.97139
G1 X147.182 Y127.181 E0.01679
G1 X102.820 Y82.819 E1.97139
G1 X102.286 Y82.819 E0.01679
G1 X146.648 Y127.181 E1.97139
G1 X146.113 Y127.181 E0.01679
G1 X101.751 Y82.819 E1.97139
G1 X101.217 Y82.819 E0.01679
G1 X145.579 Y127.181 E1.97139
G1 X145.044 Y127.181 E0.01679
G1 X100.682 Y82.819 E1.97140
G1 X100.148 Y82.819 E0.01679
G1 X144.510 Y127.181 E1.97140
G1 X143.975 Y127.181 E0.01679
G1 X99.613 Y82.819 E1.97140
G1 X99.079 Y82.819 E0.01679
G1 X143.441 Y127.181 E1.97140
G1 X142.907 Y127.181 E0.01679
G1 X98.545 Y82.819 E1.97140
G1 X98.010 Y82.819 E0.01679
G1 X142.372 Y127.181 E1.97140
G1 X141.838 Y127.181 E0.01679
G1 X97.476 Y82.819 E1.97140
G1 X96.941 Y82.819 E0.01679
G1 X141.303 Y127.181 E1.97140
M73 Q4 S192
M73 P4 R188
G1 X140.769 Y127.181 E0.01679
G1 X96.407 Y82.819 E1.97140
G1 X95.872 Y82.819 E0.01679
G1 X140.234 Y127.181 E1.97140
G1 X139.700 Y127.181 E0.01679
G1 X95.338 Y82.819 E1.97140
G1 X94.803 Y82.819 E0.01679
G1 X139.165 Y127.181 E1.97140
G1 X138.631 Y127.181 E0.01679
G1 X94.269 Y82.819 E1.97140
G1 X93.734 Y82.819 E0.01679
G1 X138.097 Y127.181 E1.97140
G1 X137.562 Y127.181 E0.01679
G1 X93.200 Y82.819 E1.97140
G1 X92.666 Y82.819 E0.01679
G1 X137.028 Y127.181 E1.97140
G1 X136.493 Y127.181 E0.01679
G1 X92.131 Y82.819 E1.97140
G1 X91.597 Y82.819 E0.01679
G1 X135.959 Y127.181 E1.97140
