; generated by PrusaSlicer 2.2.0+ on 2020-11-08 at 16:09:23 UTC

; 

; external perimeters extrusion width = 0.60mm
; perimeters extrusion width = 0.50mm
; infill extrusion width = 0.50mm
; solid infill extrusion width = 0.50mm
; top infill extrusion width = 0.45mm
; first layer extrusion width = 0.42mm

M73 P0 R98
M73 Q0 S99
M201 X1000 Y1000 Z200 E5000 ; sets maximum accelerations, mm/sec^2
M203 X200 Y200 Z12 E120 ; sets maximum feedrates, mm/sec
M204 P1250 R1250 T1250 ; sets acceleration (P, T) and retract acceleration (R), mm/sec^2
M205 X8.00 Y8.00 Z0.40 E4.50 ; sets the jerk limits, mm/sec
M205 S0 T0 ; sets the minimum extruding and travel feed rate, mm/sec
M107
M862.3 P "MK3S" ; printer model check
M862.1 P0.4 ; nozzle diameter check
M115 U3.9.0 ; tell printer latest fw version
G90 ; use absolute coordinates
M83 ; extruder relative mode
M104 S230 ; set extruder temp
M140 S60 ; set bed temp
M190 S60 ; wait for bed temp
M109 S230 ; wait for extruder temp
G28 W ; home all without mesh bed level
G80 ; mesh bed leveling
G1 Y-3.0 F1000.0 ; go outside print area
G92 E0.0
G1 X60.0 E9.0 F1000.0 ; intro line
M73 Q0 S99
M73 P0 R98
G1 X100.0 E12.5 F1000.0 ; intro line
G92 E0.0
M221 S95
G21 ; set units to millimeters
G90 ; use absolute coordinates
M83 ; use relative distances for extrusion
M900 K0.06 ; Filament gcode LA 1.5
M900 K30 ; Filament gcode LA 1.0
;BEFORE_LAYER_CHANGE
G92 E0.0
;0.2


G1 E-0.80000 F2100.00000
G1 Z0.600 F10800.000
;AFTER_LAYER_CHANGE
;0.2
G1 X91.270 Y39.635
G1 Z0.200
G1 E0.80000 F2100.00000
M204 S500
G1 F1200.000
G1 X91.765 Y39.210 E0.02048
G1 X92.355 Y38.937 E0.02036
G1 X92.999 Y38.833 E0.02048
G1 X155.972 Y38.823 E1.97446
G1 X157.387 Y38.873 E0.04440
G1 X157.868 Y39.017 E0.01574
G1 X158.308 Y39.259 E0.01574
G1 X158.726 Y39.629 E0.01752
G1 X159.044 Y40.084 E0.01740
G1 X159.248 Y40.600 E0.01740
G1 X159.326 Y41.153 E0.01752
G1 X159.327 Y168.804 E4.00240
G1 X159.267 Y169.333 E0.01668
G1 X159.090 Y169.835 E0.01669
G1 X158.725 Y170.381 E0.02060
G1 X158.228 Y170.804 E0.02048
G1 X157.634 Y171.076 E0.02048
G1 X156.989 Y171.177 E0.02048
G1 X93.042 Y171.177 E2.00501
G1 X92.514 Y171.116 E0.01668
G1 X92.015 Y170.940 E0.01657
G1 X91.469 Y170.575 E0.02060
G1 X91.042 Y170.072 E0.02071
G1 X90.770 Y169.474 E0.02060
G1 X90.673 Y168.820 E0.02071
G1 X90.673 Y41.206 E4.00125
G1 X90.733 Y40.677 E0.01668
G1 X90.910 Y40.175 E0.01669
G1 X91.236 Y39.685 E0.01848
M204 S1000
G1 F8640.000
G1 X91.765 Y39.210 E-0.16418
G1 X92.355 Y38.937 E-0.14993
G1 X92.999 Y38.833 E-0.15080
G1 X94.277 Y38.833 E-0.29510
G1 E-0.04000 F2100.00000
G1 Z0.800 F10800.000
G1 X93.739 Y58.108
G1 Z0.200
G1 E0.80000 F2100.00000
M204 S500
G1 F1200.000
G1 X94.532 Y58.021 E0.02503
G1 X95.042 Y57.993 E0.01602
G1 X96.046 Y57.988 E0.03148
G1 X154.456 Y57.988 E1.83139
G1 X155.466 Y58.021 E0.03168
G1 X156.261 Y58.108 E0.02510
G1 X156.261 Y73.695 E0.48870
G1 X156.227 Y74.696 E0.03140
G1 X156.146 Y75.285 E0.01864
G1 X156.227 Y75.873 E0.01864
G1 X156.261 Y76.874 E0.03140
G1 X156.261 Y90.198 E0.41776
G1 X156.256 Y91.191 E0.03112
G1 X156.227 Y91.698 E0.01592
G1 X156.144 Y92.300 E0.01904
G1 X156.227 Y92.903 E0.01911
G1 X156.261 Y93.904 E0.03140
G1 X156.256 Y108.221 E0.44888
G1 X156.227 Y108.728 E0.01592
G1 X156.148 Y109.300 E0.01809
G1 X156.227 Y109.873 E0.01817
G1 X156.261 Y110.874 E0.03140
G1 X156.261 Y124.198 E0.41776
G1 X156.256 Y125.191 E0.03112
G1 X156.227 Y125.698 E0.01592
G1 X156.144 Y126.300 E0.01904
G1 X156.227 Y126.903 E0.01911
G1 X156.261 Y127.904 E0.03140
G1 X156.256 Y142.221 E0.44888
G1 X156.227 Y142.728 E0.01592
G1 X156.146 Y143.315 E0.01856
G1 X156.227 Y143.903 E0.01864
G1 X156.261 Y144.904 E0.03140
G1 X156.261 Y160.491 E0.48870
G1 X155.466 Y160.578 E0.02510
G1 X154.456 Y160.611 E0.03168
G1 X96.046 Y160.611 E1.83139
G1 X95.042 Y160.606 E0.03148
G1 X94.532 Y160.578 E0.01602
G1 X93.739 Y160.491 E0.02503
G1 X93.739 Y144.904 E0.48870
G1 X93.773 Y143.903 E0.03140
G1 X93.854 Y143.315 E0.01864
G1 X93.773 Y142.726 E0.01864
G1 X93.739 Y141.725 E0.03140
G1 X93.739 Y128.401 E0.41776
G1 X93.744 Y127.408 E0.03112
G1 X93.773 Y126.901 E0.01592
G1 X93.856 Y126.300 E0.01904
G1 X93.773 Y125.696 E0.01911
G1 X93.739 Y124.695 E0.03140
G1 X93.744 Y110.378 E0.44888
G1 X93.773 Y109.871 E0.01592
G1 X93.852 Y109.300 E0.01809
G1 X93.773 Y108.726 E0.01817
G1 X93.739 Y107.725 E0.03140
G1 X93.739 Y94.401 E0.41776
G1 X93.744 Y93.408 E0.03112
G1 X93.773 Y92.901 E0.01592
G1 X93.856 Y92.300 E0.01904
G1 X93.773 Y91.696 E0.01911
G1 X93.739 Y90.695 E0.03140
G1 X93.744 Y76.378 E0.44888
G1 X93.773 Y75.871 E0.01592
G1 X93.854 Y75.285 E0.01856
G1 X93.773 Y74.696 E0.01864
G1 X93.739 Y73.695 E0.03140
G1 X93.739 Y58.168 E0.48681
M204 S1000
G1 X93.709 Y57.709 F10800.000
G1 X93.806 Y57.722
M204 S500
G1 F1200.000
G1 X93.837 Y56.668 E0.03304
G1 X93.837 Y41.997 E0.46001
G1 X156.163 Y41.997 E1.95418
G1 X156.163 Y56.668 E0.46001
G1 X156.194 Y57.722 E0.03304
G1 X155.492 Y57.645 E0.02214
G1 X154.462 Y57.611 E0.03233
G1 X96.045 Y57.611 E1.83162
G1 X95.031 Y57.616 E0.03181
G1 X94.501 Y57.645 E0.01663
G1 X93.865 Y57.715 E0.02006
M204 S1000
G1 F8640.000
G1 X93.837 Y56.668 E-0.24176
G1 X93.837 Y54.424 E-0.51824
G1 E-0.04000 F2100.00000
G1 Z0.800 F10800.000
G1 X93.804 Y160.877
G1 Z0.200
G1 E0.80000 F2100.00000
M204 S500
G1 F1200.000
G1 X94.501 Y160.954 E0.02198
G1 X95.031 Y160.983 E0.01663
G1 X96.045 Y160.988 E0.03181
G1 X154.462 Y160.988 E1.83162
G1 X155.492 Y160.954 E0.03233
G1 X156.196 Y160.877 E0.02219
G1 X156.164 Y161.812 E0.02934
G1 X156.163 Y168.013 E0.19442
G1 X93.837 Y168.013 E1.95419
G1 X93.836 Y161.812 E0.19442
G1 X93.806 Y160.937 E0.02746
M204 S1000
G1 F8640.000
G1 X94.501 Y160.954 E-0.16047
G1 X95.031 Y160.983 E-0.12248
G1 X96.045 Y160.988 E-0.23425
G1 X97.097 Y160.988 E-0.24281
G1 E-0.04000 F2100.00000
G1 Z0.800 F10800.000
G1 X93.460 Y168.390
G1 Z0.200
G1 E0.80000 F2100.00000
M204 S500
G1 F1200.000
G1 X93.459 Y161.819 E0.20603
G1 X93.425 Y160.810 E0.03166
G1 X93.365 Y160.314 E0.01565
G1 X93.361 Y159.828 E0.01523
G1 X93.361 Y58.657 E3.17215
M73 Q1 S98
M73 P1 R97
G1 X93.376 Y58.170 E0.01526
G1 X93.432 Y57.672 E0.01573
G1 X93.460 Y56.663 E0.03164
G1 X93.460 Y41.620 E0.47167
G1 X156.540 Y41.620 E1.97783
G1 X156.540 Y56.663 E0.47167
G1 X156.568 Y57.672 E0.03164
G1 X156.624 Y58.170 E0.01573
G1 X156.639 Y58.657 E0.01526
G1 X156.639 Y159.828 E3.17215
G1 X156.635 Y160.314 E0.01523
G1 X156.575 Y160.810 E0.01565
G1 X156.541 Y161.819 E0.03166
G1 X156.540 Y168.390 E0.20603
G1 X93.520 Y168.390 E1.97595
M204 S1000
G1 X93.648 Y168.037 F10800.000
G1 F8640.000
G1 X93.490 Y165.099 E-0.76000
G1 E-0.04000 F2100.00000
G1 Z0.800 F10800.000
G1 X93.950 Y167.134
G1 Z0.200
G1 E0.80000 F2100.00000
M204 S500
G1 F1200.000
G1 X94.546 Y167.730 E0.02656
G1 X95.082 Y167.730 E0.01687
G1 X94.120 Y166.768 E0.04286
G1 X94.120 Y166.232 E0.01687
G1 X95.618 Y167.730 E0.06672
G1 X96.153 Y167.730 E0.01687
G1 X94.120 Y165.696 E0.09059
G1 X94.119 Y165.161 E0.01687
G1 X96.689 Y167.730 E0.11445
G1 X97.225 Y167.730 E0.01687
G1 X94.119 Y164.625 E0.13831
G1 X94.119 Y164.089 E0.01687
G1 X97.760 Y167.730 E0.16217
G1 X98.296 Y167.730 E0.01687
G1 X94.119 Y163.553 E0.18604
G1 X94.119 Y163.018 E0.01687
G1 X98.832 Y167.730 E0.20990
G1 X99.367 Y167.730 E0.01687
G1 X94.119 Y162.482 E0.23376
G1 X94.119 Y161.946 E0.01687
G1 X99.903 Y167.730 E0.25762
G1 X100.439 Y167.730 E0.01687
G1 X94.105 Y161.396 E0.28211
G1 X94.098 Y161.194 E0.00638
G1 X94.480 Y161.236 E0.01210
G1 X100.974 Y167.730 E0.28928
G1 X101.510 Y167.730 E0.01687
G1 X95.045 Y161.266 E0.28795
G1 X95.584 Y161.268 E0.01696
G1 X102.046 Y167.730 E0.28782
G1 X102.581 Y167.730 E0.01687
G1 X96.122 Y161.271 E0.28771
G1 X96.658 Y161.271 E0.01687
G1 X103.117 Y167.730 E0.28771
G1 X103.653 Y167.730 E0.01687
G1 X97.193 Y161.271 E0.28771
G1 X97.729 Y161.271 E0.01687
G1 X104.188 Y167.730 E0.28771
G1 X104.724 Y167.730 E0.01687
G1 X98.265 Y161.271 E0.28771
G1 X98.800 Y161.271 E0.01687
G1 X105.260 Y167.730 E0.28771
G1 X105.795 Y167.730 E0.01687
G1 X99.336 Y161.271 E0.28771
G1 X99.872 Y161.271 E0.01687
G1 X106.331 Y167.730 E0.28771
G1 X106.867 Y167.730 E0.01687
G1 X100.407 Y161.271 E0.28771
G1 X100.943 Y161.271 E0.01687
G1 X107.402 Y167.730 E0.28771
G1 X107.938 Y167.730 E0.01687
G1 X101.479 Y161.271 E0.28771
G1 X102.015 Y161.271 E0.01687
G1 X108.474 Y167.730 E0.28771
G1 X109.010 Y167.730 E0.01687
G1 X102.550 Y161.271 E0.28771
G1 X103.086 Y161.271 E0.01687
G1 X109.545 Y167.730 E0.28771
G1 X110.081 Y167.730 E0.01687
G1 X103.622 Y161.271 E0.28771
G1 X104.157 Y161.271 E0.01687
G1 X110.617 Y167.730 E0.28771
G1 X111.152 Y167.730 E0.01687
G1 X104.693 Y161.271 E0.28771
G1 X105.229 Y161.271 E0.01687
G1 X111.688 Y167.730 E0.28771
G1 X112.224 Y167.730 E0.01687
G1 X105.764 Y161.271 E0.28771
G1 X106.300 Y161.271 E0.01687
G1 X112.759 Y167.730 E0.28771
G1 X113.295 Y167.730 E0.01687
G1 X106.836 Y161.271 E0.28771
G1 X107.371 Y161.271 E0.01687
G1 X113.831 Y167.730 E0.28771
G1 X114.366 Y167.730 E0.01687
G1 X107.907 Y161.271 E0.28771
G1 X108.443 Y161.271 E0.01687
G1 X114.902 Y167.730 E0.28771
G1 X115.438 Y167.730 E0.01687
G1 X108.978 Y161.271 E0.28771
G1 X109.514 Y161.271 E0.01687
G1 X115.973 Y167.730 E0.28771
G1 X116.509 Y167.730 E0.01687
G1 X110.050 Y161.271 E0.28771
G1 X110.585 Y161.271 E0.01687
G1 X117.045 Y167.730 E0.28771
G1 X117.580 Y167.730 E0.01687
G1 X111.121 Y161.271 E0.28771
G1 X111.657 Y161.271 E0.01687
G1 X118.116 Y167.730 E0.28771
G1 X118.652 Y167.730 E0.01687
G1 X112.192 Y161.271 E0.28771
G1 X112.728 Y161.271 E0.01687
G1 X119.187 Y167.730 E0.28771
G1 X119.723 Y167.730 E0.01687
G1 X113.264 Y161.271 E0.28771
G1 X113.799 Y161.271 E0.01687
G1 X120.259 Y167.730 E0.28771
G1 X120.794 Y167.730 E0.01687
G1 X114.335 Y161.271 E0.28771
G1 X114.871 Y161.271 E0.01687
G1 X121.330 Y167.730 E0.28771
G1 X121.866 Y167.730 E0.01687
G1 X115.406 Y161.271 E0.28771
G1 X115.942 Y161.271 E0.01687
G1 X122.401 Y167.730 E0.28771
G1 X122.937 Y167.730 E0.01687
G1 X116.478 Y161.271 E0.28771
G1 X117.013 Y161.271 E0.01687
G1 X123.473 Y167.730 E0.28771
G1 X124.008 Y167.730 E0.01687
G1 X117.549 Y161.271 E0.28771
G1 X118.085 Y161.271 E0.01687
G1 X124.544 Y167.730 E0.28771
G1 X125.080 Y167.730 E0.01687
G1 X118.620 Y161.271 E0.28771
G1 X119.156 Y161.271 E0.01687
G1 X125.616 Y167.730 E0.28771
G1 X126.151 Y167.730 E0.01687
G1 X119.692 Y161.271 E0.28771
G1 X120.227 Y161.271 E0.01687
G1 X126.687 Y167.730 E0.28771
G1 X127.223 Y167.730 E0.01687
G1 X120.763 Y161.271 E0.28771
G1 X121.299 Y161.271 E0.01687
G1 X127.758 Y167.730 E0.28771
G1 X128.294 Y167.730 E0.01687
G1 X121.834 Y161.271 E0.28771
G1 X122.370 Y161.271 E0.01687
G1 X128.830 Y167.730 E0.28771
G1 X129.365 Y167.730 E0.01687
G1 X122.906 Y161.271 E0.28771
G1 X123.441 Y161.271 E0.01687
G1 X129.901 Y167.730 E0.28771
G1 X130.437 Y167.730 E0.01687
G1 X123.977 Y161.271 E0.28771
G1 X124.513 Y161.271 E0.01687
G1 X130.972 Y167.730 E0.28772
G1 X131.508 Y167.730 E0.01687
G1 X125.049 Y161.271 E0.28772
G1 X125.584 Y161.271 E0.01687
G1 X132.044 Y167.730 E0.28772
G1 X132.579 Y167.730 E0.01687
G1 X126.120 Y161.271 E0.28772
G1 X126.656 Y161.271 E0.01687
G1 X133.115 Y167.730 E0.28772
G1 X133.651 Y167.730 E0.01687
G1 X127.191 Y161.271 E0.28772
G1 X127.727 Y161.271 E0.01687
G1 X134.186 Y167.730 E0.28772
G1 X134.722 Y167.730 E0.01687
G1 X128.263 Y161.271 E0.28772
G1 X128.798 Y161.271 E0.01687
G1 X135.258 Y167.730 E0.28772
G1 X135.793 Y167.730 E0.01687
G1 X129.334 Y161.271 E0.28772
G1 X129.870 Y161.271 E0.01687
G1 X136.329 Y167.730 E0.28772
G1 X136.865 Y167.730 E0.01687
G1 X130.405 Y161.271 E0.28772
G1 X130.941 Y161.271 E0.01687
G1 X137.400 Y167.730 E0.28772
G1 X137.936 Y167.730 E0.01687
G1 X131.477 Y161.271 E0.28772
G1 X132.012 Y161.271 E0.01687
G1 X138.472 Y167.730 E0.28772
G1 X139.007 Y167.730 E0.01687
G1 X132.548 Y161.271 E0.28772
G1 X133.084 Y161.271 E0.01687
G1 X139.543 Y167.730 E0.28772
G1 X140.079 Y167.730 E0.01687
G1 X133.619 Y161.271 E0.28772
G1 X134.155 Y161.271 E0.01687
G1 X140.614 Y167.730 E0.28772
G1 X141.150 Y167.730 E0.01687
G1 X134.691 Y161.271 E0.28772
G1 X135.226 Y161.271 E0.01687
G1 X141.686 Y167.730 E0.28772
G1 X142.222 Y167.730 E0.01687
G1 X135.762 Y161.271 E0.28772
G1 X136.298 Y161.271 E0.01687
G1 X142.757 Y167.730 E0.28772
G1 X143.293 Y167.730 E0.01687
G1 X136.833 Y161.271 E0.28772
G1 X137.369 Y161.271 E0.01687
G1 X143.829 Y167.730 E0.28772
G1 X144.364 Y167.730 E0.01687
G1 X137.905 Y161.271 E0.28772
G1 X138.440 Y161.271 E0.01687
G1 X144.900 Y167.730 E0.28772
G1 X145.436 Y167.730 E0.01687
G1 X138.976 Y161.271 E0.28772
G1 X139.512 Y161.271 E0.01687
G1 X145.971 Y167.730 E0.28772
M73 Q2 S97
M73 P2 R96
G1 X146.507 Y167.730 E0.01687
G1 X140.047 Y161.271 E0.28772
G1 X140.583 Y161.271 E0.01687
G1 X147.043 Y167.730 E0.28772
G1 X147.578 Y167.730 E0.01687
G1 X141.119 Y161.271 E0.28772
G1 X141.654 Y161.271 E0.01687
G1 X148.114 Y167.730 E0.28772
G1 X148.650 Y167.730 E0.01687
G1 X142.190 Y161.271 E0.28772
G1 X142.726 Y161.271 E0.01687
G1 X149.185 Y167.730 E0.28772
G1 X149.721 Y167.730 E0.01687
G1 X143.261 Y161.271 E0.28772
G1 X143.797 Y161.271 E0.01687
G1 X150.257 Y167.730 E0.28772
G1 X150.792 Y167.730 E0.01687
G1 X144.333 Y161.271 E0.28772
G1 X144.868 Y161.271 E0.01687
G1 X151.328 Y167.730 E0.28772
G1 X151.864 Y167.730 E0.01687
G1 X145.404 Y161.271 E0.28772
G1 X145.940 Y161.271 E0.01687
G1 X152.399 Y167.730 E0.28772
G1 X152.935 Y167.730 E0.01687
G1 X146.475 Y161.271 E0.28772
G1 X147.011 Y161.271 E0.01687
G1 X153.471 Y167.730 E0.28772
G1 X154.006 Y167.730 E0.01687
G1 X147.547 Y161.271 E0.28772
G1 X148.082 Y161.271 E0.01687
G1 X154.542 Y167.730 E0.28772
G1 X155.078 Y167.730 E0.01687
G1 X148.618 Y161.271 E0.28772
G1 X149.154 Y161.271 E0.01687
G1 X155.613 Y167.730 E0.28772
G1 X155.880 Y167.730 E0.00840
G1 X155.880 Y167.461 E0.00847
G1 X149.690 Y161.271 E0.27575
G1 X150.225 Y161.271 E0.01687
G1 X155.880 Y166.926 E0.25189
G1 X155.880 Y166.390 E0.01687
G1 X150.761 Y161.271 E0.22803
G1 X151.297 Y161.271 E0.01687
G1 X155.880 Y165.854 E0.20417
G1 X155.880 Y165.319 E0.01687
G1 X151.832 Y161.271 E0.18032
G1 X152.368 Y161.271 E0.01687
G1 X155.881 Y164.783 E0.15646
G1 X155.881 Y164.248 E0.01687
G1 X152.904 Y161.271 E0.13260
G1 X153.439 Y161.271 E0.01687
G1 X155.881 Y163.712 E0.10875
G1 X155.881 Y163.176 E0.01687
G1 X153.975 Y161.271 E0.08489
G1 X154.509 Y161.269 E0.01683
G1 X155.881 Y162.641 E0.06109
G1 X155.881 Y162.105 E0.01687
G1 X155.028 Y161.252 E0.03798
G1 X155.545 Y161.233 E0.01628
G1 X156.053 Y161.741 E0.02265
M204 S1000
G1 F8640.000
G1 X155.545 Y161.233 E-0.16602
G1 X155.028 Y161.252 E-0.11933
G1 X155.881 Y162.105 E-0.27847
G1 X155.881 Y162.641 E-0.12368
G1 X155.659 Y162.419 E-0.07250
G1 E-0.04000 F2100.00000
G1 Z0.800 F10800.000
G1 X156.427 Y143.796
G1 Z0.200
G1 E0.80000 F2100.00000
M204 S500
G1 F1200.000
G1 X156.394 Y143.315 E0.00327
G1 X156.427 Y142.833 E0.00327
M204 S1000
G1 F8640.000
G1 X156.394 Y143.315 E-0.11139
G1 X156.427 Y143.796 E-0.11139
G1 E-0.57722 F2100.00000
G1 Z0.800 F10800.000
G1 X156.427 Y126.796
G1 Z0.200
G1 E0.80000 F2100.00000
M204 S500
G1 F1200.000
G1 X156.393 Y126.300 E0.00342
G1 X156.427 Y125.803 E0.00342
M204 S1000
G1 F8640.000
G1 X156.393 Y126.300 E-0.11486
G1 X156.427 Y126.796 E-0.11486
G1 E-0.57028 F2100.00000
G1 Z0.800 F10800.000
G1 X156.427 Y109.766
G1 Z0.200
G1 E0.80000 F2100.00000
M204 S500
G1 F1200.000
G1 X156.395 Y109.300 E0.00313
G1 X156.427 Y108.833 E0.00313
M204 S1000
G1 F8640.000
G1 X156.395 Y109.300 E-0.10792
G1 X156.427 Y109.766 E-0.10792
G1 E-0.58416 F2100.00000
G1 Z0.800 F10800.000
G1 X156.427 Y92.796
G1 Z0.200
G1 E0.80000 F2100.00000
M204 S500
G1 F1200.000
G1 X156.393 Y92.300 E0.00342
G1 X156.427 Y91.803 E0.00342
M204 S1000
G1 F8640.000
G1 X156.393 Y92.300 E-0.11486
G1 X156.427 Y92.796 E-0.11486
G1 E-0.57028 F2100.00000
G1 Z0.800 F10800.000
G1 X156.427 Y75.766
G1 Z0.200
G1 E0.80000 F2100.00000
M204 S500
G1 F1200.000
G1 X156.394 Y75.285 E0.00327
G1 X156.427 Y74.803 E0.00327
M204 S1000
G1 F8640.000
G1 X156.394 Y75.285 E-0.11139
G1 X156.427 Y75.766 E-0.11139
G1 E-0.57722 F2100.00000
G1 Z0.800 F10800.000
G1 X156.050 Y42.876
G1 Z0.200
G1 E0.80000 F2100.00000
M204 S500
G1 F1200.000
G1 X155.453 Y42.280 E0.02657
G1 X154.918 Y42.280 E0.01688
